%
(Wooden toy block)
(toy block)
(T1  D=0.375 CR=0 - ZMIN=-0.78 - flat end mill)
N0 G90
N1 G17
(2D Pocket1)
N2 T1 M6
N3 S10000 M3
N5 G0 X0.5348 Y0.4528
N6 Z0.24
N7 Z0.2269
N8 G1 Z0.1368 F20
N9 G3 X0.5358 Y0.4538 Z0.1266 I-0.041 J0.0472
N10 X0.5388 Y0.4567 Z0.1172 I-0.0421 J0.0462
N11 X0.5431 Y0.4616 Z0.1092 I-0.0451 J0.0433
N12 X0.5478 Y0.4687 Z0.1033 I-0.0493 J0.0384
N13 X0.552 Y0.4774 Z0.1 I-0.0541 J0.0313
N14 X0.4938 Y0.5625 Z0.0764 I-0.0583 J0.0226
N15 G1 X0.3062 Z0.04
N16 G3 Y0.4375 Z0.0018 I0 J-0.0625
N17 G1 X0.4938 Z-0.0346
N18 G3 Y0.5625 Z-0.0728 I0 J0.0625
N19 G1 X0.3062 Z-0.1092
N20 G3 Y0.4375 Z-0.1474 I0 J-0.0625
N21 G1 X0.4938 Z-0.1839
N22 G3 X0.5122 Y0.4403 Z-0.1875 I0 J0.0625
N23 X0.4938 Y0.5625 I-0.0185 J0.0597 F30
N24 G1 X0.3062
N25 G3 Y0.4375 I0 J-0.0625
N26 G1 X0.4938
N27 G3 X0.5122 Y0.4403 I0 J0.0625
N28 X0.4938 Y0.5625 Z-0.222 I-0.0185 J0.0597 F20
N29 G1 X0.3062 Z-0.2585
N30 G3 Y0.4375 Z-0.2966 I0 J-0.0625
N31 G1 X0.4938 Z-0.3331
N32 G3 Y0.5625 Z-0.3712 I0 J0.0625
N33 G1 X0.4745 Z-0.375
N34 X0.3062 F30
N35 G3 Y0.4375 I0 J-0.0625
N36 G1 X0.4938
N37 G3 Y0.5625 I0 J0.0625
N38 G1 X0.4745
N39 X0.3062 Z-0.4077 F20
N40 G3 Y0.4375 Z-0.4459 I0 J-0.0625
N41 G1 X0.4938 Z-0.4823
N42 G3 Y0.5625 Z-0.5205 I0 J0.0625
N43 G1 X0.3062 Z-0.5569
N44 G3 X0.2785 Y0.556 Z-0.5625 I0 J-0.0625
N45 X0.3062 Y0.4375 I0.0277 J-0.056 F30
N46 G1 X0.4938
N47 G3 Y0.5625 I0 J0.0625
N48 G1 X0.3062
N49 G3 X0.2785 Y0.556 I0 J-0.0625
N50 X0.3062 Y0.4375 Z-0.5951 I0.0277 J-0.056 F20
N51 G1 X0.4938 Z-0.6315
N52 G3 Y0.5625 Z-0.6697 I0 J0.0625
N53 G1 X0.4858 Z-0.6712
N54 X0.3062 F30
N55 G3 Y0.4375 I0 J-0.0625
N56 G1 X0.4938
N57 G3 Y0.5625 I0 J0.0625
N58 G1 X0.4858
N59 X0.3062 Z-0.7061 F20
N60 G3 Y0.4375 Z-0.7443 I0 J-0.0625
N61 G1 X0.4898 Z-0.78
N62 X0.4938 F30
N63 G3 Y0.5625 I0 J0.0625
N64 G1 X0.3062
N65 G3 Y0.4375 I0 J-0.0625
N66 G1 X0.4898
N67 G3 X0.4994 Y0.4387 Z-0.7787 I0 J0.0375 F20
N68 X0.5078 Y0.4421 Z-0.775 I-0.0096 J0.0363
N69 X0.5142 Y0.4465 Z-0.769 I-0.018 J0.0329
N70 X0.5184 Y0.4507 Z-0.7613 I-0.0244 J0.0285
N71 X0.5207 Y0.4537 Z-0.7522 I-0.0286 J0.0243
N72 X0.5214 Y0.4547 Z-0.7425 I-0.0308 J0.0213
N73 G0 Z0.24
N74 X1.3902 Y0.5472
N75 Z0.2269
N76 G1 Z0.1368 F20
N77 G3 X1.3892 Y0.5462 Z0.1266 I0.041 J-0.0472
N78 X1.3862 Y0.5433 Z0.1172 I0.0421 J-0.0462
N79 X1.3819 Y0.5384 Z0.1092 I0.045 J-0.0433
N80 X1.3772 Y0.5313 Z0.1033 I0.0493 J-0.0384
N81 X1.373 Y0.5226 Z0.1 I0.0541 J-0.0313
N82 X1.4313 Y0.4375 Z0.0764 I0.0583 J-0.0226
N83 G1 X1.6188 Z0.04
N84 G3 Y0.5625 Z0.0018 I0 J0.0625
N85 G1 X1.4313 Z-0.0346
N86 G3 Y0.4375 Z-0.0728 I0 J-0.0625
N87 G1 X1.6188 Z-0.1092
N88 G3 Y0.5625 Z-0.1474 I0 J0.0625
N89 G1 X1.4313 Z-0.1839
N90 G3 X1.4128 Y0.5597 Z-0.1875 I0 J-0.0625
N91 X1.4313 Y0.4375 I0.0185 J-0.0597 F30
N92 G1 X1.6188
N93 G3 Y0.5625 I0 J0.0625
N94 G1 X1.4313
N95 G3 X1.4128 Y0.5597 I0 J-0.0625
N96 X1.4313 Y0.4375 Z-0.222 I0.0185 J-0.0597 F20
N97 G1 X1.6188 Z-0.2585
N98 G3 Y0.5625 Z-0.2966 I0 J0.0625
N99 G1 X1.4313 Z-0.3331
N100 G3 Y0.4375 Z-0.3712 I0 J-0.0625
N101 G1 X1.4506 Z-0.375
N102 X1.6188 F30
N103 G3 Y0.5625 I0 J0.0625
N104 G1 X1.4313
N105 G3 Y0.4375 I0 J-0.0625
N106 G1 X1.4506
N107 X1.6188 Z-0.4077 F20
N108 G3 Y0.5625 Z-0.4459 I0 J0.0625
N109 G1 X1.4313 Z-0.4823
N110 G3 Y0.4375 Z-0.5205 I0 J-0.0625
N111 G1 X1.6188 Z-0.5569
N112 G3 X1.6465 Y0.444 Z-0.5625 I0 J0.0625
N113 X1.6188 Y0.5625 I-0.0277 J0.056 F30
N114 G1 X1.4313
N115 G3 Y0.4375 I0 J-0.0625
N116 G1 X1.6188
N117 G3 X1.6465 Y0.444 I0 J0.0625
N118 X1.6188 Y0.5625 Z-0.5951 I-0.0277 J0.056 F20
N119 G1 X1.4313 Z-0.6315
N120 G3 Y0.4375 Z-0.6697 I0 J-0.0625
N121 G1 X1.4392 Z-0.6712
N122 X1.6188 F30
N123 G3 Y0.5625 I0 J0.0625
N124 G1 X1.4313
N125 G3 Y0.4375 I0 J-0.0625
N126 G1 X1.4392
N127 X1.6188 Z-0.7061 F20
N128 G3 Y0.5625 Z-0.7443 I0 J0.0625
N129 G1 X1.4352 Z-0.78
N130 X1.4313 F30
N131 G3 Y0.4375 I0 J-0.0625
N132 G1 X1.6188
N133 G3 Y0.5625 I0 J0.0625
N134 G1 X1.4352
N135 G3 X1.4256 Y0.5613 Z-0.7787 I0 J-0.0375 F20
N136 X1.4172 Y0.5579 Z-0.775 I0.0096 J-0.0363
N137 X1.4108 Y0.5535 Z-0.769 I0.018 J-0.0329
N138 X1.4066 Y0.5493 Z-0.7613 I0.0244 J-0.0285
N139 X1.4043 Y0.5463 Z-0.7522 I0.0286 J-0.0243
N140 X1.4036 Y0.5453 Z-0.7425 I0.0308 J-0.0213
N141 G0 Z0.24
N142 X2.699 Y0.5625
N143 Z0.2269
N144 G1 Z0.1368 F20
N145 G18 G3 X2.6687 Z0.1 I-0.0375 K0
N146 G1 X2.5563 Z0.0781
N147 G17 G3 Y0.4375 Z0.04 I0 J-0.0625
N148 G1 X2.7437 Z0.0035
N149 G3 X2.8063 Y0.5 Z-0.0155 I0 J0.0625
N150 X2.7438 Y0.5625 Z-0.0346 I-0.0625 J0
N151 G1 X2.5563 Z-0.0711
N152 G3 Y0.4375 Z-0.1092 I0 J-0.0625
N153 G1 X2.7437 Z-0.1457
N154 G3 X2.8063 Y0.5 Z-0.1648 I0 J0.0625
N155 X2.7438 Y0.5625 Z-0.1839 I-0.0625 J0
N156 G1 X2.725 Z-0.1875
N157 X2.5563 F30
N158 G3 Y0.4375 I0 J-0.0625
N159 G1 X2.7437
N160 G3 X2.8063 Y0.5 I0 J0.0625
N161 X2.7438 Y0.5625 I-0.0625 J0
N162 G1 X2.725
N163 X2.5563 Z-0.2203 F20
N164 G3 Y0.4375 Z-0.2585 I0 J-0.0625
N165 G1 X2.7437 Z-0.2949
N166 G3 X2.8063 Y0.5 Z-0.314 I0 J0.0625
N167 X2.7438 Y0.5625 Z-0.3331 I-0.0625 J0
N168 G1 X2.5563 Z-0.3695
N169 G3 X2.529 Y0.5563 Z-0.375 I0 J-0.0625
N170 X2.5563 Y0.4375 I0.0272 J-0.0563 F30
N171 G1 X2.7437
N172 G3 X2.8063 Y0.5 I0 J0.0625
N173 X2.7438 Y0.5625 I-0.0625 J0
N174 G1 X2.5563
N175 G3 X2.529 Y0.5563 I0 J-0.0625
N176 X2.5563 Y0.4375 Z-0.4077 I0.0272 J-0.0563 F20
N177 G1 X2.7437 Z-0.4441
N178 G3 X2.8063 Y0.5 Z-0.4632 I0 J0.0625
N179 X2.7438 Y0.5625 Z-0.4823 I-0.0625 J0
N180 G1 X2.5563 Z-0.5188
N181 G3 Y0.4375 Z-0.5569 I0 J-0.0625
N182 G1 X2.585 Z-0.5625
N183 X2.7437 F30
N184 G3 X2.8063 Y0.5 I0 J0.0625
N185 X2.7438 Y0.5625 I-0.0625 J0
N186 G1 X2.5563
N187 G3 Y0.4375 I0 J-0.0625
N188 G1 X2.585
N189 X2.7437 Z-0.5934 F20
N190 G3 X2.8063 Y0.5 Z-0.6124 I0 J0.0625
N191 X2.7438 Y0.5625 Z-0.6315 I-0.0625 J0
N192 G1 X2.5563 Z-0.668
N193 G3 X2.5396 Y0.5602 Z-0.6712 I0 J-0.0625
N194 X2.5563 Y0.4375 I0.0166 J-0.0602 F30
N195 G1 X2.7437
N196 G3 X2.8063 Y0.5 I0 J0.0625
N197 X2.7438 Y0.5625 I-0.0625 J0
N198 G1 X2.5563
N199 G3 X2.5396 Y0.5602 I0 J-0.0625
N200 X2.5563 Y0.4375 Z-0.7061 I0.0166 J-0.0602 F20
N201 G1 X2.7437 Z-0.7426
N202 G3 X2.7476 Y0.5624 Z-0.78 I0 J0.0625
N203 X2.7438 Y0.5625 I-0.0039 J-0.0624 F30
N204 G1 X2.5563
N205 G3 Y0.4375 I0 J-0.0625
N206 G1 X2.7437
N207 G3 X2.7476 Y0.5624 I0 J0.0625
N208 X2.738 Y0.5617 Z-0.7787 I-0.0023 J-0.0374 F20
N209 X2.7294 Y0.5589 Z-0.775 I0.0073 J-0.0368
N210 X2.7228 Y0.5549 Z-0.769 I0.0159 J-0.034
N211 X2.7183 Y0.551 Z-0.7613 I0.0225 J-0.03
N212 X2.7158 Y0.5482 Z-0.7522 I0.027 J-0.026
N213 X2.7151 Y0.5471 Z-0.7425 I0.0295 J-0.0232
N214 G0 Z0.24
N215 X3.726 Y0.4375
N216 Z0.2269
N217 G1 Z0.1368 F20
N218 G18 G2 X3.7563 Z0.1 I0.0375 K0
N219 G1 X3.8687 Z0.0781
N220 G17 G3 X3.9313 Y0.5 Z0.0591 I0 J0.0625
N221 X3.8688 Y0.5625 Z0.04 I-0.0625 J0
N222 G1 X3.6813 Z0.0035
N223 G3 X3.6188 Y0.5 Z-0.0155 I0 J-0.0625
N224 X3.6812 Y0.4375 Z-0.0346 I0.0625 J0
N225 G1 X3.8687 Z-0.0711
N226 G3 X3.9313 Y0.5 Z-0.0902 I0 J0.0625
N227 X3.8688 Y0.5625 Z-0.1092 I-0.0625 J0
N228 G1 X3.6813 Z-0.1457
N229 G3 X3.6188 Y0.5 Z-0.1648 I0 J-0.0625
N230 X3.6812 Y0.4375 Z-0.1839 I0.0625 J0
N231 G1 X3.7 Z-0.1875
N232 X3.8687 F30
N233 G3 X3.9313 Y0.5 I0 J0.0625
N234 X3.8688 Y0.5625 I-0.0625 J0
N235 G1 X3.6813
N236 G3 X3.6188 Y0.5 I0 J-0.0625
N237 X3.6812 Y0.4375 I0.0625 J0
N238 G1 X3.7
N239 X3.8687 Z-0.2203 F20
N240 G3 X3.9313 Y0.5 Z-0.2394 I0 J0.0625
N241 X3.8688 Y0.5625 Z-0.2585 I-0.0625 J0
N242 G1 X3.6813 Z-0.2949
N243 G3 X3.6188 Y0.5 Z-0.314 I0 J-0.0625
N244 X3.6812 Y0.4375 Z-0.3331 I0.0625 J0
N245 G1 X3.8687 Z-0.3695
N246 G3 X3.896 Y0.4437 Z-0.375 I0 J0.0625
N247 X3.8688 Y0.5625 I-0.0272 J0.0563 F30
N248 G1 X3.6813
N249 G3 X3.6188 Y0.5 I0 J-0.0625
N250 X3.6812 Y0.4375 I0.0625 J0
N251 G1 X3.8687
N252 G3 X3.896 Y0.4437 I0 J0.0625
N253 X3.8688 Y0.5625 Z-0.4077 I-0.0272 J0.0563 F20
N254 G1 X3.6813 Z-0.4441
N255 G3 X3.6188 Y0.5 Z-0.4632 I0 J-0.0625
N256 X3.6812 Y0.4375 Z-0.4823 I0.0625 J0
N257 G1 X3.8687 Z-0.5188
N258 G3 X3.9313 Y0.5 Z-0.5378 I0 J0.0625
N259 X3.8688 Y0.5625 Z-0.5569 I-0.0625 J0
N260 G1 X3.84 Z-0.5625
N261 X3.6813 F30
N262 G3 X3.6188 Y0.5 I0 J-0.0625
N263 X3.6812 Y0.4375 I0.0625 J0
N264 G1 X3.8687
N265 G3 X3.9313 Y0.5 I0 J0.0625
N266 X3.8688 Y0.5625 I-0.0625 J0
N267 G1 X3.84
N268 X3.6813 Z-0.5934 F20
N269 G3 X3.6188 Y0.5 Z-0.6124 I0 J-0.0625
N270 X3.6812 Y0.4375 Z-0.6315 I0.0625 J0
N271 G1 X3.8687 Z-0.668
N272 G3 X3.8854 Y0.4398 Z-0.6712 I0 J0.0625
N273 X3.8688 Y0.5625 I-0.0166 J0.0602 F30
N274 G1 X3.6813
N275 G3 X3.6188 Y0.5 I0 J-0.0625
N276 X3.6812 Y0.4375 I0.0625 J0
N277 G1 X3.8687
N278 G3 X3.8854 Y0.4398 I0 J0.0625
N279 X3.8688 Y0.5625 Z-0.7061 I-0.0166 J0.0602 F20
N280 G1 X3.6813 Z-0.7426
N281 G3 X3.6774 Y0.4376 Z-0.78 I0 J-0.0625
N282 X3.6812 Y0.4375 I0.0039 J0.0624 F30
N283 G1 X3.8687
N284 G3 X3.9313 Y0.5 I0 J0.0625
N285 X3.8688 Y0.5625 I-0.0625 J0
N286 G1 X3.6813
N287 G3 X3.6774 Y0.4376 I0 J-0.0625
N288 X3.687 Y0.4383 Z-0.7787 I0.0023 J0.0374 F20
N289 X3.6956 Y0.4411 Z-0.775 I-0.0073 J0.0368
N290 X3.7022 Y0.4451 Z-0.769 I-0.0159 J0.034
N291 X3.7067 Y0.449 Z-0.7613 I-0.0225 J0.03
N292 X3.7091 Y0.4518 Z-0.7522 I-0.027 J0.026
N293 X3.7099 Y0.4529 Z-0.7425 I-0.0295 J0.0232
N294 G0 Z0.24
N295 X4.9491 Y0.5625
N296 Z0.2269
N297 G1 Z0.1368 F20
N298 G18 G3 X4.9187 Z0.1 I-0.0375 K0
N299 G1 X4.8063 Z0.0781
N300 G17 G3 Y0.4375 Z0.04 I0 J-0.0625
N301 G1 X4.9937 Z0.0035
N302 G3 Y0.5625 Z-0.0346 I0 J0.0625
N303 G1 X4.8063 Z-0.0711
N304 G3 Y0.4375 Z-0.1092 I0 J-0.0625
N305 G1 X4.9937 Z-0.1457
N306 G3 Y0.5625 Z-0.1839 I0 J0.0625
N307 G1 X4.975 Z-0.1875
N308 X4.8063 F30
N309 G3 Y0.4375 I0 J-0.0625
N310 G1 X4.9937
N311 G3 Y0.5625 I0 J0.0625
N312 G1 X4.975
N313 X4.8063 Z-0.2203 F20
N314 G3 Y0.4375 Z-0.2585 I0 J-0.0625
N315 G1 X4.9937 Z-0.2949
N316 G3 Y0.5625 Z-0.3331 I0 J0.0625
N317 G1 X4.8063 Z-0.3695
N318 G3 X4.779 Y0.5562 Z-0.375 I0 J-0.0625
N319 X4.8063 Y0.4375 I0.0273 J-0.0562 F30
N320 G1 X4.9937
N321 G3 Y0.5625 I0 J0.0625
N322 G1 X4.8063
N323 G3 X4.779 Y0.5562 I0 J-0.0625
N324 X4.8063 Y0.4375 Z-0.4077 I0.0273 J-0.0562 F20
N325 G1 X4.9937 Z-0.4441
N326 G3 Y0.5625 Z-0.4823 I0 J0.0625
N327 G1 X4.8063 Z-0.5187
N328 G3 Y0.4375 Z-0.5569 I0 J-0.0625
N329 G1 X4.8351 Z-0.5625
N330 X4.9937 F30
N331 G3 Y0.5625 I0 J0.0625
N332 G1 X4.8063
N333 G3 Y0.4375 I0 J-0.0625
N334 G1 X4.8351
N335 X4.9937 Z-0.5933 F20
N336 G3 Y0.5625 Z-0.6315 I0 J0.0625
N337 G1 X4.8063 Z-0.668
N338 G3 X4.7895 Y0.5602 Z-0.6712 I0 J-0.0625
N339 X4.8063 Y0.4375 I0.0168 J-0.0602 F30
N340 G1 X4.9937
N341 G3 Y0.5625 I0 J0.0625
N342 G1 X4.8063
N343 G3 X4.7895 Y0.5602 I0 J-0.0625
N344 X4.8063 Y0.4375 Z-0.7061 I0.0168 J-0.0602 F20
N345 G1 X4.9937 Z-0.7426
N346 G3 X4.9975 Y0.5624 Z-0.78 I0 J0.0625
N347 X4.9937 Y0.5625 I-0.0037 J-0.0624 F30
N348 G1 X4.8063
N349 G3 Y0.4375 I0 J-0.0625
N350 G1 X4.9937
N351 G3 X4.9975 Y0.5624 I0 J0.0625
N352 X4.9878 Y0.5617 Z-0.7787 I-0.0022 J-0.0374 F20
N353 X4.9793 Y0.5589 Z-0.775 I0.0074 J-0.0368
N354 X4.9726 Y0.5549 Z-0.769 I0.016 J-0.0339
N355 X4.9682 Y0.5509 Z-0.7613 I0.0226 J-0.0299
N356 X4.9657 Y0.5481 Z-0.7522 I0.0271 J-0.026
N357 X4.9649 Y0.5471 Z-0.7425 I0.0295 J-0.0231
N358 G0 Z0.24
N359 X5.9759 Y0.4375
N360 Z0.2269
N361 G1 Z0.1368 F20
N362 G18 G2 X6.0063 Z0.1 I0.0375 K0
N363 G1 X6.1187 Z0.0781
N364 G17 G3 Y0.5625 Z0.04 I0 J0.0625
N365 G1 X5.9313 Z0.0035
N366 G3 X5.8688 Y0.5 Z-0.0156 I0 J-0.0625
N367 X5.9313 Y0.4375 Z-0.0346 I0.0625 J0
N368 G1 X6.1187 Z-0.0711
N369 G3 Y0.5625 Z-0.1092 I0 J0.0625
N370 G1 X5.9313 Z-0.1457
N371 G3 X5.8688 Y0.5 Z-0.1648 I0 J-0.0625
N372 X5.9313 Y0.4375 Z-0.1839 I0.0625 J0
N373 G1 X5.95 Z-0.1875
N374 X6.1187 F30
N375 G3 Y0.5625 I0 J0.0625
N376 G1 X5.9313
N377 G3 X5.8688 Y0.5 I0 J-0.0625
N378 X5.9313 Y0.4375 I0.0625 J0
N379 G1 X5.95
N380 X6.1187 Z-0.2203 F20
N381 G3 Y0.5625 Z-0.2585 I0 J0.0625
N382 G1 X5.9313 Z-0.2949
N383 G3 X5.8688 Y0.5 Z-0.314 I0 J-0.0625
N384 X5.9313 Y0.4375 Z-0.3331 I0.0625 J0
N385 G1 X6.1187 Z-0.3695
N386 G3 X6.146 Y0.4438 Z-0.375 I0 J0.0625
N387 X6.1187 Y0.5625 I-0.0273 J0.0562 F30
N388 G1 X5.9313
N389 G3 X5.8688 Y0.5 I0 J-0.0625
N390 X5.9313 Y0.4375 I0.0625 J0
N391 G1 X6.1187
N392 G3 X6.146 Y0.4438 I0 J0.0625
N393 X6.1187 Y0.5625 Z-0.4077 I-0.0273 J0.0562 F20
N394 G1 X5.9313 Z-0.4441
N395 G3 X5.8688 Y0.5 Z-0.4632 I0 J-0.0625
N396 X5.9313 Y0.4375 Z-0.4823 I0.0625 J0
N397 G1 X6.1187 Z-0.5187
N398 G3 Y0.5625 Z-0.5569 I0 J0.0625
N399 G1 X6.0899 Z-0.5625
N400 X5.9313 F30
N401 G3 X5.8688 Y0.5 I0 J-0.0625
N402 X5.9313 Y0.4375 I0.0625 J0
N403 G1 X6.1187
N404 G3 Y0.5625 I0 J0.0625
N405 G1 X6.0899
N406 X5.9313 Z-0.5933 F20
N407 G3 X5.8688 Y0.5 Z-0.6124 I0 J-0.0625
N408 X5.9313 Y0.4375 Z-0.6315 I0.0625 J0
N409 G1 X6.1187 Z-0.668
N410 G3 X6.1355 Y0.4398 Z-0.6712 I0 J0.0625
N411 X6.1187 Y0.5625 I-0.0168 J0.0602 F30
N412 G1 X5.9313
N413 G3 X5.8688 Y0.5 I0 J-0.0625
N414 X5.9313 Y0.4375 I0.0625 J0
N415 G1 X6.1187
N416 G3 X6.1355 Y0.4398 I0 J0.0625
N417 X6.1187 Y0.5625 Z-0.7061 I-0.0168 J0.0602 F20
N418 G1 X5.9313 Z-0.7426
N419 G3 X5.8688 Y0.5 Z-0.7616 I0 J-0.0625
N420 X5.9275 Y0.4376 Z-0.78 I0.0625 J0
N421 X5.9313 Y0.4375 I0.0037 J0.0624 F30
N422 G1 X6.1187
N423 G3 Y0.5625 I0 J0.0625
N424 G1 X5.9313
N425 G3 X5.9275 Y0.4376 I0 J-0.0625
N426 X5.9372 Y0.4383 Z-0.7787 I0.0022 J0.0374 F20
N427 X5.9457 Y0.4411 Z-0.775 I-0.0074 J0.0368
N428 X5.9524 Y0.4451 Z-0.769 I-0.016 J0.0339
N429 X5.9568 Y0.4491 Z-0.7613 I-0.0226 J0.0299
N430 X5.9593 Y0.4519 Z-0.7522 I-0.0271 J0.026
N431 X5.9601 Y0.4529 Z-0.7425 I-0.0295 J0.0231
N432 G0 Z0.24
N433 X7.1009 Y0.4375
N434 Z0.2269
N435 G1 Z0.1368 F20
N436 G18 G2 X7.1313 Z0.1 I0.0375 K0
N437 G1 X7.2437 Z0.0781
N438 G17 G3 X7.3062 Y0.5 Z0.0591 I0 J0.0625
N439 X7.2437 Y0.5625 Z0.04 I-0.0625 J0
N440 G1 X7.0563 Z0.0035
N441 G3 X6.9938 Y0.5 Z-0.0156 I0 J-0.0625
N442 X7.0563 Y0.4375 Z-0.0346 I0.0625 J0
N443 G1 X7.2437 Z-0.0711
N444 G3 X7.3062 Y0.5 Z-0.0902 I0 J0.0625
N445 X7.2437 Y0.5625 Z-0.1092 I-0.0625 J0
N446 G1 X7.0563 Z-0.1457
N447 G3 X6.9938 Y0.5 Z-0.1648 I0 J-0.0625
N448 X7.0563 Y0.4375 Z-0.1839 I0.0625 J0
N449 G1 X7.075 Z-0.1875
N450 X7.2437 F30
N451 G3 X7.3062 Y0.5 I0 J0.0625
N452 X7.2437 Y0.5625 I-0.0625 J0
N453 G1 X7.0563
N454 G3 X6.9938 Y0.5 I0 J-0.0625
N455 X7.0563 Y0.4375 I0.0625 J0
N456 G1 X7.075
N457 X7.2437 Z-0.2203 F20
N458 G3 X7.271 Y0.4438 Z-0.2258 I0 J0.0625
N459 X7.3062 Y0.5 Z-0.2394 I-0.0273 J0.0562
N460 X7.2437 Y0.5625 Z-0.2585 I-0.0625 J0
N461 G1 X7.0563 Z-0.2949
N462 G3 X6.9938 Y0.5 Z-0.314 I0 J-0.0625
N463 X7.0563 Y0.4375 Z-0.3331 I0.0625 J0
N464 G1 X7.2437 Z-0.3695
N465 G3 X7.271 Y0.4438 Z-0.375 I0 J0.0625
N466 X7.2437 Y0.5625 I-0.0273 J0.0562 F30
N467 G1 X7.0563
N468 G3 X6.9938 Y0.5 I0 J-0.0625
N469 X7.0563 Y0.4375 I0.0625 J0
N470 G1 X7.2437
N471 G3 X7.271 Y0.4438 I0 J0.0625
N472 X7.3062 Y0.5 Z-0.3886 I-0.0273 J0.0562 F20
N473 X7.2437 Y0.5625 Z-0.4077 I-0.0625 J0
N474 G1 X7.0563 Z-0.4441
N475 G3 X6.9938 Y0.5 Z-0.4632 I0 J-0.0625
N476 X7.0563 Y0.4375 Z-0.4823 I0.0625 J0
N477 G1 X7.2437 Z-0.5187
N478 G3 X7.271 Y0.4438 Z-0.5242 I0 J0.0625
N479 X7.3062 Y0.5 Z-0.5378 I-0.0273 J0.0562
N480 X7.2437 Y0.5625 Z-0.5569 I-0.0625 J0
N481 G1 X7.2149 Z-0.5625
N482 X7.0563 F30
N483 G3 X6.9938 Y0.5 I0 J-0.0625
N484 X7.0563 Y0.4375 I0.0625 J0
N485 G1 X7.2437
N486 G3 X7.3062 Y0.5 I0 J0.0625
N487 X7.2437 Y0.5625 I-0.0625 J0
N488 G1 X7.2149
N489 X7.0563 Z-0.5933 F20
N490 G3 X6.9938 Y0.5 Z-0.6124 I0 J-0.0625
N491 X7.0563 Y0.4375 Z-0.6315 I0.0625 J0
N492 G1 X7.2437 Z-0.668
N493 G3 X7.2605 Y0.4398 Z-0.6712 I0 J0.0625
N494 X7.2437 Y0.5625 I-0.0168 J0.0602 F30
N495 G1 X7.0563
N496 G3 X6.9938 Y0.5 I0 J-0.0625
N497 X7.0563 Y0.4375 I0.0625 J0
N498 G1 X7.2437
N499 G3 X7.2605 Y0.4398 I0 J0.0625
N500 X7.3062 Y0.5 Z-0.687 I-0.0168 J0.0602 F20
N501 X7.2437 Y0.5625 Z-0.7061 I-0.0625 J0
N502 G1 X7.0563 Z-0.7426
N503 G3 X6.9938 Y0.5 Z-0.7616 I0 J-0.0625
N504 X7.0525 Y0.4376 Z-0.78 I0.0625 J0
N505 X7.0563 Y0.4375 I0.0037 J0.0624 F30
N506 G1 X7.2437
N507 G3 X7.3062 Y0.5 I0 J0.0625
N508 X7.2437 Y0.5625 I-0.0625 J0
N509 G1 X7.0563
N510 G3 X7.0525 Y0.4376 I0 J-0.0625
N511 X7.0622 Y0.4383 Z-0.7787 I0.0022 J0.0374 F20
N512 X7.0707 Y0.4411 Z-0.775 I-0.0074 J0.0368
N513 X7.0774 Y0.4451 Z-0.769 I-0.016 J0.0339
N514 X7.0818 Y0.4491 Z-0.7613 I-0.0226 J0.0299
N515 X7.0843 Y0.4519 Z-0.7522 I-0.0271 J0.026
N516 X7.0851 Y0.4529 Z-0.7425 I-0.0295 J0.0231
N517 G0 Z0.24
N518 X8.2259 Y0.4375
N519 Z0.2269
N520 G1 Z0.1368 F20
N521 G18 G2 X8.2563 Z0.1 I0.0375 K0
N522 G1 X8.3687 Z0.0781
N523 G17 G3 X8.4312 Y0.5 Z0.0591 I0 J0.0625
N524 X8.3687 Y0.5625 Z0.04 I-0.0625 J0
N525 G1 X8.1813 Z0.0035
N526 G3 Y0.4375 Z-0.0346 I0 J-0.0625
N527 G1 X8.3687 Z-0.0711
N528 G3 X8.4312 Y0.5 Z-0.0902 I0 J0.0625
N529 X8.3687 Y0.5625 Z-0.1092 I-0.0625 J0
N530 G1 X8.1813 Z-0.1457
N531 G3 Y0.4375 Z-0.1839 I0 J-0.0625
N532 G1 X8.2 Z-0.1875
N533 X8.3687 F30
N534 G3 X8.4312 Y0.5 I0 J0.0625
N535 X8.3687 Y0.5625 I-0.0625 J0
N536 G1 X8.1813
N537 G3 Y0.4375 I0 J-0.0625
N538 G1 X8.2
N539 X8.3687 Z-0.2203 F20
N540 G3 X8.4312 Y0.5 Z-0.2394 I0 J0.0625
N541 X8.3687 Y0.5625 Z-0.2585 I-0.0625 J0
N542 G1 X8.1813 Z-0.2949
N543 G3 Y0.4375 Z-0.3331 I0 J-0.0625
N544 G1 X8.3687 Z-0.3695
N545 G3 X8.396 Y0.4438 Z-0.375 I0 J0.0625
N546 X8.3687 Y0.5625 I-0.0273 J0.0562 F30
N547 G1 X8.1813
N548 G3 Y0.4375 I0 J-0.0625
N549 G1 X8.3687
N550 G3 X8.396 Y0.4438 I0 J0.0625
N551 X8.3687 Y0.5625 Z-0.4077 I-0.0273 J0.0562 F20
N552 G1 X8.1813 Z-0.4441
N553 G3 Y0.4375 Z-0.4823 I0 J-0.0625
N554 G1 X8.3687 Z-0.5187
N555 G3 X8.4312 Y0.5 Z-0.5378 I0 J0.0625
N556 X8.3687 Y0.5625 Z-0.5569 I-0.0625 J0
N557 G1 X8.3399 Z-0.5625
N558 X8.1813 F30
N559 G3 Y0.4375 I0 J-0.0625
N560 G1 X8.3687
N561 G3 X8.4312 Y0.5 I0 J0.0625
N562 X8.3687 Y0.5625 I-0.0625 J0
N563 G1 X8.3399
N564 X8.1813 Z-0.5933 F20
N565 G3 Y0.4375 Z-0.6315 I0 J-0.0625
N566 G1 X8.3687 Z-0.668
N567 G3 X8.3855 Y0.4398 Z-0.6712 I0 J0.0625
N568 X8.3687 Y0.5625 I-0.0168 J0.0602 F30
N569 G1 X8.1813
N570 G3 Y0.4375 I0 J-0.0625
N571 G1 X8.3687
N572 G3 X8.3855 Y0.4398 I0 J0.0625
N573 X8.4312 Y0.5 Z-0.687 I-0.0168 J0.0602 F20
N574 X8.3687 Y0.5625 Z-0.7061 I-0.0625 J0
N575 G1 X8.1813 Z-0.7426
N576 G3 X8.1775 Y0.4376 Z-0.78 I0 J-0.0625
N577 X8.1813 Y0.4375 I0.0037 J0.0624 F30
N578 G1 X8.3687
N579 G3 X8.4312 Y0.5 I0 J0.0625
N580 X8.3687 Y0.5625 I-0.0625 J0
N581 G1 X8.1813
N582 G3 X8.1775 Y0.4376 I0 J-0.0625
N583 X8.1872 Y0.4383 Z-0.7787 I0.0022 J0.0374 F20
N584 X8.1957 Y0.4411 Z-0.775 I-0.0074 J0.0368
N585 X8.2024 Y0.4451 Z-0.769 I-0.016 J0.0339
N586 X8.2068 Y0.4491 Z-0.7613 I-0.0226 J0.0299
N587 X8.2093 Y0.4519 Z-0.7522 I-0.0271 J0.026
N588 X8.2101 Y0.4529 Z-0.7425 I-0.0295 J0.0231
N589 G0 Z0.24
N590 X9.3509 Y0.4375
N591 Z0.2269
N592 G1 Z0.1368 F20
N593 G18 G2 X9.3813 Z0.1 I0.0375 K0
N594 G1 X9.4937 Z0.0781
N595 G17 G3 Y0.5625 Z0.04 I0 J0.0625
N596 G1 X9.3063 Z0.0035
N597 G3 Y0.4375 Z-0.0346 I0 J-0.0625
N598 G1 X9.4937 Z-0.0711
N599 G3 Y0.5625 Z-0.1092 I0 J0.0625
N600 G1 X9.3063 Z-0.1457
N601 G3 Y0.4375 Z-0.1839 I0 J-0.0625
N602 G1 X9.325 Z-0.1875
N603 X9.4937 F30
N604 G3 Y0.5625 I0 J0.0625
N605 G1 X9.3063
N606 G3 Y0.4375 I0 J-0.0625
N607 G1 X9.325
N608 X9.4937 Z-0.2203 F20
N609 G3 Y0.5625 Z-0.2585 I0 J0.0625
N610 G1 X9.3063 Z-0.2949
N611 G3 Y0.4375 Z-0.3331 I0 J-0.0625
N612 G1 X9.4937 Z-0.3695
N613 G3 X9.521 Y0.4438 Z-0.375 I0 J0.0625
N614 X9.4937 Y0.5625 I-0.0273 J0.0562 F30
N615 G1 X9.3063
N616 G3 Y0.4375 I0 J-0.0625
N617 G1 X9.4937
N618 G3 X9.521 Y0.4438 I0 J0.0625
N619 X9.4937 Y0.5625 Z-0.4077 I-0.0273 J0.0562 F20
N620 G1 X9.3063 Z-0.4441
N621 G3 Y0.4375 Z-0.4823 I0 J-0.0625
N622 G1 X9.4937 Z-0.5187
N623 G3 Y0.5625 Z-0.5569 I0 J0.0625
N624 G1 X9.4649 Z-0.5625
N625 X9.3063 F30
N626 G3 Y0.4375 I0 J-0.0625
N627 G1 X9.4937
N628 G3 Y0.5625 I0 J0.0625
N629 G1 X9.4649
N630 X9.3063 Z-0.5933 F20
N631 G3 Y0.4375 Z-0.6315 I0 J-0.0625
N632 G1 X9.4937 Z-0.668
N633 G3 X9.5105 Y0.4398 Z-0.6712 I0 J0.0625
N634 X9.4937 Y0.5625 I-0.0168 J0.0602 F30
N635 G1 X9.3063
N636 G3 Y0.4375 I0 J-0.0625
N637 G1 X9.4937
N638 G3 X9.5105 Y0.4398 I0 J0.0625
N639 X9.4937 Y0.5625 Z-0.7061 I-0.0168 J0.0602 F20
N640 G1 X9.3063 Z-0.7426
N641 G3 X9.3025 Y0.4376 Z-0.78 I0 J-0.0625
N642 X9.3063 Y0.4375 I0.0037 J0.0624 F30
N643 G1 X9.4937
N644 G3 Y0.5625 I0 J0.0625
N645 G1 X9.3063
N646 G3 X9.3025 Y0.4376 I0 J-0.0625
N647 X9.3122 Y0.4383 Z-0.7787 I0.0022 J0.0374 F20
N648 X9.3207 Y0.4411 Z-0.775 I-0.0074 J0.0368
N649 X9.3274 Y0.4451 Z-0.769 I-0.016 J0.0339
N650 X9.3318 Y0.4491 Z-0.7613 I-0.0226 J0.0299
N651 X9.3343 Y0.4519 Z-0.7522 I-0.0271 J0.026
N652 X9.3351 Y0.4529 Z-0.7425 I-0.0295 J0.0231
N653 G0 Z0.24
N654 X10.5741 Y0.5625
N655 Z0.2269
N656 G1 Z0.1368 F20
N657 G18 G3 X10.5437 Z0.1 I-0.0375 K0
N658 G1 X10.4313 Z0.0781
N659 G17 G3 X10.3688 Y0.5 Z0.0591 I0 J-0.0625
N660 X10.4313 Y0.4375 Z0.04 I0.0625 J0
N661 G1 X10.6187 Z0.0035
N662 G3 Y0.5625 Z-0.0346 I0 J0.0625
N663 G1 X10.4313 Z-0.0711
N664 G3 X10.3688 Y0.5 Z-0.0902 I0 J-0.0625
N665 X10.4313 Y0.4375 Z-0.1092 I0.0625 J0
N666 G1 X10.6187 Z-0.1457
N667 G3 Y0.5625 Z-0.1839 I0 J0.0625
N668 G1 X10.6 Z-0.1875
N669 X10.4313 F30
N670 G3 Y0.4375 I0 J-0.0625
N671 G1 X10.6187
N672 G3 Y0.5625 I0 J0.0625
N673 G1 X10.6
N674 X10.4313 Z-0.2203 F20
N675 G3 X10.404 Y0.5562 Z-0.2258 I0 J-0.0625
N676 X10.3688 Y0.5 Z-0.2394 I0.0273 J-0.0562
N677 X10.4313 Y0.4375 Z-0.2585 I0.0625 J0
N678 G1 X10.6187 Z-0.2949
N679 G3 Y0.5625 Z-0.3331 I0 J0.0625
N680 G1 X10.4313 Z-0.3695
N681 G3 X10.404 Y0.5562 Z-0.375 I0 J-0.0625
N682 X10.4313 Y0.4375 I0.0273 J-0.0562 F30
N683 G1 X10.6187
N684 G3 Y0.5625 I0 J0.0625
N685 G1 X10.4313
N686 G3 X10.404 Y0.5562 I0 J-0.0625
N687 X10.3688 Y0.5 Z-0.3886 I0.0273 J-0.0562 F20
N688 X10.4313 Y0.4375 Z-0.4077 I0.0625 J0
N689 G1 X10.6187 Z-0.4441
N690 G3 Y0.5625 Z-0.4823 I0 J0.0625
N691 G1 X10.4313 Z-0.5187
N692 G3 X10.404 Y0.5562 Z-0.5242 I0 J-0.0625
N693 X10.3688 Y0.5 Z-0.5378 I0.0273 J-0.0562
N694 X10.4313 Y0.4375 Z-0.5569 I0.0625 J0
N695 G1 X10.4601 Z-0.5625
N696 X10.6187 F30
N697 G3 Y0.5625 I0 J0.0625
N698 G1 X10.4313
N699 G3 Y0.4375 I0 J-0.0625
N700 G1 X10.4601
N701 X10.6187 Z-0.5933 F20
N702 G3 Y0.5625 Z-0.6315 I0 J0.0625
N703 G1 X10.4313 Z-0.668
N704 G3 X10.4145 Y0.5602 Z-0.6712 I0 J-0.0625
N705 X10.4313 Y0.4375 I0.0168 J-0.0602 F30
N706 G1 X10.6187
N707 G3 Y0.5625 I0 J0.0625
N708 G1 X10.4313
N709 G3 X10.4145 Y0.5602 I0 J-0.0625
N710 X10.3688 Y0.5 Z-0.687 I0.0168 J-0.0602 F20
N711 X10.4313 Y0.4375 Z-0.7061 I0.0625 J0
N712 G1 X10.6187 Z-0.7426
N713 G3 X10.6225 Y0.5624 Z-0.78 I0 J0.0625
N714 X10.6187 Y0.5625 I-0.0037 J-0.0624 F30
N715 G1 X10.4313
N716 G3 Y0.4375 I0 J-0.0625
N717 G1 X10.6187
N718 G3 X10.6225 Y0.5624 I0 J0.0625
N719 X10.6128 Y0.5617 Z-0.7787 I-0.0022 J-0.0374 F20
N720 X10.6043 Y0.5589 Z-0.775 I0.0074 J-0.0368
N721 X10.5976 Y0.5549 Z-0.769 I0.016 J-0.0339
N722 X10.5932 Y0.5509 Z-0.7613 I0.0226 J-0.0299
N723 X10.5907 Y0.5481 Z-0.7522 I0.0271 J-0.026
N724 X10.5899 Y0.5471 Z-0.7425 I0.0295 J-0.0231
N725 G0 Z0.24
N726 X11.6991 Y0.5625
N727 Z0.2269
N728 G1 Z0.1368 F20
N729 G18 G3 X11.6687 Z0.1 I-0.0375 K0
N730 G1 X11.5563 Z0.0781
N731 G17 G3 Y0.4375 Z0.04 I0 J-0.0625
N732 G1 X11.7437 Z0.0035
N733 G3 X11.8062 Y0.5 Z-0.0156 I0 J0.0625
N734 X11.7437 Y0.5625 Z-0.0346 I-0.0625 J0
N735 G1 X11.5563 Z-0.0711
N736 G3 Y0.4375 Z-0.1092 I0 J-0.0625
N737 G1 X11.7437 Z-0.1457
N738 G3 X11.8062 Y0.5 Z-0.1648 I0 J0.0625
N739 X11.7437 Y0.5625 Z-0.1839 I-0.0625 J0
N740 G1 X11.725 Z-0.1875
N741 X11.5563 F30
N742 G3 Y0.4375 I0 J-0.0625
N743 G1 X11.7437
N744 G3 Y0.5625 I0 J0.0625
N745 G1 X11.725
N746 X11.5563 Z-0.2203 F20
N747 G3 Y0.4375 Z-0.2585 I0 J-0.0625
N748 G1 X11.7437 Z-0.2949
N749 G3 X11.8062 Y0.5 Z-0.314 I0 J0.0625
N750 X11.7437 Y0.5625 Z-0.3331 I-0.0625 J0
N751 G1 X11.5563 Z-0.3695
N752 G3 X11.529 Y0.5562 Z-0.375 I0 J-0.0625
N753 X11.5563 Y0.4375 I0.0273 J-0.0562 F30
N754 G1 X11.7437
N755 G3 Y0.5625 I0 J0.0625
N756 G1 X11.5563
N757 G3 X11.529 Y0.5562 I0 J-0.0625
N758 X11.5563 Y0.4375 Z-0.4077 I0.0273 J-0.0562 F20
N759 G1 X11.7437 Z-0.4441
N760 G3 X11.8062 Y0.5 Z-0.4632 I0 J0.0625
N761 X11.7437 Y0.5625 Z-0.4823 I-0.0625 J0
N762 G1 X11.5563 Z-0.5187
N763 G3 Y0.4375 Z-0.5569 I0 J-0.0625
N764 G1 X11.5851 Z-0.5625
N765 X11.7437 F30
N766 G3 Y0.5625 I0 J0.0625
N767 G1 X11.5563
N768 G3 Y0.4375 I0 J-0.0625
N769 G1 X11.5851
N770 X11.7437 Z-0.5933 F20
N771 G3 X11.8062 Y0.5 Z-0.6124 I0 J0.0625
N772 X11.7437 Y0.5625 Z-0.6315 I-0.0625 J0
N773 G1 X11.5563 Z-0.668
N774 G3 X11.5395 Y0.5602 Z-0.6712 I0 J-0.0625
N775 X11.5563 Y0.4375 I0.0168 J-0.0602 F30
N776 G1 X11.7437
N777 G3 Y0.5625 I0 J0.0625
N778 G1 X11.5563
N779 G3 X11.5395 Y0.5602 I0 J-0.0625
N780 X11.5563 Y0.4375 Z-0.7061 I0.0168 J-0.0602 F20
N781 G1 X11.7437 Z-0.7426
N782 G3 X11.8062 Y0.5 Z-0.7616 I0 J0.0625
N783 X11.7475 Y0.5624 Z-0.78 I-0.0625 J0
N784 X11.7437 Y0.5625 I-0.0037 J-0.0624 F30
N785 G1 X11.5563
N786 G3 Y0.4375 I0 J-0.0625
N787 G1 X11.7437
N788 G3 X11.7475 Y0.5624 I0 J0.0625
N789 X11.7378 Y0.5617 Z-0.7787 I-0.0022 J-0.0374 F20
N790 X11.7293 Y0.5589 Z-0.775 I0.0074 J-0.0368
N791 X11.7226 Y0.5549 Z-0.769 I0.016 J-0.0339
N792 X11.7182 Y0.5509 Z-0.7613 I0.0226 J-0.0299
N793 X11.7157 Y0.5481 Z-0.7522 I0.0271 J-0.026
N794 X11.7149 Y0.5471 Z-0.7425 I0.0295 J-0.0231
N795 G0 Z0.24
N796 X12.8241 Y0.5625
N797 Z0.2269
N798 G1 Z0.1368 F20
N799 G18 G3 X12.7937 Z0.1 I-0.0375 K0
N800 G1 X12.6813 Z0.0781
N801 G17 G3 Y0.4375 Z0.04 I0 J-0.0625
N802 G1 X12.8687 Z0.0035
N803 G3 Y0.5625 Z-0.0346 I0 J0.0625
N804 G1 X12.6813 Z-0.0711
N805 G3 Y0.4375 Z-0.1092 I0 J-0.0625
N806 G1 X12.8687 Z-0.1457
N807 G3 Y0.5625 Z-0.1839 I0 J0.0625
N808 G1 X12.85 Z-0.1875
N809 X12.6813 F30
N810 G3 Y0.4375 I0 J-0.0625
N811 G1 X12.8687
N812 G3 Y0.5625 I0 J0.0625
N813 G1 X12.85
N814 X12.6813 Z-0.2203 F20
N815 G3 Y0.4375 Z-0.2585 I0 J-0.0625
N816 G1 X12.8687 Z-0.2949
N817 G3 Y0.5625 Z-0.3331 I0 J0.0625
N818 G1 X12.6813 Z-0.3695
N819 G3 X12.654 Y0.5562 Z-0.375 I0 J-0.0625
N820 X12.6813 Y0.4375 I0.0273 J-0.0562 F30
N821 G1 X12.8687
N822 G3 Y0.5625 I0 J0.0625
N823 G1 X12.6813
N824 G3 X12.654 Y0.5562 I0 J-0.0625
N825 X12.6813 Y0.4375 Z-0.4077 I0.0273 J-0.0562 F20
N826 G1 X12.8687 Z-0.4441
N827 G3 Y0.5625 Z-0.4823 I0 J0.0625
N828 G1 X12.6813 Z-0.5187
N829 G3 Y0.4375 Z-0.5569 I0 J-0.0625
N830 G1 X12.7101 Z-0.5625
N831 X12.8687 F30
N832 G3 Y0.5625 I0 J0.0625
N833 G1 X12.6813
N834 G3 Y0.4375 I0 J-0.0625
N835 G1 X12.7101
N836 X12.8687 Z-0.5933 F20
N837 G3 Y0.5625 Z-0.6315 I0 J0.0625
N838 G1 X12.6813 Z-0.668
N839 G3 X12.6645 Y0.5602 Z-0.6712 I0 J-0.0625
N840 X12.6813 Y0.4375 I0.0168 J-0.0602 F30
N841 G1 X12.8687
N842 G3 Y0.5625 I0 J0.0625
N843 G1 X12.6813
N844 G3 X12.6645 Y0.5602 I0 J-0.0625
N845 X12.6813 Y0.4375 Z-0.7061 I0.0168 J-0.0602 F20
N846 G1 X12.8687 Z-0.7426
N847 G3 X12.8725 Y0.5624 Z-0.78 I0 J0.0625
N848 X12.8687 Y0.5625 I-0.0037 J-0.0624 F30
N849 G1 X12.6813
N850 G3 Y0.4375 I0 J-0.0625
N851 G1 X12.8687
N852 G3 X12.8725 Y0.5624 I0 J0.0625
N853 X12.8628 Y0.5617 Z-0.7787 I-0.0022 J-0.0374 F20
N854 X12.8543 Y0.5589 Z-0.775 I0.0074 J-0.0368
N855 X12.8476 Y0.5549 Z-0.769 I0.016 J-0.0339
N856 X12.8432 Y0.5509 Z-0.7613 I0.0226 J-0.0299
N857 X12.8407 Y0.5481 Z-0.7522 I0.0271 J-0.026
N858 X12.8399 Y0.5471 Z-0.7425 I0.0295 J-0.0231
N859 G0 Z0.24
N860 X13.9491 Y0.5625
N861 Z0.2269
N862 G1 Z0.1368 F20
N863 G18 G3 X13.9187 Z0.1 I-0.0375 K0
N864 G1 X13.8063 Z0.0781
N865 G17 G3 Y0.4375 Z0.04 I0 J-0.0625
N866 G1 X13.9937 Z0.0035
N867 G3 Y0.5625 Z-0.0346 I0 J0.0625
N868 G1 X13.8063 Z-0.0711
N869 G3 Y0.4375 Z-0.1092 I0 J-0.0625
N870 G1 X13.9937 Z-0.1457
N871 G3 Y0.5625 Z-0.1839 I0 J0.0625
N872 G1 X13.975 Z-0.1875
N873 X13.8063 F30
N874 G3 Y0.4375 I0 J-0.0625
N875 G1 X13.9937
N876 G3 Y0.5625 I0 J0.0625
N877 G1 X13.975
N878 X13.8063 Z-0.2203 F20
N879 G3 Y0.4375 Z-0.2585 I0 J-0.0625
N880 G1 X13.9937 Z-0.2949
N881 G3 Y0.5625 Z-0.3331 I0 J0.0625
N882 G1 X13.8063 Z-0.3695
N883 G3 X13.779 Y0.5562 Z-0.375 I0 J-0.0625
N884 X13.8063 Y0.4375 I0.0273 J-0.0562 F30
N885 G1 X13.9937
N886 G3 Y0.5625 I0 J0.0625
N887 G1 X13.8063
N888 G3 X13.779 Y0.5562 I0 J-0.0625
N889 X13.8063 Y0.4375 Z-0.4077 I0.0273 J-0.0562 F20
N890 G1 X13.9937 Z-0.4441
N891 G3 Y0.5625 Z-0.4823 I0 J0.0625
N892 G1 X13.8063 Z-0.5187
N893 G3 Y0.4375 Z-0.5569 I0 J-0.0625
N894 G1 X13.8351 Z-0.5625
N895 X13.9937 F30
N896 G3 Y0.5625 I0 J0.0625
N897 G1 X13.8063
N898 G3 Y0.4375 I0 J-0.0625
N899 G1 X13.8351
N900 X13.9937 Z-0.5933 F20
N901 G3 Y0.5625 Z-0.6315 I0 J0.0625
N902 G1 X13.8063 Z-0.668
N903 G3 X13.7895 Y0.5602 Z-0.6712 I0 J-0.0625
N904 X13.8063 Y0.4375 I0.0168 J-0.0602 F30
N905 G1 X13.9937
N906 G3 Y0.5625 I0 J0.0625
N907 G1 X13.8063
N908 G3 X13.7895 Y0.5602 I0 J-0.0625
N909 X13.8063 Y0.4375 Z-0.7061 I0.0168 J-0.0602 F20
N910 G1 X13.9937 Z-0.7426
N911 G3 X13.9975 Y0.5624 Z-0.78 I0 J0.0625
N912 X13.9937 Y0.5625 I-0.0037 J-0.0624 F30
N913 G1 X13.8063
N914 G3 Y0.4375 I0 J-0.0625
N915 G1 X13.9937
N916 G3 X13.9975 Y0.5624 I0 J0.0625
N917 X13.9878 Y0.5617 Z-0.7787 I-0.0022 J-0.0374 F20
N918 X13.9793 Y0.5589 Z-0.775 I0.0074 J-0.0368
N919 X13.9726 Y0.5549 Z-0.769 I0.016 J-0.0339
N920 X13.9682 Y0.5509 Z-0.7613 I0.0226 J-0.0299
N921 X13.9657 Y0.5481 Z-0.7522 I0.0271 J-0.026
N922 X13.9649 Y0.5471 Z-0.7425 I0.0295 J-0.0231
N923 G0 Z0.24
N924 X0.5348 Y0.4528
N925 Z0.2269
N926 G1 Z0.1368 F20
N927 G3 X0.5358 Y0.4538 Z0.1266 I-0.041 J0.0472
N928 X0.5388 Y0.4567 Z0.1172 I-0.0421 J0.0462
N929 X0.5431 Y0.4616 Z0.1092 I-0.0451 J0.0433
N930 X0.5478 Y0.4687 Z0.1033 I-0.0493 J0.0384
N931 X0.552 Y0.4774 Z0.1 I-0.0541 J0.0313
N932 X0.4938 Y0.5625 Z0.0764 I-0.0583 J0.0226
N933 G1 X0.3062 Z0.04
N934 G3 Y0.4375 Z0.0018 I0 J-0.0625
N935 G1 X0.4938 Z-0.0346
N936 G3 Y0.5625 Z-0.0728 I0 J0.0625
N937 G1 X0.3062 Z-0.1092
N938 G3 Y0.4375 Z-0.1474 I0 J-0.0625
N939 G1 X0.4938 Z-0.1839
N940 G3 X0.5122 Y0.4403 Z-0.1875 I0 J0.0625
N941 X0.4938 Y0.5625 I-0.0185 J0.0597 F30
N942 G1 X0.3062
N943 G3 Y0.4375 I0 J-0.0625
N944 G1 X0.4938
N945 G3 X0.5122 Y0.4403 I0 J0.0625
N946 X0.4938 Y0.5625 Z-0.222 I-0.0185 J0.0597 F20
N947 G1 X0.3062 Z-0.2585
N948 G3 Y0.4375 Z-0.2966 I0 J-0.0625
N949 G1 X0.4938 Z-0.3331
N950 G3 Y0.5625 Z-0.3712 I0 J0.0625
N951 G1 X0.4745 Z-0.375
N952 X0.3062 F30
N953 G3 Y0.4375 I0 J-0.0625
N954 G1 X0.4938
N955 G3 Y0.5625 I0 J0.0625
N956 G1 X0.4745
N957 X0.3062 Z-0.4077 F20
N958 G3 Y0.4375 Z-0.4459 I0 J-0.0625
N959 G1 X0.4938 Z-0.4823
N960 G3 Y0.5625 Z-0.5205 I0 J0.0625
N961 G1 X0.3062 Z-0.5569
N962 G3 X0.2785 Y0.556 Z-0.5625 I0 J-0.0625
N963 X0.3062 Y0.4375 I0.0277 J-0.056 F30
N964 G1 X0.4938
N965 G3 Y0.5625 I0 J0.0625
N966 G1 X0.3062
N967 G3 X0.2785 Y0.556 I0 J-0.0625
N968 X0.3062 Y0.4375 Z-0.5951 I0.0277 J-0.056 F20
N969 G1 X0.4938 Z-0.6315
N970 G3 Y0.5625 Z-0.6697 I0 J0.0625
N971 G1 X0.4858 Z-0.6712
N972 X0.3062 F30
N973 G3 Y0.4375 I0 J-0.0625
N974 G1 X0.4938
N975 G3 Y0.5625 I0 J0.0625
N976 G1 X0.4858
N977 X0.3062 Z-0.7061 F20
N978 G3 Y0.4375 Z-0.7443 I0 J-0.0625
N979 G1 X0.4898 Z-0.78
N980 X0.4938 F30
N981 G3 Y0.5625 I0 J0.0625
N982 G1 X0.3062
N983 G3 Y0.4375 I0 J-0.0625
N984 G1 X0.4898
N985 G3 X0.4994 Y0.4387 Z-0.7787 I0 J0.0375 F20
N986 X0.5078 Y0.4421 Z-0.775 I-0.0096 J0.0363
N987 X0.5142 Y0.4465 Z-0.769 I-0.018 J0.0329
N988 X0.5184 Y0.4507 Z-0.7613 I-0.0244 J0.0285
N989 X0.5207 Y0.4537 Z-0.7522 I-0.0286 J0.0243
N990 X0.5214 Y0.4547 Z-0.7425 I-0.0308 J0.0213
N991 G0 Z0.24
N992 X0.5348 Y0.4528
N993 Z0.2269
N994 G1 Z0.1368 F20
N995 G3 X0.5358 Y0.4538 Z0.1266 I-0.041 J0.0472
N996 X0.5388 Y0.4567 Z0.1172 I-0.0421 J0.0462
N997 X0.5431 Y0.4616 Z0.1092 I-0.0451 J0.0433
N998 X0.5478 Y0.4687 Z0.1033 I-0.0493 J0.0384
N999 X0.552 Y0.4774 Z0.1 I-0.0541 J0.0313
N1000 X0.4938 Y0.5625 Z0.0764 I-0.0583 J0.0226
N1001 G1 X0.3062 Z0.04
N1002 G3 Y0.4375 Z0.0018 I0 J-0.0625
N1003 G1 X0.4938 Z-0.0346
N1004 G3 Y0.5625 Z-0.0728 I0 J0.0625
N1005 G1 X0.3062 Z-0.1092
N1006 G3 Y0.4375 Z-0.1474 I0 J-0.0625
N1007 G1 X0.4938 Z-0.1839
N1008 G3 X0.5122 Y0.4403 Z-0.1875 I0 J0.0625
N1009 X0.4938 Y0.5625 I-0.0185 J0.0597 F30
N1010 G1 X0.3062
N1011 G3 Y0.4375 I0 J-0.0625
N1012 G1 X0.4938
N1013 G3 X0.5122 Y0.4403 I0 J0.0625
N1014 X0.4938 Y0.5625 Z-0.222 I-0.0185 J0.0597 F20
N1015 G1 X0.3062 Z-0.2585
N1016 G3 Y0.4375 Z-0.2966 I0 J-0.0625
N1017 G1 X0.4938 Z-0.3331
N1018 G3 Y0.5625 Z-0.3712 I0 J0.0625
N1019 G1 X0.4745 Z-0.375
N1020 X0.3062 F30
N1021 G3 Y0.4375 I0 J-0.0625
N1022 G1 X0.4938
N1023 G3 Y0.5625 I0 J0.0625
N1024 G1 X0.4745
N1025 X0.3062 Z-0.4077 F20
N1026 G3 Y0.4375 Z-0.4459 I0 J-0.0625
N1027 G1 X0.4938 Z-0.4823
N1028 G3 Y0.5625 Z-0.5205 I0 J0.0625
N1029 G1 X0.3062 Z-0.5569
N1030 G3 X0.2785 Y0.556 Z-0.5625 I0 J-0.0625
N1031 X0.3062 Y0.4375 I0.0277 J-0.056 F30
N1032 G1 X0.4938
N1033 G3 Y0.5625 I0 J0.0625
N1034 G1 X0.3062
N1035 G3 X0.2785 Y0.556 I0 J-0.0625
N1036 X0.3062 Y0.4375 Z-0.5951 I0.0277 J-0.056 F20
N1037 G1 X0.4938 Z-0.6315
N1038 G3 Y0.5625 Z-0.6697 I0 J0.0625
N1039 G1 X0.4858 Z-0.6712
N1040 X0.3062 F30
N1041 G3 Y0.4375 I0 J-0.0625
N1042 G1 X0.4938
N1043 G3 Y0.5625 I0 J0.0625
N1044 G1 X0.4858
N1045 X0.3062 Z-0.7061 F20
N1046 G3 Y0.4375 Z-0.7443 I0 J-0.0625
N1047 G1 X0.4898 Z-0.78
N1048 X0.4938 F30
N1049 G3 Y0.5625 I0 J0.0625
N1050 G1 X0.3062
N1051 G3 Y0.4375 I0 J-0.0625
N1052 G1 X0.4898
N1053 G3 X0.4994 Y0.4387 Z-0.7787 I0 J0.0375 F20
N1054 X0.5078 Y0.4421 Z-0.775 I-0.0096 J0.0363
N1055 X0.5142 Y0.4465 Z-0.769 I-0.018 J0.0329
N1056 X0.5184 Y0.4507 Z-0.7613 I-0.0244 J0.0285
N1057 X0.5207 Y0.4537 Z-0.7522 I-0.0286 J0.0243
N1058 X0.5214 Y0.4547 Z-0.7425 I-0.0308 J0.0213
N1059 G0 Z0.24
N1060 X0.5348 Y0.4528
N1061 Z0.2269
N1062 G1 Z0.1368 F20
N1063 G3 X0.5358 Y0.4538 Z0.1266 I-0.041 J0.0472
N1064 X0.5388 Y0.4567 Z0.1172 I-0.0421 J0.0462
N1065 X0.5431 Y0.4616 Z0.1092 I-0.0451 J0.0433
N1066 X0.5478 Y0.4687 Z0.1033 I-0.0493 J0.0384
N1067 X0.552 Y0.4774 Z0.1 I-0.0541 J0.0313
N1068 X0.4938 Y0.5625 Z0.0764 I-0.0583 J0.0226
N1069 G1 X0.3062 Z0.04
N1070 G3 Y0.4375 Z0.0018 I0 J-0.0625
N1071 G1 X0.4938 Z-0.0346
N1072 G3 Y0.5625 Z-0.0728 I0 J0.0625
N1073 G1 X0.3062 Z-0.1092
N1074 G3 Y0.4375 Z-0.1474 I0 J-0.0625
N1075 G1 X0.4938 Z-0.1839
N1076 G3 X0.5122 Y0.4403 Z-0.1875 I0 J0.0625
N1077 X0.4938 Y0.5625 I-0.0185 J0.0597 F30
N1078 G1 X0.3062
N1079 G3 Y0.4375 I0 J-0.0625
N1080 G1 X0.4938
N1081 G3 X0.5122 Y0.4403 I0 J0.0625
N1082 X0.4938 Y0.5625 Z-0.222 I-0.0185 J0.0597 F20
N1083 G1 X0.3062 Z-0.2585
N1084 G3 Y0.4375 Z-0.2966 I0 J-0.0625
N1085 G1 X0.4938 Z-0.3331
N1086 G3 Y0.5625 Z-0.3712 I0 J0.0625
N1087 G1 X0.4745 Z-0.375
N1088 X0.3062 F30
N1089 G3 Y0.4375 I0 J-0.0625
N1090 G1 X0.4938
N1091 G3 Y0.5625 I0 J0.0625
N1092 G1 X0.4745
N1093 X0.3062 Z-0.4077 F20
N1094 G3 Y0.4375 Z-0.4459 I0 J-0.0625
N1095 G1 X0.4938 Z-0.4823
N1096 G3 Y0.5625 Z-0.5205 I0 J0.0625
N1097 G1 X0.3062 Z-0.5569
N1098 G3 X0.2785 Y0.556 Z-0.5625 I0 J-0.0625
N1099 X0.3062 Y0.4375 I0.0277 J-0.056 F30
N1100 G1 X0.4938
N1101 G3 Y0.5625 I0 J0.0625
N1102 G1 X0.3062
N1103 G3 X0.2785 Y0.556 I0 J-0.0625
N1104 X0.3062 Y0.4375 Z-0.5951 I0.0277 J-0.056 F20
N1105 G1 X0.4938 Z-0.6315
N1106 G3 Y0.5625 Z-0.6697 I0 J0.0625
N1107 G1 X0.4858 Z-0.6712
N1108 X0.3062 F30
N1109 G3 Y0.4375 I0 J-0.0625
N1110 G1 X0.4938
N1111 G3 Y0.5625 I0 J0.0625
N1112 G1 X0.4858
N1113 X0.3062 Z-0.7061 F20
N1114 G3 Y0.4375 Z-0.7443 I0 J-0.0625
N1115 G1 X0.4898 Z-0.78
N1116 X0.4938 F30
N1117 G3 Y0.5625 I0 J0.0625
N1118 G1 X0.3062
N1119 G3 Y0.4375 I0 J-0.0625
N1120 G1 X0.4898
N1121 G3 X0.4994 Y0.4387 Z-0.7787 I0 J0.0375 F20
N1122 X0.5078 Y0.4421 Z-0.775 I-0.0096 J0.0363
N1123 X0.5142 Y0.4465 Z-0.769 I-0.018 J0.0329
N1124 X0.5184 Y0.4507 Z-0.7613 I-0.0244 J0.0285
N1125 X0.5207 Y0.4537 Z-0.7522 I-0.0286 J0.0243
N1126 X0.5214 Y0.4547 Z-0.7425 I-0.0308 J0.0213
N1127 G0 Z0.24
N1128 X0.5348 Y0.4528
N1129 Z0.2269
N1130 G1 Z0.1368 F20
N1131 G3 X0.5358 Y0.4538 Z0.1266 I-0.041 J0.0472
N1132 X0.5388 Y0.4567 Z0.1172 I-0.0421 J0.0462
N1133 X0.5431 Y0.4616 Z0.1092 I-0.0451 J0.0433
N1134 X0.5478 Y0.4687 Z0.1033 I-0.0493 J0.0384
N1135 X0.552 Y0.4774 Z0.1 I-0.0541 J0.0313
N1136 X0.4938 Y0.5625 Z0.0764 I-0.0583 J0.0226
N1137 G1 X0.3062 Z0.04
N1138 G3 Y0.4375 Z0.0018 I0 J-0.0625
N1139 G1 X0.4938 Z-0.0346
N1140 G3 Y0.5625 Z-0.0728 I0 J0.0625
N1141 G1 X0.3062 Z-0.1092
N1142 G3 Y0.4375 Z-0.1474 I0 J-0.0625
N1143 G1 X0.4938 Z-0.1839
N1144 G3 X0.5122 Y0.4403 Z-0.1875 I0 J0.0625
N1145 X0.4938 Y0.5625 I-0.0185 J0.0597 F30
N1146 G1 X0.3062
N1147 G3 Y0.4375 I0 J-0.0625
N1148 G1 X0.4938
N1149 G3 X0.5122 Y0.4403 I0 J0.0625
N1150 X0.4938 Y0.5625 Z-0.222 I-0.0185 J0.0597 F20
N1151 G1 X0.3062 Z-0.2585
N1152 G3 Y0.4375 Z-0.2966 I0 J-0.0625
N1153 G1 X0.4938 Z-0.3331
N1154 G3 Y0.5625 Z-0.3712 I0 J0.0625
N1155 G1 X0.4745 Z-0.375
N1156 X0.3062 F30
N1157 G3 Y0.4375 I0 J-0.0625
N1158 G1 X0.4938
N1159 G3 Y0.5625 I0 J0.0625
N1160 G1 X0.4745
N1161 X0.3062 Z-0.4077 F20
N1162 G3 Y0.4375 Z-0.4459 I0 J-0.0625
N1163 G1 X0.4938 Z-0.4823
N1164 G3 Y0.5625 Z-0.5205 I0 J0.0625
N1165 G1 X0.3062 Z-0.5569
N1166 G3 X0.2785 Y0.556 Z-0.5625 I0 J-0.0625
N1167 X0.3062 Y0.4375 I0.0277 J-0.056 F30
N1168 G1 X0.4938
N1169 G3 Y0.5625 I0 J0.0625
N1170 G1 X0.3062
N1171 G3 X0.2785 Y0.556 I0 J-0.0625
N1172 X0.3062 Y0.4375 Z-0.5951 I0.0277 J-0.056 F20
N1173 G1 X0.4938 Z-0.6315
N1174 G3 Y0.5625 Z-0.6697 I0 J0.0625
N1175 G1 X0.4858 Z-0.6712
N1176 X0.3062 F30
N1177 G3 Y0.4375 I0 J-0.0625
N1178 G1 X0.4938
N1179 G3 Y0.5625 I0 J0.0625
N1180 G1 X0.4858
N1181 X0.3062 Z-0.7061 F20
N1182 G3 Y0.4375 Z-0.7443 I0 J-0.0625
N1183 G1 X0.4898 Z-0.78
N1184 X0.4938 F30
N1185 G3 Y0.5625 I0 J0.0625
N1186 G1 X0.3062
N1187 G3 Y0.4375 I0 J-0.0625
N1188 G1 X0.4898
N1189 G3 X0.4994 Y0.4387 Z-0.7787 I0 J0.0375 F20
N1190 X0.5078 Y0.4421 Z-0.775 I-0.0096 J0.0363
N1191 X0.5142 Y0.4465 Z-0.769 I-0.018 J0.0329
N1192 X0.5184 Y0.4507 Z-0.7613 I-0.0244 J0.0285
N1193 X0.5207 Y0.4537 Z-0.7522 I-0.0286 J0.0243
N1194 X0.5214 Y0.4547 Z-0.7425 I-0.0308 J0.0213
N1195 G0 Z0.24
N1196 X0.5348 Y0.4528
N1197 Z0.2269
N1198 G1 Z0.1368 F20
N1199 G3 X0.5358 Y0.4538 Z0.1266 I-0.041 J0.0472
N1200 X0.5388 Y0.4567 Z0.1172 I-0.0421 J0.0462
N1201 X0.5431 Y0.4616 Z0.1092 I-0.0451 J0.0433
N1202 X0.5478 Y0.4687 Z0.1033 I-0.0493 J0.0384
N1203 X0.552 Y0.4774 Z0.1 I-0.0541 J0.0313
N1204 X0.4938 Y0.5625 Z0.0764 I-0.0583 J0.0226
N1205 G1 X0.3062 Z0.04
N1206 G3 Y0.4375 Z0.0018 I0 J-0.0625
N1207 G1 X0.4938 Z-0.0346
N1208 G3 Y0.5625 Z-0.0728 I0 J0.0625
N1209 G1 X0.3062 Z-0.1092
N1210 G3 Y0.4375 Z-0.1474 I0 J-0.0625
N1211 G1 X0.4938 Z-0.1839
N1212 G3 X0.5122 Y0.4403 Z-0.1875 I0 J0.0625
N1213 X0.4938 Y0.5625 I-0.0185 J0.0597 F30
N1214 G1 X0.3062
N1215 G3 Y0.4375 I0 J-0.0625
N1216 G1 X0.4938
N1217 G3 X0.5122 Y0.4403 I0 J0.0625
N1218 X0.4938 Y0.5625 Z-0.222 I-0.0185 J0.0597 F20
N1219 G1 X0.3062 Z-0.2585
N1220 G3 Y0.4375 Z-0.2966 I0 J-0.0625
N1221 G1 X0.4938 Z-0.3331
N1222 G3 Y0.5625 Z-0.3712 I0 J0.0625
N1223 G1 X0.4745 Z-0.375
N1224 X0.3062 F30
N1225 G3 Y0.4375 I0 J-0.0625
N1226 G1 X0.4938
N1227 G3 Y0.5625 I0 J0.0625
N1228 G1 X0.4745
N1229 X0.3062 Z-0.4077 F20
N1230 G3 Y0.4375 Z-0.4459 I0 J-0.0625
N1231 G1 X0.4938 Z-0.4823
N1232 G3 Y0.5625 Z-0.5205 I0 J0.0625
N1233 G1 X0.3062 Z-0.5569
N1234 G3 X0.2785 Y0.556 Z-0.5625 I0 J-0.0625
N1235 X0.3062 Y0.4375 I0.0277 J-0.056 F30
N1236 G1 X0.4938
N1237 G3 Y0.5625 I0 J0.0625
N1238 G1 X0.3062
N1239 G3 X0.2785 Y0.556 I0 J-0.0625
N1240 X0.3062 Y0.4375 Z-0.5951 I0.0277 J-0.056 F20
N1241 G1 X0.4938 Z-0.6315
N1242 G3 Y0.5625 Z-0.6697 I0 J0.0625
N1243 G1 X0.4858 Z-0.6712
N1244 X0.3062 F30
N1245 G3 Y0.4375 I0 J-0.0625
N1246 G1 X0.4938
N1247 G3 Y0.5625 I0 J0.0625
N1248 G1 X0.4858
N1249 X0.3062 Z-0.7061 F20
N1250 G3 Y0.4375 Z-0.7443 I0 J-0.0625
N1251 G1 X0.4898 Z-0.78
N1252 X0.4938 F30
N1253 G3 Y0.5625 I0 J0.0625
N1254 G1 X0.3062
N1255 G3 Y0.4375 I0 J-0.0625
N1256 G1 X0.4898
N1257 G3 X0.4994 Y0.4387 Z-0.7787 I0 J0.0375 F20
N1258 X0.5078 Y0.4421 Z-0.775 I-0.0096 J0.0363
N1259 X0.5142 Y0.4465 Z-0.769 I-0.018 J0.0329
N1260 X0.5184 Y0.4507 Z-0.7613 I-0.0244 J0.0285
N1261 X0.5207 Y0.4537 Z-0.7522 I-0.0286 J0.0243
N1262 X0.5214 Y0.4547 Z-0.7425 I-0.0308 J0.0213
N1263 G0 Z0.24
N1265 Z1
N1266 M5
N1267 M30
