%
(Wooden toy block)
(toy block)
(T1  D=0.375 CR=0 - ZMIN=-0.78 - flat end mill)
N0 G90
N1 G17
(2D Pocket1)
N2 T1 M6
N3 S10000 M3
N5 G0 X0.5348 Y0.4528
N6 G1 Z0.24 F45
N7 G0 Z0.2269
N8 G1 Z0.1368 F30
N9 G3 X0.5358 Y0.4538 Z0.1266 I-0.041 J0.0472
N10 X0.5388 Y0.4567 Z0.1172 I-0.0421 J0.0462
N11 X0.5431 Y0.4616 Z0.1092 I-0.0451 J0.0433
N12 X0.5478 Y0.4687 Z0.1033 I-0.0493 J0.0384
N13 X0.552 Y0.4774 Z0.1 I-0.0541 J0.0313
N14 X0.4938 Y0.5625 Z0.0764 I-0.0583 J0.0226
N15 G1 X0.3062 Z0.04
N16 G3 Y0.4375 Z0.0018 I0 J-0.0625
N17 G1 X0.4938 Z-0.0346
N18 G3 Y0.5625 Z-0.0728 I0 J0.0625
N19 G1 X0.3062 Z-0.1092
N20 G3 Y0.4375 Z-0.1474 I0 J-0.0625
N21 G1 X0.4938 Z-0.1839
N22 G3 X0.5122 Y0.4403 Z-0.1875 I0 J0.0625
N23 X0.4938 Y0.5625 I-0.0185 J0.0597 F45
N24 G1 X0.3062
N25 G3 Y0.4375 I0 J-0.0625
N26 G1 X0.4938
N27 G3 X0.5122 Y0.4403 I0 J0.0625
N28 X0.4938 Y0.5625 Z-0.222 I-0.0185 J0.0597 F30
N29 G1 X0.3062 Z-0.2585
N30 G3 Y0.4375 Z-0.2966 I0 J-0.0625
N31 G1 X0.4938 Z-0.3331
N32 G3 Y0.5625 Z-0.3712 I0 J0.0625
N33 G1 X0.4745 Z-0.375
N34 X0.3062 F45
N35 G3 Y0.4375 I0 J-0.0625
N36 G1 X0.4938
N37 G3 Y0.5625 I0 J0.0625
N38 G1 X0.4745
N39 X0.3062 Z-0.4077 F30
N40 G3 Y0.4375 Z-0.4459 I0 J-0.0625
N41 G1 X0.4938 Z-0.4823
N42 G3 Y0.5625 Z-0.5205 I0 J0.0625
N43 G1 X0.3062 Z-0.5569
N44 G3 X0.2785 Y0.556 Z-0.5625 I0 J-0.0625
N45 X0.3062 Y0.4375 I0.0277 J-0.056 F45
N46 G1 X0.4938
N47 G3 Y0.5625 I0 J0.0625
N48 G1 X0.3062
N49 G3 X0.2785 Y0.556 I0 J-0.0625
N50 X0.3062 Y0.4375 Z-0.5951 I0.0277 J-0.056 F30
N51 G1 X0.4938 Z-0.6315
N52 G3 Y0.5625 Z-0.6697 I0 J0.0625
N53 G1 X0.4858 Z-0.6712
N54 X0.3062 F45
N55 G3 Y0.4375 I0 J-0.0625
N56 G1 X0.4938
N57 G3 Y0.5625 I0 J0.0625
N58 G1 X0.4858
N59 X0.3062 Z-0.7061 F30
N60 G3 Y0.4375 Z-0.7443 I0 J-0.0625
N61 G1 X0.4898 Z-0.78
N62 X0.4938 F45
N63 G3 Y0.5625 I0 J0.0625
N64 G1 X0.3062
N65 G3 Y0.4375 I0 J-0.0625
N66 G1 X0.4898
N67 G3 X0.4994 Y0.4387 Z-0.7787 I0 J0.0375 F30
N68 X0.5078 Y0.4421 Z-0.775 I-0.0096 J0.0363
N69 X0.5142 Y0.4465 Z-0.769 I-0.018 J0.0329
N70 X0.5184 Y0.4507 Z-0.7613 I-0.0244 J0.0285
N71 X0.5207 Y0.4537 Z-0.7522 I-0.0286 J0.0243
N72 X0.5214 Y0.4547 Z-0.7425 I-0.0308 J0.0213
N73 G0 Z0.24
N74 G1 X1.3902 Y0.5472 F45
N75 G0 Z0.2269
N76 G1 Z0.1368 F30
N77 G3 X1.3892 Y0.5462 Z0.1266 I0.041 J-0.0472
N78 X1.3862 Y0.5433 Z0.1172 I0.0421 J-0.0462
N79 X1.3819 Y0.5384 Z0.1092 I0.045 J-0.0433
N80 X1.3772 Y0.5313 Z0.1033 I0.0493 J-0.0384
N81 X1.373 Y0.5226 Z0.1 I0.0541 J-0.0313
N82 X1.4313 Y0.4375 Z0.0764 I0.0583 J-0.0226
N83 G1 X1.6188 Z0.04
N84 G3 Y0.5625 Z0.0018 I0 J0.0625
N85 G1 X1.4313 Z-0.0346
N86 G3 Y0.4375 Z-0.0728 I0 J-0.0625
N87 G1 X1.6188 Z-0.1092
N88 G3 Y0.5625 Z-0.1474 I0 J0.0625
N89 G1 X1.4313 Z-0.1839
N90 G3 X1.4128 Y0.5597 Z-0.1875 I0 J-0.0625
N91 X1.4313 Y0.4375 I0.0185 J-0.0597 F45
N92 G1 X1.6188
N93 G3 Y0.5625 I0 J0.0625
N94 G1 X1.4313
N95 G3 X1.4128 Y0.5597 I0 J-0.0625
N96 X1.4313 Y0.4375 Z-0.222 I0.0185 J-0.0597 F30
N97 G1 X1.6188 Z-0.2585
N98 G3 Y0.5625 Z-0.2966 I0 J0.0625
N99 G1 X1.4313 Z-0.3331
N100 G3 Y0.4375 Z-0.3712 I0 J-0.0625
N101 G1 X1.4506 Z-0.375
N102 X1.6188 F45
N103 G3 Y0.5625 I0 J0.0625
N104 G1 X1.4313
N105 G3 Y0.4375 I0 J-0.0625
N106 G1 X1.4506
N107 X1.6188 Z-0.4077 F30
N108 G3 Y0.5625 Z-0.4459 I0 J0.0625
N109 G1 X1.4313 Z-0.4823
N110 G3 Y0.4375 Z-0.5205 I0 J-0.0625
N111 G1 X1.6188 Z-0.5569
N112 G3 X1.6465 Y0.444 Z-0.5625 I0 J0.0625
N113 X1.6188 Y0.5625 I-0.0277 J0.056 F45
N114 G1 X1.4313
N115 G3 Y0.4375 I0 J-0.0625
N116 G1 X1.6188
N117 G3 X1.6465 Y0.444 I0 J0.0625
N118 X1.6188 Y0.5625 Z-0.5951 I-0.0277 J0.056 F30
N119 G1 X1.4313 Z-0.6315
N120 G3 Y0.4375 Z-0.6697 I0 J-0.0625
N121 G1 X1.4392 Z-0.6712
N122 X1.6188 F45
N123 G3 Y0.5625 I0 J0.0625
N124 G1 X1.4313
N125 G3 Y0.4375 I0 J-0.0625
N126 G1 X1.4392
N127 X1.6188 Z-0.7061 F30
N128 G3 Y0.5625 Z-0.7443 I0 J0.0625
N129 G1 X1.4352 Z-0.78
N130 X1.4313 F45
N131 G3 Y0.4375 I0 J-0.0625
N132 G1 X1.6188
N133 G3 Y0.5625 I0 J0.0625
N134 G1 X1.4352
N135 G3 X1.4256 Y0.5613 Z-0.7787 I0 J-0.0375 F30
N136 X1.4172 Y0.5579 Z-0.775 I0.0096 J-0.0363
N137 X1.4108 Y0.5535 Z-0.769 I0.018 J-0.0329
N138 X1.4066 Y0.5493 Z-0.7613 I0.0244 J-0.0285
N139 X1.4043 Y0.5463 Z-0.7522 I0.0286 J-0.0243
N140 X1.4036 Y0.5453 Z-0.7425 I0.0308 J-0.0213
N141 G0 Z0.24
N142 G1 X3.726 Y0.4375 F45
N143 G0 Z0.2269
N144 G1 Z0.1368 F30
N145 G18 G2 X3.7563 Z0.1 I0.0375 K0
N146 G1 X3.8687 Z0.0781
N147 G17 G3 X3.9313 Y0.5 Z0.0591 I0 J0.0625
N148 X3.8688 Y0.5625 Z0.04 I-0.0625 J0
N149 G1 X3.6813 Z0.0035
N150 G3 X3.6188 Y0.5 Z-0.0155 I0 J-0.0625
N151 X3.6812 Y0.4375 Z-0.0346 I0.0625 J0
N152 G1 X3.8687 Z-0.0711
N153 G3 X3.9313 Y0.5 Z-0.0902 I0 J0.0625
N154 X3.8688 Y0.5625 Z-0.1092 I-0.0625 J0
N155 G1 X3.6813 Z-0.1457
N156 G3 X3.6188 Y0.5 Z-0.1648 I0 J-0.0625
N157 X3.6812 Y0.4375 Z-0.1839 I0.0625 J0
N158 G1 X3.7 Z-0.1875
N159 X3.8687 F45
N160 G3 X3.9313 Y0.5 I0 J0.0625
N161 X3.8688 Y0.5625 I-0.0625 J0
N162 G1 X3.6813
N163 G3 X3.6188 Y0.5 I0 J-0.0625
N164 X3.6812 Y0.4375 I0.0625 J0
N165 G1 X3.7
N166 X3.8687 Z-0.2203 F30
N167 G3 X3.9313 Y0.5 Z-0.2394 I0 J0.0625
N168 X3.8688 Y0.5625 Z-0.2585 I-0.0625 J0
N169 G1 X3.6813 Z-0.2949
N170 G3 X3.6188 Y0.5 Z-0.314 I0 J-0.0625
N171 X3.6812 Y0.4375 Z-0.3331 I0.0625 J0
N172 G1 X3.8687 Z-0.3695
N173 G3 X3.896 Y0.4437 Z-0.375 I0 J0.0625
N174 X3.8688 Y0.5625 I-0.0272 J0.0563 F45
N175 G1 X3.6813
N176 G3 X3.6188 Y0.5 I0 J-0.0625
N177 X3.6812 Y0.4375 I0.0625 J0
N178 G1 X3.8687
N179 G3 X3.896 Y0.4437 I0 J0.0625
N180 X3.8688 Y0.5625 Z-0.4077 I-0.0272 J0.0563 F30
N181 G1 X3.6813 Z-0.4441
N182 G3 X3.6188 Y0.5 Z-0.4632 I0 J-0.0625
N183 X3.6812 Y0.4375 Z-0.4823 I0.0625 J0
N184 G1 X3.8687 Z-0.5188
N185 G3 X3.9313 Y0.5 Z-0.5378 I0 J0.0625
N186 X3.8688 Y0.5625 Z-0.5569 I-0.0625 J0
N187 G1 X3.84 Z-0.5625
N188 X3.6813 F45
N189 G3 X3.6188 Y0.5 I0 J-0.0625
N190 X3.6812 Y0.4375 I0.0625 J0
N191 G1 X3.8687
N192 G3 X3.9313 Y0.5 I0 J0.0625
N193 X3.8688 Y0.5625 I-0.0625 J0
N194 G1 X3.84
N195 X3.6813 Z-0.5934 F30
N196 G3 X3.6188 Y0.5 Z-0.6124 I0 J-0.0625
N197 X3.6812 Y0.4375 Z-0.6315 I0.0625 J0
N198 G1 X3.8687 Z-0.668
N199 G3 X3.8854 Y0.4398 Z-0.6712 I0 J0.0625
N200 X3.8688 Y0.5625 I-0.0166 J0.0602 F45
N201 G1 X3.6813
N202 G3 X3.6188 Y0.5 I0 J-0.0625
N203 X3.6812 Y0.4375 I0.0625 J0
N204 G1 X3.8687
N205 G3 X3.8854 Y0.4398 I0 J0.0625
N206 X3.8688 Y0.5625 Z-0.7061 I-0.0166 J0.0602 F30
N207 G1 X3.6813 Z-0.7426
N208 G3 X3.6774 Y0.4376 Z-0.78 I0 J-0.0625
N209 X3.6812 Y0.4375 I0.0039 J0.0624 F45
N210 G1 X3.8687
N211 G3 X3.9313 Y0.5 I0 J0.0625
N212 X3.8688 Y0.5625 I-0.0625 J0
N213 G1 X3.6813
N214 G3 X3.6774 Y0.4376 I0 J-0.0625
N215 X3.687 Y0.4383 Z-0.7787 I0.0023 J0.0374 F30
N216 X3.6956 Y0.4411 Z-0.775 I-0.0073 J0.0368
N217 X3.7022 Y0.4451 Z-0.769 I-0.0159 J0.034
N218 X3.7067 Y0.449 Z-0.7613 I-0.0225 J0.03
N219 X3.7091 Y0.4518 Z-0.7522 I-0.027 J0.026
N220 X3.7099 Y0.4529 Z-0.7425 I-0.0295 J0.0232
N221 G0 Z0.24
N222 G1 X4.9491 Y0.5625 F45
N223 G0 Z0.2269
N224 G1 Z0.1368 F30
N225 G18 G3 X4.9187 Z0.1 I-0.0375 K0
N226 G1 X4.8063 Z0.0781
N227 G17 G3 Y0.4375 Z0.04 I0 J-0.0625
N228 G1 X4.9937 Z0.0035
N229 G3 Y0.5625 Z-0.0346 I0 J0.0625
N230 G1 X4.8063 Z-0.0711
N231 G3 Y0.4375 Z-0.1092 I0 J-0.0625
N232 G1 X4.9937 Z-0.1457
N233 G3 Y0.5625 Z-0.1839 I0 J0.0625
N234 G1 X4.975 Z-0.1875
N235 X4.8063 F45
N236 G3 Y0.4375 I0 J-0.0625
N237 G1 X4.9937
N238 G3 Y0.5625 I0 J0.0625
N239 G1 X4.975
N240 X4.8063 Z-0.2203 F30
N241 G3 Y0.4375 Z-0.2585 I0 J-0.0625
N242 G1 X4.9937 Z-0.2949
N243 G3 Y0.5625 Z-0.3331 I0 J0.0625
N244 G1 X4.8063 Z-0.3695
N245 G3 X4.779 Y0.5562 Z-0.375 I0 J-0.0625
N246 X4.8063 Y0.4375 I0.0273 J-0.0562 F45
N247 G1 X4.9937
N248 G3 Y0.5625 I0 J0.0625
N249 G1 X4.8063
N250 G3 X4.779 Y0.5562 I0 J-0.0625
N251 X4.8063 Y0.4375 Z-0.4077 I0.0273 J-0.0562 F30
N252 G1 X4.9937 Z-0.4441
N253 G3 Y0.5625 Z-0.4823 I0 J0.0625
N254 G1 X4.8063 Z-0.5187
N255 G3 Y0.4375 Z-0.5569 I0 J-0.0625
N256 G1 X4.8351 Z-0.5625
N257 X4.9937 F45
N258 G3 Y0.5625 I0 J0.0625
N259 G1 X4.8063
N260 G3 Y0.4375 I0 J-0.0625
N261 G1 X4.8351
N262 X4.9937 Z-0.5933 F30
N263 G3 Y0.5625 Z-0.6315 I0 J0.0625
N264 G1 X4.8063 Z-0.668
N265 G3 X4.7895 Y0.5602 Z-0.6712 I0 J-0.0625
N266 X4.8063 Y0.4375 I0.0168 J-0.0602 F45
N267 G1 X4.9937
N268 G3 Y0.5625 I0 J0.0625
N269 G1 X4.8063
N270 G3 X4.7895 Y0.5602 I0 J-0.0625
N271 X4.8063 Y0.4375 Z-0.7061 I0.0168 J-0.0602 F30
N272 G1 X4.9937 Z-0.7426
N273 G3 X4.9975 Y0.5624 Z-0.78 I0 J0.0625
N274 X4.9937 Y0.5625 I-0.0037 J-0.0624 F45
N275 G1 X4.8063
N276 G3 Y0.4375 I0 J-0.0625
N277 G1 X4.9937
N278 G3 X4.9975 Y0.5624 I0 J0.0625
N279 X4.9878 Y0.5617 Z-0.7787 I-0.0022 J-0.0374 F30
N280 X4.9793 Y0.5589 Z-0.775 I0.0074 J-0.0368
N281 X4.9726 Y0.5549 Z-0.769 I0.016 J-0.0339
N282 X4.9682 Y0.5509 Z-0.7613 I0.0226 J-0.0299
N283 X4.9657 Y0.5481 Z-0.7522 I0.0271 J-0.026
N284 X4.9649 Y0.5471 Z-0.7425 I0.0295 J-0.0231
N285 G0 Z0.24
N286 G1 X5.9759 Y0.4375 F45
N287 G0 Z0.2269
N288 G1 Z0.1368 F30
N289 G18 G2 X6.0063 Z0.1 I0.0375 K0
N290 G1 X6.1187 Z0.0781
N291 G17 G3 Y0.5625 Z0.04 I0 J0.0625
N292 G1 X5.9313 Z0.0035
N293 G3 X5.8688 Y0.5 Z-0.0156 I0 J-0.0625
N294 X5.9313 Y0.4375 Z-0.0346 I0.0625 J0
N295 G1 X6.1187 Z-0.0711
N296 G3 Y0.5625 Z-0.1092 I0 J0.0625
N297 G1 X5.9313 Z-0.1457
N298 G3 X5.8688 Y0.5 Z-0.1648 I0 J-0.0625
N299 X5.9313 Y0.4375 Z-0.1839 I0.0625 J0
N300 G1 X5.95 Z-0.1875
N301 X6.1187 F45
N302 G3 Y0.5625 I0 J0.0625
N303 G1 X5.9313
N304 G3 X5.8688 Y0.5 I0 J-0.0625
N305 X5.9313 Y0.4375 I0.0625 J0
N306 G1 X5.95
N307 X6.1187 Z-0.2203 F30
N308 G3 Y0.5625 Z-0.2585 I0 J0.0625
N309 G1 X5.9313 Z-0.2949
N310 G3 X5.8688 Y0.5 Z-0.314 I0 J-0.0625
N311 X5.9313 Y0.4375 Z-0.3331 I0.0625 J0
N312 G1 X6.1187 Z-0.3695
N313 G3 X6.146 Y0.4438 Z-0.375 I0 J0.0625
N314 X6.1187 Y0.5625 I-0.0273 J0.0562 F45
N315 G1 X5.9313
N316 G3 X5.8688 Y0.5 I0 J-0.0625
N317 X5.9313 Y0.4375 I0.0625 J0
N318 G1 X6.1187
N319 G3 X6.146 Y0.4438 I0 J0.0625
N320 X6.1187 Y0.5625 Z-0.4077 I-0.0273 J0.0562 F30
N321 G1 X5.9313 Z-0.4441
N322 G3 X5.8688 Y0.5 Z-0.4632 I0 J-0.0625
N323 X5.9313 Y0.4375 Z-0.4823 I0.0625 J0
N324 G1 X6.1187 Z-0.5187
N325 G3 Y0.5625 Z-0.5569 I0 J0.0625
N326 G1 X6.0899 Z-0.5625
N327 X5.9313 F45
N328 G3 X5.8688 Y0.5 I0 J-0.0625
N329 X5.9313 Y0.4375 I0.0625 J0
N330 G1 X6.1187
N331 G3 Y0.5625 I0 J0.0625
N332 G1 X6.0899
N333 X5.9313 Z-0.5933 F30
N334 G3 X5.8688 Y0.5 Z-0.6124 I0 J-0.0625
N335 X5.9313 Y0.4375 Z-0.6315 I0.0625 J0
N336 G1 X6.1187 Z-0.668
N337 G3 X6.1355 Y0.4398 Z-0.6712 I0 J0.0625
N338 X6.1187 Y0.5625 I-0.0168 J0.0602 F45
N339 G1 X5.9313
N340 G3 X5.8688 Y0.5 I0 J-0.0625
N341 X5.9313 Y0.4375 I0.0625 J0
N342 G1 X6.1187
N343 G3 X6.1355 Y0.4398 I0 J0.0625
N344 X6.1187 Y0.5625 Z-0.7061 I-0.0168 J0.0602 F30
N345 G1 X5.9313 Z-0.7426
N346 G3 X5.8688 Y0.5 Z-0.7616 I0 J-0.0625
N347 X5.9275 Y0.4376 Z-0.78 I0.0625 J0
N348 X5.9313 Y0.4375 I0.0037 J0.0624 F45
N349 G1 X6.1187
N350 G3 Y0.5625 I0 J0.0625
N351 G1 X5.9313
N352 G3 X5.9275 Y0.4376 I0 J-0.0625
N353 X5.9372 Y0.4383 Z-0.7787 I0.0022 J0.0374 F30
N354 X5.9457 Y0.4411 Z-0.775 I-0.0074 J0.0368
N355 X5.9524 Y0.4451 Z-0.769 I-0.016 J0.0339
N356 X5.9568 Y0.4491 Z-0.7613 I-0.0226 J0.0299
N357 X5.9593 Y0.4519 Z-0.7522 I-0.0271 J0.026
N358 X5.9601 Y0.4529 Z-0.7425 I-0.0295 J0.0231
N359 G0 Z0.24
N360 G1 X7.1009 Y0.4375 F45
N361 G0 Z0.2269
N362 G1 Z0.1368 F30
N363 G18 G2 X7.1313 Z0.1 I0.0375 K0
N364 G1 X7.2437 Z0.0781
N365 G17 G3 X7.3062 Y0.5 Z0.0591 I0 J0.0625
N366 X7.2437 Y0.5625 Z0.04 I-0.0625 J0
N367 G1 X7.0563 Z0.0035
N368 G3 X6.9938 Y0.5 Z-0.0156 I0 J-0.0625
N369 X7.0563 Y0.4375 Z-0.0346 I0.0625 J0
N370 G1 X7.2437 Z-0.0711
N371 G3 X7.3062 Y0.5 Z-0.0902 I0 J0.0625
N372 X7.2437 Y0.5625 Z-0.1092 I-0.0625 J0
N373 G1 X7.0563 Z-0.1457
N374 G3 X6.9938 Y0.5 Z-0.1648 I0 J-0.0625
N375 X7.0563 Y0.4375 Z-0.1839 I0.0625 J0
N376 G1 X7.075 Z-0.1875
N377 X7.2437 F45
N378 G3 X7.3062 Y0.5 I0 J0.0625
N379 X7.2437 Y0.5625 I-0.0625 J0
N380 G1 X7.0563
N381 G3 X6.9938 Y0.5 I0 J-0.0625
N382 X7.0563 Y0.4375 I0.0625 J0
N383 G1 X7.075
N384 X7.2437 Z-0.2203 F30
N385 G3 X7.271 Y0.4438 Z-0.2258 I0 J0.0625
N386 X7.3062 Y0.5 Z-0.2394 I-0.0273 J0.0562
N387 X7.2437 Y0.5625 Z-0.2585 I-0.0625 J0
N388 G1 X7.0563 Z-0.2949
N389 G3 X6.9938 Y0.5 Z-0.314 I0 J-0.0625
N390 X7.0563 Y0.4375 Z-0.3331 I0.0625 J0
N391 G1 X7.2437 Z-0.3695
N392 G3 X7.271 Y0.4438 Z-0.375 I0 J0.0625
N393 X7.2437 Y0.5625 I-0.0273 J0.0562 F45
N394 G1 X7.0563
N395 G3 X6.9938 Y0.5 I0 J-0.0625
N396 X7.0563 Y0.4375 I0.0625 J0
N397 G1 X7.2437
N398 G3 X7.271 Y0.4438 I0 J0.0625
N399 X7.3062 Y0.5 Z-0.3886 I-0.0273 J0.0562 F30
N400 X7.2437 Y0.5625 Z-0.4077 I-0.0625 J0
N401 G1 X7.0563 Z-0.4441
N402 G3 X6.9938 Y0.5 Z-0.4632 I0 J-0.0625
N403 X7.0563 Y0.4375 Z-0.4823 I0.0625 J0
N404 G1 X7.2437 Z-0.5187
N405 G3 X7.271 Y0.4438 Z-0.5242 I0 J0.0625
N406 X7.3062 Y0.5 Z-0.5378 I-0.0273 J0.0562
N407 X7.2437 Y0.5625 Z-0.5569 I-0.0625 J0
N408 G1 X7.2149 Z-0.5625
N409 X7.0563 F45
N410 G3 X6.9938 Y0.5 I0 J-0.0625
N411 X7.0563 Y0.4375 I0.0625 J0
N412 G1 X7.2437
N413 G3 X7.3062 Y0.5 I0 J0.0625
N414 X7.2437 Y0.5625 I-0.0625 J0
N415 G1 X7.2149
N416 X7.0563 Z-0.5933 F30
N417 G3 X6.9938 Y0.5 Z-0.6124 I0 J-0.0625
N418 X7.0563 Y0.4375 Z-0.6315 I0.0625 J0
N419 G1 X7.2437 Z-0.668
N420 G3 X7.2605 Y0.4398 Z-0.6712 I0 J0.0625
N421 X7.2437 Y0.5625 I-0.0168 J0.0602 F45
N422 G1 X7.0563
N423 G3 X6.9938 Y0.5 I0 J-0.0625
N424 X7.0563 Y0.4375 I0.0625 J0
N425 G1 X7.2437
N426 G3 X7.2605 Y0.4398 I0 J0.0625
N427 X7.3062 Y0.5 Z-0.687 I-0.0168 J0.0602 F30
N428 X7.2437 Y0.5625 Z-0.7061 I-0.0625 J0
N429 G1 X7.0563 Z-0.7426
N430 G3 X6.9938 Y0.5 Z-0.7616 I0 J-0.0625
N431 X7.0525 Y0.4376 Z-0.78 I0.0625 J0
N432 X7.0563 Y0.4375 I0.0037 J0.0624 F45
N433 G1 X7.2437
N434 G3 X7.3062 Y0.5 I0 J0.0625
N435 X7.2437 Y0.5625 I-0.0625 J0
N436 G1 X7.0563
N437 G3 X7.0525 Y0.4376 I0 J-0.0625
N438 X7.0622 Y0.4383 Z-0.7787 I0.0022 J0.0374 F30
N439 X7.0707 Y0.4411 Z-0.775 I-0.0074 J0.0368
N440 X7.0774 Y0.4451 Z-0.769 I-0.016 J0.0339
N441 X7.0818 Y0.4491 Z-0.7613 I-0.0226 J0.0299
N442 X7.0843 Y0.4519 Z-0.7522 I-0.0271 J0.026
N443 X7.0851 Y0.4529 Z-0.7425 I-0.0295 J0.0231
N444 G0 Z0.24
N445 G1 X8.2259 Y0.4375 F45
N446 G0 Z0.2269
N447 G1 Z0.1368 F30
N448 G18 G2 X8.2563 Z0.1 I0.0375 K0
N449 G1 X8.3687 Z0.0781
N450 G17 G3 X8.4312 Y0.5 Z0.0591 I0 J0.0625
N451 X8.3687 Y0.5625 Z0.04 I-0.0625 J0
N452 G1 X8.1813 Z0.0035
N453 G3 Y0.4375 Z-0.0346 I0 J-0.0625
N454 G1 X8.3687 Z-0.0711
N455 G3 X8.4312 Y0.5 Z-0.0902 I0 J0.0625
N456 X8.3687 Y0.5625 Z-0.1092 I-0.0625 J0
N457 G1 X8.1813 Z-0.1457
N458 G3 Y0.4375 Z-0.1839 I0 J-0.0625
N459 G1 X8.2 Z-0.1875
N460 X8.3687 F45
N461 G3 X8.4312 Y0.5 I0 J0.0625
N462 X8.3687 Y0.5625 I-0.0625 J0
N463 G1 X8.1813
N464 G3 Y0.4375 I0 J-0.0625
N465 G1 X8.2
N466 X8.3687 Z-0.2203 F30
N467 G3 X8.4312 Y0.5 Z-0.2394 I0 J0.0625
N468 X8.3687 Y0.5625 Z-0.2585 I-0.0625 J0
N469 G1 X8.1813 Z-0.2949
N470 G3 Y0.4375 Z-0.3331 I0 J-0.0625
N471 G1 X8.3687 Z-0.3695
N472 G3 X8.396 Y0.4438 Z-0.375 I0 J0.0625
N473 X8.3687 Y0.5625 I-0.0273 J0.0562 F45
N474 G1 X8.1813
N475 G3 Y0.4375 I0 J-0.0625
N476 G1 X8.3687
N477 G3 X8.396 Y0.4438 I0 J0.0625
N478 X8.3687 Y0.5625 Z-0.4077 I-0.0273 J0.0562 F30
N479 G1 X8.1813 Z-0.4441
N480 G3 Y0.4375 Z-0.4823 I0 J-0.0625
N481 G1 X8.3687 Z-0.5187
N482 G3 X8.4312 Y0.5 Z-0.5378 I0 J0.0625
N483 X8.3687 Y0.5625 Z-0.5569 I-0.0625 J0
N484 G1 X8.3399 Z-0.5625
N485 X8.1813 F45
N486 G3 Y0.4375 I0 J-0.0625
N487 G1 X8.3687
N488 G3 X8.4312 Y0.5 I0 J0.0625
N489 X8.3687 Y0.5625 I-0.0625 J0
N490 G1 X8.3399
N491 X8.1813 Z-0.5933 F30
N492 G3 Y0.4375 Z-0.6315 I0 J-0.0625
N493 G1 X8.3687 Z-0.668
N494 G3 X8.3855 Y0.4398 Z-0.6712 I0 J0.0625
N495 X8.3687 Y0.5625 I-0.0168 J0.0602 F45
N496 G1 X8.1813
N497 G3 Y0.4375 I0 J-0.0625
N498 G1 X8.3687
N499 G3 X8.3855 Y0.4398 I0 J0.0625
N500 X8.4312 Y0.5 Z-0.687 I-0.0168 J0.0602 F30
N501 X8.3687 Y0.5625 Z-0.7061 I-0.0625 J0
N502 G1 X8.1813 Z-0.7426
N503 G3 X8.1775 Y0.4376 Z-0.78 I0 J-0.0625
N504 X8.1813 Y0.4375 I0.0037 J0.0624 F45
N505 G1 X8.3687
N506 G3 X8.4312 Y0.5 I0 J0.0625
N507 X8.3687 Y0.5625 I-0.0625 J0
N508 G1 X8.1813
N509 G3 X8.1775 Y0.4376 I0 J-0.0625
N510 X8.1872 Y0.4383 Z-0.7787 I0.0022 J0.0374 F30
N511 X8.1957 Y0.4411 Z-0.775 I-0.0074 J0.0368
N512 X8.2024 Y0.4451 Z-0.769 I-0.016 J0.0339
N513 X8.2068 Y0.4491 Z-0.7613 I-0.0226 J0.0299
N514 X8.2093 Y0.4519 Z-0.7522 I-0.0271 J0.026
N515 X8.2101 Y0.4529 Z-0.7425 I-0.0295 J0.0231
N516 G0 Z0.24
N517 G1 X9.3509 Y0.4375 F45
N518 G0 Z0.2269
N519 G1 Z0.1368 F30
N520 G18 G2 X9.3813 Z0.1 I0.0375 K0
N521 G1 X9.4937 Z0.0781
N522 G17 G3 Y0.5625 Z0.04 I0 J0.0625
N523 G1 X9.3063 Z0.0035
N524 G3 Y0.4375 Z-0.0346 I0 J-0.0625
N525 G1 X9.4937 Z-0.0711
N526 G3 Y0.5625 Z-0.1092 I0 J0.0625
N527 G1 X9.3063 Z-0.1457
N528 G3 Y0.4375 Z-0.1839 I0 J-0.0625
N529 G1 X9.325 Z-0.1875
N530 X9.4937 F45
N531 G3 Y0.5625 I0 J0.0625
N532 G1 X9.3063
N533 G3 Y0.4375 I0 J-0.0625
N534 G1 X9.325
N535 X9.4937 Z-0.2203 F30
N536 G3 Y0.5625 Z-0.2585 I0 J0.0625
N537 G1 X9.3063 Z-0.2949
N538 G3 Y0.4375 Z-0.3331 I0 J-0.0625
N539 G1 X9.4937 Z-0.3695
N540 G3 X9.521 Y0.4438 Z-0.375 I0 J0.0625
N541 X9.4937 Y0.5625 I-0.0273 J0.0562 F45
N542 G1 X9.3063
N543 G3 Y0.4375 I0 J-0.0625
N544 G1 X9.4937
N545 G3 X9.521 Y0.4438 I0 J0.0625
N546 X9.4937 Y0.5625 Z-0.4077 I-0.0273 J0.0562 F30
N547 G1 X9.3063 Z-0.4441
N548 G3 Y0.4375 Z-0.4823 I0 J-0.0625
N549 G1 X9.4937 Z-0.5187
N550 G3 Y0.5625 Z-0.5569 I0 J0.0625
N551 G1 X9.4649 Z-0.5625
N552 X9.3063 F45
N553 G3 Y0.4375 I0 J-0.0625
N554 G1 X9.4937
N555 G3 Y0.5625 I0 J0.0625
N556 G1 X9.4649
N557 X9.3063 Z-0.5933 F30
N558 G3 Y0.4375 Z-0.6315 I0 J-0.0625
N559 G1 X9.4937 Z-0.668
N560 G3 X9.5105 Y0.4398 Z-0.6712 I0 J0.0625
N561 X9.4937 Y0.5625 I-0.0168 J0.0602 F45
N562 G1 X9.3063
N563 G3 Y0.4375 I0 J-0.0625
N564 G1 X9.4937
N565 G3 X9.5105 Y0.4398 I0 J0.0625
N566 X9.4937 Y0.5625 Z-0.7061 I-0.0168 J0.0602 F30
N567 G1 X9.3063 Z-0.7426
N568 G3 X9.3025 Y0.4376 Z-0.78 I0 J-0.0625
N569 X9.3063 Y0.4375 I0.0037 J0.0624 F45
N570 G1 X9.4937
N571 G3 Y0.5625 I0 J0.0625
N572 G1 X9.3063
N573 G3 X9.3025 Y0.4376 I0 J-0.0625
N574 X9.3122 Y0.4383 Z-0.7787 I0.0022 J0.0374 F30
N575 X9.3207 Y0.4411 Z-0.775 I-0.0074 J0.0368
N576 X9.3274 Y0.4451 Z-0.769 I-0.016 J0.0339
N577 X9.3318 Y0.4491 Z-0.7613 I-0.0226 J0.0299
N578 X9.3343 Y0.4519 Z-0.7522 I-0.0271 J0.026
N579 X9.3351 Y0.4529 Z-0.7425 I-0.0295 J0.0231
N580 G0 Z0.24
N581 G1 X10.5741 Y0.5625 F45
N582 G0 Z0.2269
N583 G1 Z0.1368 F30
N584 G18 G3 X10.5437 Z0.1 I-0.0375 K0
N585 G1 X10.4313 Z0.0781
N586 G17 G3 X10.3688 Y0.5 Z0.0591 I0 J-0.0625
N587 X10.4313 Y0.4375 Z0.04 I0.0625 J0
N588 G1 X10.6187 Z0.0035
N589 G3 Y0.5625 Z-0.0346 I0 J0.0625
N590 G1 X10.4313 Z-0.0711
N591 G3 X10.3688 Y0.5 Z-0.0902 I0 J-0.0625
N592 X10.4313 Y0.4375 Z-0.1092 I0.0625 J0
N593 G1 X10.6187 Z-0.1457
N594 G3 Y0.5625 Z-0.1839 I0 J0.0625
N595 G1 X10.6 Z-0.1875
N596 X10.4313 F45
N597 G3 Y0.4375 I0 J-0.0625
N598 G1 X10.6187
N599 G3 Y0.5625 I0 J0.0625
N600 G1 X10.6
N601 X10.4313 Z-0.2203 F30
N602 G3 X10.404 Y0.5562 Z-0.2258 I0 J-0.0625
N603 X10.3688 Y0.5 Z-0.2394 I0.0273 J-0.0562
N604 X10.4313 Y0.4375 Z-0.2585 I0.0625 J0
N605 G1 X10.6187 Z-0.2949
N606 G3 Y0.5625 Z-0.3331 I0 J0.0625
N607 G1 X10.4313 Z-0.3695
N608 G3 X10.404 Y0.5562 Z-0.375 I0 J-0.0625
N609 X10.4313 Y0.4375 I0.0273 J-0.0562 F45
N610 G1 X10.6187
N611 G3 Y0.5625 I0 J0.0625
N612 G1 X10.4313
N613 G3 X10.404 Y0.5562 I0 J-0.0625
N614 X10.3688 Y0.5 Z-0.3886 I0.0273 J-0.0562 F30
N615 X10.4313 Y0.4375 Z-0.4077 I0.0625 J0
N616 G1 X10.6187 Z-0.4441
N617 G3 Y0.5625 Z-0.4823 I0 J0.0625
N618 G1 X10.4313 Z-0.5187
N619 G3 X10.404 Y0.5562 Z-0.5242 I0 J-0.0625
N620 X10.3688 Y0.5 Z-0.5378 I0.0273 J-0.0562
N621 X10.4313 Y0.4375 Z-0.5569 I0.0625 J0
N622 G1 X10.4601 Z-0.5625
N623 X10.6187 F45
N624 G3 Y0.5625 I0 J0.0625
N625 G1 X10.4313
N626 G3 Y0.4375 I0 J-0.0625
N627 G1 X10.4601
N628 X10.6187 Z-0.5933 F30
N629 G3 Y0.5625 Z-0.6315 I0 J0.0625
N630 G1 X10.4313 Z-0.668
N631 G3 X10.4145 Y0.5602 Z-0.6712 I0 J-0.0625
N632 X10.4313 Y0.4375 I0.0168 J-0.0602 F45
N633 G1 X10.6187
N634 G3 Y0.5625 I0 J0.0625
N635 G1 X10.4313
N636 G3 X10.4145 Y0.5602 I0 J-0.0625
N637 X10.3688 Y0.5 Z-0.687 I0.0168 J-0.0602 F30
N638 X10.4313 Y0.4375 Z-0.7061 I0.0625 J0
N639 G1 X10.6187 Z-0.7426
N640 G3 X10.6225 Y0.5624 Z-0.78 I0 J0.0625
N641 X10.6187 Y0.5625 I-0.0037 J-0.0624 F45
N642 G1 X10.4313
N643 G3 Y0.4375 I0 J-0.0625
N644 G1 X10.6187
N645 G3 X10.6225 Y0.5624 I0 J0.0625
N646 X10.6128 Y0.5617 Z-0.7787 I-0.0022 J-0.0374 F30
N647 X10.6043 Y0.5589 Z-0.775 I0.0074 J-0.0368
N648 X10.5976 Y0.5549 Z-0.769 I0.016 J-0.0339
N649 X10.5932 Y0.5509 Z-0.7613 I0.0226 J-0.0299
N650 X10.5907 Y0.5481 Z-0.7522 I0.0271 J-0.026
N651 X10.5899 Y0.5471 Z-0.7425 I0.0295 J-0.0231
N652 G0 Z0.24
N653 G1 X11.6991 Y0.5625 F45
N654 G0 Z0.2269
N655 G1 Z0.1368 F30
N656 G18 G3 X11.6687 Z0.1 I-0.0375 K0
N657 G1 X11.5563 Z0.0781
N658 G17 G3 Y0.4375 Z0.04 I0 J-0.0625
N659 G1 X11.7437 Z0.0035
N660 G3 X11.8062 Y0.5 Z-0.0156 I0 J0.0625
N661 X11.7437 Y0.5625 Z-0.0346 I-0.0625 J0
N662 G1 X11.5563 Z-0.0711
N663 G3 Y0.4375 Z-0.1092 I0 J-0.0625
N664 G1 X11.7437 Z-0.1457
N665 G3 X11.8062 Y0.5 Z-0.1648 I0 J0.0625
N666 X11.7437 Y0.5625 Z-0.1839 I-0.0625 J0
N667 G1 X11.725 Z-0.1875
N668 X11.5563 F45
N669 G3 Y0.4375 I0 J-0.0625
N670 G1 X11.7437
N671 G3 Y0.5625 I0 J0.0625
N672 G1 X11.725
N673 X11.5563 Z-0.2203 F30
N674 G3 Y0.4375 Z-0.2585 I0 J-0.0625
N675 G1 X11.7437 Z-0.2949
N676 G3 X11.8062 Y0.5 Z-0.314 I0 J0.0625
N677 X11.7437 Y0.5625 Z-0.3331 I-0.0625 J0
N678 G1 X11.5563 Z-0.3695
N679 G3 X11.529 Y0.5562 Z-0.375 I0 J-0.0625
N680 X11.5563 Y0.4375 I0.0273 J-0.0562 F45
N681 G1 X11.7437
N682 G3 Y0.5625 I0 J0.0625
N683 G1 X11.5563
N684 G3 X11.529 Y0.5562 I0 J-0.0625
N685 X11.5563 Y0.4375 Z-0.4077 I0.0273 J-0.0562 F30
N686 G1 X11.7437 Z-0.4441
N687 G3 X11.8062 Y0.5 Z-0.4632 I0 J0.0625
N688 X11.7437 Y0.5625 Z-0.4823 I-0.0625 J0
N689 G1 X11.5563 Z-0.5187
N690 G3 Y0.4375 Z-0.5569 I0 J-0.0625
N691 G1 X11.5851 Z-0.5625
N692 X11.7437 F45
N693 G3 Y0.5625 I0 J0.0625
N694 G1 X11.5563
N695 G3 Y0.4375 I0 J-0.0625
N696 G1 X11.5851
N697 X11.7437 Z-0.5933 F30
N698 G3 X11.8062 Y0.5 Z-0.6124 I0 J0.0625
N699 X11.7437 Y0.5625 Z-0.6315 I-0.0625 J0
N700 G1 X11.5563 Z-0.668
N701 G3 X11.5395 Y0.5602 Z-0.6712 I0 J-0.0625
N702 X11.5563 Y0.4375 I0.0168 J-0.0602 F45
N703 G1 X11.7437
N704 G3 Y0.5625 I0 J0.0625
N705 G1 X11.5563
N706 G3 X11.5395 Y0.5602 I0 J-0.0625
N707 X11.5563 Y0.4375 Z-0.7061 I0.0168 J-0.0602 F30
N708 G1 X11.7437 Z-0.7426
N709 G3 X11.8062 Y0.5 Z-0.7616 I0 J0.0625
N710 X11.7475 Y0.5624 Z-0.78 I-0.0625 J0
N711 X11.7437 Y0.5625 I-0.0037 J-0.0624 F45
N712 G1 X11.5563
N713 G3 Y0.4375 I0 J-0.0625
N714 G1 X11.7437
N715 G3 X11.7475 Y0.5624 I0 J0.0625
N716 X11.7378 Y0.5617 Z-0.7787 I-0.0022 J-0.0374 F30
N717 X11.7293 Y0.5589 Z-0.775 I0.0074 J-0.0368
N718 X11.7226 Y0.5549 Z-0.769 I0.016 J-0.0339
N719 X11.7182 Y0.5509 Z-0.7613 I0.0226 J-0.0299
N720 X11.7157 Y0.5481 Z-0.7522 I0.0271 J-0.026
N721 X11.7149 Y0.5471 Z-0.7425 I0.0295 J-0.0231
N722 G0 Z0.24
N723 G1 X12.8241 Y0.5625 F45
N724 G0 Z0.2269
N725 G1 Z0.1368 F30
N726 G18 G3 X12.7937 Z0.1 I-0.0375 K0
N727 G1 X12.6813 Z0.0781
N728 G17 G3 Y0.4375 Z0.04 I0 J-0.0625
N729 G1 X12.8687 Z0.0035
N730 G3 Y0.5625 Z-0.0346 I0 J0.0625
N731 G1 X12.6813 Z-0.0711
N732 G3 Y0.4375 Z-0.1092 I0 J-0.0625
N733 G1 X12.8687 Z-0.1457
N734 G3 Y0.5625 Z-0.1839 I0 J0.0625
N735 G1 X12.85 Z-0.1875
N736 X12.6813 F45
N737 G3 Y0.4375 I0 J-0.0625
N738 G1 X12.8687
N739 G3 Y0.5625 I0 J0.0625
N740 G1 X12.85
N741 X12.6813 Z-0.2203 F30
N742 G3 Y0.4375 Z-0.2585 I0 J-0.0625
N743 G1 X12.8687 Z-0.2949
N744 G3 Y0.5625 Z-0.3331 I0 J0.0625
N745 G1 X12.6813 Z-0.3695
N746 G3 X12.654 Y0.5562 Z-0.375 I0 J-0.0625
N747 X12.6813 Y0.4375 I0.0273 J-0.0562 F45
N748 G1 X12.8687
N749 G3 Y0.5625 I0 J0.0625
N750 G1 X12.6813
N751 G3 X12.654 Y0.5562 I0 J-0.0625
N752 X12.6813 Y0.4375 Z-0.4077 I0.0273 J-0.0562 F30
N753 G1 X12.8687 Z-0.4441
N754 G3 Y0.5625 Z-0.4823 I0 J0.0625
N755 G1 X12.6813 Z-0.5187
N756 G3 Y0.4375 Z-0.5569 I0 J-0.0625
N757 G1 X12.7101 Z-0.5625
N758 X12.8687 F45
N759 G3 Y0.5625 I0 J0.0625
N760 G1 X12.6813
N761 G3 Y0.4375 I0 J-0.0625
N762 G1 X12.7101
N763 X12.8687 Z-0.5933 F30
N764 G3 Y0.5625 Z-0.6315 I0 J0.0625
N765 G1 X12.6813 Z-0.668
N766 G3 X12.6645 Y0.5602 Z-0.6712 I0 J-0.0625
N767 X12.6813 Y0.4375 I0.0168 J-0.0602 F45
N768 G1 X12.8687
N769 G3 Y0.5625 I0 J0.0625
N770 G1 X12.6813
N771 G3 X12.6645 Y0.5602 I0 J-0.0625
N772 X12.6813 Y0.4375 Z-0.7061 I0.0168 J-0.0602 F30
N773 G1 X12.8687 Z-0.7426
N774 G3 X12.8725 Y0.5624 Z-0.78 I0 J0.0625
N775 X12.8687 Y0.5625 I-0.0037 J-0.0624 F45
N776 G1 X12.6813
N777 G3 Y0.4375 I0 J-0.0625
N778 G1 X12.8687
N779 G3 X12.8725 Y0.5624 I0 J0.0625
N780 X12.8628 Y0.5617 Z-0.7787 I-0.0022 J-0.0374 F30
N781 X12.8543 Y0.5589 Z-0.775 I0.0074 J-0.0368
N782 X12.8476 Y0.5549 Z-0.769 I0.016 J-0.0339
N783 X12.8432 Y0.5509 Z-0.7613 I0.0226 J-0.0299
N784 X12.8407 Y0.5481 Z-0.7522 I0.0271 J-0.026
N785 X12.8399 Y0.5471 Z-0.7425 I0.0295 J-0.0231
N786 G0 Z0.24
N787 G1 X13.9491 Y0.5625 F45
N788 G0 Z0.2269
N789 G1 Z0.1368 F30
N790 G18 G3 X13.9187 Z0.1 I-0.0375 K0
N791 G1 X13.8063 Z0.0781
N792 G17 G3 Y0.4375 Z0.04 I0 J-0.0625
N793 G1 X13.9937 Z0.0035
N794 G3 Y0.5625 Z-0.0346 I0 J0.0625
N795 G1 X13.8063 Z-0.0711
N796 G3 Y0.4375 Z-0.1092 I0 J-0.0625
N797 G1 X13.9937 Z-0.1457
N798 G3 Y0.5625 Z-0.1839 I0 J0.0625
N799 G1 X13.975 Z-0.1875
N800 X13.8063 F45
N801 G3 Y0.4375 I0 J-0.0625
N802 G1 X13.9937
N803 G3 Y0.5625 I0 J0.0625
N804 G1 X13.975
N805 X13.8063 Z-0.2203 F30
N806 G3 Y0.4375 Z-0.2585 I0 J-0.0625
N807 G1 X13.9937 Z-0.2949
N808 G3 Y0.5625 Z-0.3331 I0 J0.0625
N809 G1 X13.8063 Z-0.3695
N810 G3 X13.779 Y0.5562 Z-0.375 I0 J-0.0625
N811 X13.8063 Y0.4375 I0.0273 J-0.0562 F45
N812 G1 X13.9937
N813 G3 Y0.5625 I0 J0.0625
N814 G1 X13.8063
N815 G3 X13.779 Y0.5562 I0 J-0.0625
N816 X13.8063 Y0.4375 Z-0.4077 I0.0273 J-0.0562 F30
N817 G1 X13.9937 Z-0.4441
N818 G3 Y0.5625 Z-0.4823 I0 J0.0625
N819 G1 X13.8063 Z-0.5187
N820 G3 Y0.4375 Z-0.5569 I0 J-0.0625
N821 G1 X13.8351 Z-0.5625
N822 X13.9937 F45
N823 G3 Y0.5625 I0 J0.0625
N824 G1 X13.8063
N825 G3 Y0.4375 I0 J-0.0625
N826 G1 X13.8351
N827 X13.9937 Z-0.5933 F30
N828 G3 Y0.5625 Z-0.6315 I0 J0.0625
N829 G1 X13.8063 Z-0.668
N830 G3 X13.7895 Y0.5602 Z-0.6712 I0 J-0.0625
N831 X13.8063 Y0.4375 I0.0168 J-0.0602 F45
N832 G1 X13.9937
N833 G3 Y0.5625 I0 J0.0625
N834 G1 X13.8063
N835 G3 X13.7895 Y0.5602 I0 J-0.0625
N836 X13.8063 Y0.4375 Z-0.7061 I0.0168 J-0.0602 F30
N837 G1 X13.9937 Z-0.7426
N838 G3 X13.9975 Y0.5624 Z-0.78 I0 J0.0625
N839 X13.9937 Y0.5625 I-0.0037 J-0.0624 F45
N840 G1 X13.8063
N841 G3 Y0.4375 I0 J-0.0625
N842 G1 X13.9937
N843 G3 X13.9975 Y0.5624 I0 J0.0625
N844 X13.9878 Y0.5617 Z-0.7787 I-0.0022 J-0.0374 F30
N845 X13.9793 Y0.5589 Z-0.775 I0.0074 J-0.0368
N846 X13.9726 Y0.5549 Z-0.769 I0.016 J-0.0339
N847 X13.9682 Y0.5509 Z-0.7613 I0.0226 J-0.0299
N848 X13.9657 Y0.5481 Z-0.7522 I0.0271 J-0.026
N849 X13.9649 Y0.5471 Z-0.7425 I0.0295 J-0.0231
N850 G0 Z0.24
N851 G1 X2.699 Y0.5625 F45
N852 G0 Z0.2269
N853 G1 Z0.1368 F30
N854 G18 G3 X2.6687 Z0.1 I-0.0375 K0
N855 G1 X2.5563 Z0.0781
N856 G17 G3 Y0.4375 Z0.04 I0 J-0.0625
N857 G1 X2.7437 Z0.0035
N858 G3 X2.8063 Y0.5 Z-0.0155 I0 J0.0625
N859 X2.7438 Y0.5625 Z-0.0346 I-0.0625 J0
N860 G1 X2.5563 Z-0.0711
N861 G3 Y0.4375 Z-0.1092 I0 J-0.0625
N862 G1 X2.7437 Z-0.1457
N863 G3 X2.8063 Y0.5 Z-0.1648 I0 J0.0625
N864 X2.7438 Y0.5625 Z-0.1839 I-0.0625 J0
N865 G1 X2.725 Z-0.1875
N866 X2.5563 F45
N867 G3 Y0.4375 I0 J-0.0625
N868 G1 X2.7437
N869 G3 X2.8063 Y0.5 I0 J0.0625
N870 X2.7438 Y0.5625 I-0.0625 J0
N871 G1 X2.725
N872 X2.5563 Z-0.2203 F30
N873 G3 Y0.4375 Z-0.2585 I0 J-0.0625
N874 G1 X2.7437 Z-0.2949
N875 G3 X2.8063 Y0.5 Z-0.314 I0 J0.0625
N876 X2.7438 Y0.5625 Z-0.3331 I-0.0625 J0
N877 G1 X2.5563 Z-0.3695
N878 G3 X2.529 Y0.5563 Z-0.375 I0 J-0.0625
N879 X2.5563 Y0.4375 I0.0272 J-0.0563 F45
N880 G1 X2.7437
N881 G3 X2.8063 Y0.5 I0 J0.0625
N882 X2.7438 Y0.5625 I-0.0625 J0
N883 G1 X2.5563
N884 G3 X2.529 Y0.5563 I0 J-0.0625
N885 X2.5563 Y0.4375 Z-0.4077 I0.0272 J-0.0563 F30
N886 G1 X2.7437 Z-0.4441
N887 G3 X2.8063 Y0.5 Z-0.4632 I0 J0.0625
N888 X2.7438 Y0.5625 Z-0.4823 I-0.0625 J0
N889 G1 X2.5563 Z-0.5188
N890 G3 Y0.4375 Z-0.5569 I0 J-0.0625
N891 G1 X2.585 Z-0.5625
N892 X2.7437 F45
N893 G3 X2.8063 Y0.5 I0 J0.0625
N894 X2.7438 Y0.5625 I-0.0625 J0
N895 G1 X2.5563
N896 G3 Y0.4375 I0 J-0.0625
N897 G1 X2.585
N898 X2.7437 Z-0.5934 F30
N899 G3 X2.8063 Y0.5 Z-0.6124 I0 J0.0625
N900 X2.7438 Y0.5625 Z-0.6315 I-0.0625 J0
N901 G1 X2.5563 Z-0.668
N902 G3 X2.5396 Y0.5602 Z-0.6712 I0 J-0.0625
N903 X2.5563 Y0.4375 I0.0166 J-0.0602 F45
N904 G1 X2.7437
N905 G3 X2.8063 Y0.5 I0 J0.0625
N906 X2.7438 Y0.5625 I-0.0625 J0
N907 G1 X2.5563
N908 G3 X2.5396 Y0.5602 I0 J-0.0625
N909 X2.5563 Y0.4375 Z-0.7061 I0.0166 J-0.0602 F30
N910 G1 X2.7437 Z-0.7426
N911 G3 X2.7476 Y0.5624 Z-0.78 I0 J0.0625
N912 X2.7438 Y0.5625 I-0.0039 J-0.0624 F45
N913 G1 X2.5563
N914 G3 Y0.4375 I0 J-0.0625
N915 G1 X2.7437
N916 G3 X2.7476 Y0.5624 I0 J0.0625
N917 X2.738 Y0.5617 Z-0.7787 I-0.0023 J-0.0374 F30
N918 X2.7294 Y0.5589 Z-0.775 I0.0073 J-0.0368
N919 X2.7228 Y0.5549 Z-0.769 I0.0159 J-0.034
N920 X2.7183 Y0.551 Z-0.7613 I0.0225 J-0.03
N921 X2.7158 Y0.5482 Z-0.7522 I0.027 J-0.026
N922 X2.7151 Y0.5471 Z-0.7425 I0.0295 J-0.0232
N923 G0 Z0.24
N925 Z2.0
N926 M5
N926 X0.0
N927 M30
