%
(Wooden toy block)
(toy block)
(T1  D=0.375 CR=0 - ZMIN=-0.75 - flat end mill)
N0 G90
N1 G17
(2D Pocket1)
N2 T1 M6
N3 S10000 M3
N5 G0 X0.4589 Y0.5619
N6 Z0.24
N7 Z0.2269
N8 G1 Z0.1368 F20
N9 G3 X0.4579 Y0.562 Z0.1281 I-0.0089 J-0.0619
N10 X0.4549 Y0.5623 Z0.1199 I-0.0079 J-0.062
N11 X0.45 Y0.5625 Z0.1125 I-0.0049 J-0.0623
N12 G18 G3 X0.4286 Z0.1 I-0.0286 K0.0243
N13 G1 X0.35 Z0.0847
N14 G17 G3 Y0.4375 Z0.0466 I0 J-0.0625
N15 G1 X0.45 Z0.0271
N16 G3 Y0.5625 Z-0.011 I0 J0.0625
N17 G1 X0.35 Z-0.0305
N18 G3 Y0.4375 Z-0.0686 I0 J-0.0625
N19 G1 X0.45 Z-0.0881
N20 G3 Y0.5625 Z-0.1263 I0 J0.0625
N21 G1 X0.35 Z-0.1457
N22 G3 Y0.4375 Z-0.1839 I0 J-0.0625
N23 G1 X0.3688 Z-0.1875
N24 X0.45 F30
N25 G3 Y0.5625 I0 J0.0625
N26 G1 X0.35
N27 G3 Y0.4375 I0 J-0.0625
N28 G1 X0.3688
N29 X0.45 Z-0.2033 F20
N30 G3 Y0.5625 Z-0.2415 I0 J0.0625
N31 G1 X0.35 Z-0.2609
N32 G3 Y0.4375 Z-0.2991 I0 J-0.0625
N33 G1 X0.45 Z-0.3185
N34 G3 Y0.5625 Z-0.3567 I0 J0.0625
N35 G1 X0.3557 Z-0.375
N36 X0.35 F30
N37 G3 Y0.4375 I0 J-0.0625
N38 G1 X0.45
N39 G3 Y0.5625 I0 J0.0625
N40 G1 X0.3557
N41 X0.35 Z-0.3761 F20
N42 G3 Y0.4375 Z-0.4143 I0 J-0.0625
N43 G1 X0.45 Z-0.4337
N44 G3 Y0.5625 Z-0.4719 I0 J0.0625
N45 G1 X0.35 Z-0.4913
N46 G3 Y0.4375 Z-0.5295 I0 J-0.0625
N47 G1 X0.45 Z-0.5489
N48 G3 X0.5062 Y0.4726 Z-0.5625 I0 J0.0625
N49 X0.45 Y0.5625 I-0.0562 J0.0274 F30
N50 G1 X0.3557
N51 X0.35
N52 G3 Y0.4375 I0 J-0.0625
N53 G1 X0.45
N54 G3 X0.5062 Y0.4726 I0 J0.0625
N55 X0.45 Y0.5625 Z-0.5871 I-0.0562 J0.0274 F20
N56 G1 X0.35 Z-0.6065
N57 G3 Y0.4375 Z-0.6447 I0 J-0.0625
N58 G1 X0.45 Z-0.6641
N59 G3 Y0.5625 Z-0.7023 I0 J0.0625
N60 G1 X0.35 Z-0.7217
N61 G3 X0.3045 Y0.4571 Z-0.75 I0 J-0.0625
N62 X0.35 Y0.4375 I0.0455 J0.0429 F30
N63 G1 X0.45
N64 G3 Y0.5625 I0 J0.0625
N65 G1 X0.35
N66 G3 X0.3045 Y0.4571 I0 J-0.0625
N67 X0.3117 Y0.4506 Z-0.7487 I0.0455 J0.0429 F20
N68 X0.3192 Y0.4456 Z-0.745 I0.0383 J0.0494
N69 X0.3262 Y0.4422 Z-0.739 I0.0308 J0.0544
N70 X0.3318 Y0.4402 Z-0.7313 I0.0238 J0.0578
N71 X0.3354 Y0.4392 Z-0.7222 I0.0182 J0.0598
N72 X0.3367 Y0.4389 Z-0.7125 I0.0146 J0.0608
N73 G0 Z0.24
N74 X1.4589 Y0.5619
N75 Z0.2269
N76 G1 Z0.1368 F20
N77 G3 X1.4579 Y0.562 Z0.1281 I-0.0089 J-0.0619
N78 X1.4549 Y0.5623 Z0.1199 I-0.0079 J-0.062
N79 X1.45 Y0.5625 Z0.1125 I-0.0049 J-0.0623
N80 G18 G3 X1.4286 Z0.1 I-0.0286 K0.0243
N81 G1 X1.35 Z0.0847
N82 G17 G3 Y0.4375 Z0.0466 I0 J-0.0625
N83 G1 X1.45 Z0.0271
N84 G3 Y0.5625 Z-0.011 I0 J0.0625
N85 G1 X1.35 Z-0.0305
N86 G3 Y0.4375 Z-0.0686 I0 J-0.0625
N87 G1 X1.45 Z-0.0881
N88 G3 Y0.5625 Z-0.1263 I0 J0.0625
N89 G1 X1.35 Z-0.1457
N90 G3 Y0.4375 Z-0.1839 I0 J-0.0625
N91 G1 X1.3688 Z-0.1875
N92 X1.45 F30
N93 G3 Y0.5625 I0 J0.0625
N94 G1 X1.35
N95 G3 Y0.4375 I0 J-0.0625
N96 G1 X1.3688
N97 X1.45 Z-0.2033 F20
N98 G3 Y0.5625 Z-0.2415 I0 J0.0625
N99 G1 X1.35 Z-0.2609
N100 G3 Y0.4375 Z-0.2991 I0 J-0.0625
N101 G1 X1.45 Z-0.3185
N102 G3 Y0.5625 Z-0.3567 I0 J0.0625
N103 G1 X1.3557 Z-0.375
N104 X1.35 F30
N105 G3 Y0.4375 I0 J-0.0625
N106 G1 X1.45
N107 G3 Y0.5625 I0 J0.0625
N108 G1 X1.3557
N109 X1.35 Z-0.3761 F20
N110 G3 Y0.4375 Z-0.4143 I0 J-0.0625
N111 G1 X1.45 Z-0.4337
N112 G3 Y0.5625 Z-0.4719 I0 J0.0625
N113 G1 X1.35 Z-0.4913
N114 G3 Y0.4375 Z-0.5295 I0 J-0.0625
N115 G1 X1.45 Z-0.5489
N116 G3 X1.5062 Y0.4726 Z-0.5625 I0 J0.0625
N117 X1.45 Y0.5625 I-0.0562 J0.0274 F30
N118 G1 X1.3557
N119 X1.35
N120 G3 Y0.4375 I0 J-0.0625
N121 G1 X1.45
N122 G3 X1.5062 Y0.4726 I0 J0.0625
N123 X1.45 Y0.5625 Z-0.5871 I-0.0562 J0.0274 F20
N124 G1 X1.35 Z-0.6065
N125 G3 Y0.4375 Z-0.6447 I0 J-0.0625
N126 G1 X1.45 Z-0.6641
N127 G3 Y0.5625 Z-0.7023 I0 J0.0625
N128 G1 X1.35 Z-0.7217
N129 G3 X1.3045 Y0.4571 Z-0.75 I0 J-0.0625
N130 X1.35 Y0.4375 I0.0455 J0.0429 F30
N131 G1 X1.45
N132 G3 Y0.5625 I0 J0.0625
N133 G1 X1.35
N134 G3 X1.3045 Y0.4571 I0 J-0.0625
N135 X1.3117 Y0.4506 Z-0.7487 I0.0455 J0.0429 F20
N136 X1.3192 Y0.4456 Z-0.745 I0.0383 J0.0494
N137 X1.3262 Y0.4422 Z-0.739 I0.0308 J0.0544
N138 X1.3318 Y0.4402 Z-0.7313 I0.0238 J0.0578
N139 X1.3354 Y0.4392 Z-0.7222 I0.0182 J0.0598
N140 X1.3367 Y0.4389 Z-0.7125 I0.0146 J0.0608
N141 G0 Z0.24
N142 X2.4589 Y0.5619
N143 Z0.2269
N144 G1 Z0.1368 F20
N145 G3 X2.4579 Y0.562 Z0.1281 I-0.0089 J-0.0619
N146 X2.4549 Y0.5623 Z0.1199 I-0.0079 J-0.062
N147 X2.45 Y0.5625 Z0.1125 I-0.0049 J-0.0623
N148 G18 G3 X2.4286 Z0.1 I-0.0286 K0.0243
N149 G1 X2.35 Z0.0847
N150 G17 G3 Y0.4375 Z0.0466 I0 J-0.0625
N151 G1 X2.45 Z0.0271
N152 G3 Y0.5625 Z-0.011 I0 J0.0625
N153 G1 X2.35 Z-0.0305
N154 G3 Y0.4375 Z-0.0686 I0 J-0.0625
N155 G1 X2.45 Z-0.0881
N156 G3 Y0.5625 Z-0.1263 I0 J0.0625
N157 G1 X2.35 Z-0.1457
N158 G3 Y0.4375 Z-0.1839 I0 J-0.0625
N159 G1 X2.3687 Z-0.1875
N160 X2.45 F30
N161 G3 Y0.5625 I0 J0.0625
N162 G1 X2.35
N163 G3 Y0.4375 I0 J-0.0625
N164 G1 X2.3687
N165 X2.45 Z-0.2033 F20
N166 G3 Y0.5625 Z-0.2415 I0 J0.0625
N167 G1 X2.35 Z-0.2609
N168 G3 Y0.4375 Z-0.2991 I0 J-0.0625
N169 G1 X2.45 Z-0.3185
N170 G3 Y0.5625 Z-0.3567 I0 J0.0625
N171 G1 X2.3557 Z-0.375
N172 X2.35 F30
N173 G3 Y0.4375 I0 J-0.0625
N174 G1 X2.45
N175 G3 Y0.5625 I0 J0.0625
N176 G1 X2.3557
N177 X2.35 Z-0.3761 F20
N178 G3 Y0.4375 Z-0.4143 I0 J-0.0625
N179 G1 X2.45 Z-0.4337
N180 G3 Y0.5625 Z-0.4719 I0 J0.0625
N181 G1 X2.35 Z-0.4913
N182 G3 Y0.4375 Z-0.5295 I0 J-0.0625
N183 G1 X2.45 Z-0.5489
N184 G3 X2.5062 Y0.4726 Z-0.5625 I0 J0.0625
N185 X2.45 Y0.5625 I-0.0562 J0.0274 F30
N186 G1 X2.3557
N187 X2.35
N188 G3 Y0.4375 I0 J-0.0625
N189 G1 X2.45
N190 G3 X2.5062 Y0.4726 I0 J0.0625
N191 X2.45 Y0.5625 Z-0.5871 I-0.0562 J0.0274 F20
N192 G1 X2.35 Z-0.6065
N193 G3 Y0.4375 Z-0.6447 I0 J-0.0625
N194 G1 X2.45 Z-0.6641
N195 G3 Y0.5625 Z-0.7023 I0 J0.0625
N196 G1 X2.35 Z-0.7217
N197 G3 X2.3045 Y0.4571 Z-0.75 I0 J-0.0625
N198 X2.35 Y0.4375 I0.0455 J0.0429 F30
N199 G1 X2.45
N200 G3 Y0.5625 I0 J0.0625
N201 G1 X2.35
N202 G3 X2.3045 Y0.4571 I0 J-0.0625
N203 X2.3117 Y0.4506 Z-0.7487 I0.0455 J0.0429 F20
N204 X2.3192 Y0.4456 Z-0.745 I0.0383 J0.0494
N205 X2.3262 Y0.4422 Z-0.739 I0.0308 J0.0544
N206 X2.3318 Y0.4402 Z-0.7313 I0.0238 J0.0578
N207 X2.3354 Y0.4392 Z-0.7222 I0.0182 J0.0598
N208 X2.3367 Y0.4389 Z-0.7125 I0.0146 J0.0608
N209 G0 Z0.24
N210 X3.3589 Y0.5625
N211 Z0.2269
N212 G1 Z0.1368 F20
N213 G18 G3 X3.35 Z0.1125 I-0.0375 K0
N214 G17 G3 X3.3439 Y0.5622 Z0.1068 I0 J-0.0625
N215 X3.3367 Y0.5611 Z0.1025 I0.0061 J-0.0622
N216 X3.329 Y0.5589 Z0.1 I0.0133 J-0.0611
N217 X3.35 Y0.4375 Z0.066 I0.021 J-0.0589
N218 G1 X3.45 Z0.0466
N219 G3 Y0.5625 Z0.0084 I0 J0.0625
N220 G1 X3.35 Z-0.011
N221 G3 Y0.4375 Z-0.0492 I0 J-0.0625
N222 G1 X3.45 Z-0.0686
N223 G3 Y0.5625 Z-0.1068 I0 J0.0625
N224 G1 X3.35 Z-0.1263
N225 G3 Y0.4375 Z-0.1644 I0 J-0.0625
N226 G1 X3.45 Z-0.1839
N227 G3 X3.4685 Y0.4403 Z-0.1875 I0 J0.0625
N228 X3.45 Y0.5625 I-0.0185 J0.0597 F30
N229 G1 X3.35
N230 G3 Y0.4375 I0 J-0.0625
N231 G1 X3.45
N232 G3 X3.4685 Y0.4403 I0 J0.0625
N233 X3.45 Y0.5625 Z-0.222 I-0.0185 J0.0597 F20
N234 G1 X3.35 Z-0.2415
N235 G3 X3.2876 Y0.5039 Z-0.2598 I0 J-0.0625
N236 X3.2875 Y0.5 Z-0.2605 I0.0624 J-0.0039
N237 X3.35 Y0.4375 Z-0.2796 I0.0625 J0
N238 G1 X3.45 Z-0.2991
N239 G3 Y0.5625 Z-0.3372 I0 J0.0625
N240 G1 X3.35 Z-0.3567
N241 G3 X3.2876 Y0.5039 Z-0.375 I0 J-0.0625
N242 X3.35 Y0.4375 I0.0624 J-0.0039 F30
N243 G1 X3.45
N244 G3 Y0.5625 I0 J0.0625
N245 G1 X3.35
N246 G3 X3.2876 Y0.5039 I0 J-0.0625
N247 X3.2875 Y0.5 Z-0.3758 I0.0624 J-0.0039 F20
N248 X3.35 Y0.4375 Z-0.3948 I0.0625 J0
N249 G1 X3.45 Z-0.4143
N250 G3 Y0.5625 Z-0.4524 I0 J0.0625
N251 G1 X3.35 Z-0.4719
N252 G3 X3.2876 Y0.5039 Z-0.4902 I0 J-0.0625
N253 X3.2875 Y0.5 Z-0.491 I0.0624 J-0.0039
N254 X3.35 Y0.4375 Z-0.51 I0.0625 J0
N255 G1 X3.45 Z-0.5295
N256 G3 X3.4757 Y0.557 Z-0.5625 I0 J0.0625
N257 X3.45 Y0.5625 I-0.0257 J-0.057 F30
N258 G1 X3.35
N259 G3 Y0.4375 I0 J-0.0625
N260 G1 X3.45
N261 G3 X3.4757 Y0.557 I0 J0.0625
N262 X3.45 Y0.5625 Z-0.5676 I-0.0257 J-0.057 F20
N263 G1 X3.35 Z-0.5871
N264 G3 Y0.4375 Z-0.6253 I0 J-0.0625
N265 G1 X3.45 Z-0.6447
N266 G3 Y0.5625 Z-0.6829 I0 J0.0625
N267 G1 X3.35 Z-0.7023
N268 G3 Y0.4375 Z-0.7405 I0 J-0.0625
N269 G1 X3.3991 Z-0.75
N270 X3.45 F30
N271 G3 Y0.5625 I0 J0.0625
N272 G1 X3.35
N273 G3 Y0.4375 I0 J-0.0625
N274 G1 X3.3991
N275 G3 X3.4087 Y0.4387 Z-0.7487 I0 J0.0375 F20
N276 X3.417 Y0.4421 Z-0.745 I-0.0096 J0.0363
N277 X3.4234 Y0.4465 Z-0.739 I-0.018 J0.0329
N278 X3.4276 Y0.4507 Z-0.7313 I-0.0244 J0.0285
N279 X3.4299 Y0.4537 Z-0.7222 I-0.0286 J0.0243
N280 X3.4306 Y0.4547 Z-0.7125 I-0.0308 J0.0213
N281 G0 Z0.24
N282 X4.4589 Y0.5619
N283 Z0.2269
N284 G1 Z0.1368 F20
N285 G3 X4.4579 Y0.562 Z0.1281 I-0.0089 J-0.0619
N286 X4.4549 Y0.5623 Z0.1199 I-0.0079 J-0.062
N287 X4.45 Y0.5625 Z0.1125 I-0.0049 J-0.0623
N288 G18 G3 X4.4286 Z0.1 I-0.0286 K0.0243
N289 G1 X4.35 Z0.0847
N290 G17 G3 Y0.4375 Z0.0466 I0 J-0.0625
N291 G1 X4.45 Z0.0271
N292 G3 Y0.5625 Z-0.011 I0 J0.0625
N293 G1 X4.35 Z-0.0305
N294 G3 Y0.4375 Z-0.0686 I0 J-0.0625
N295 G1 X4.45 Z-0.0881
N296 G3 Y0.5625 Z-0.1263 I0 J0.0625
N297 G1 X4.35 Z-0.1457
N298 G3 Y0.4375 Z-0.1839 I0 J-0.0625
N299 G1 X4.3687 Z-0.1875
N300 X4.45 F30
N301 G3 Y0.5625 I0 J0.0625
N302 G1 X4.35
N303 G3 Y0.4375 I0 J-0.0625
N304 G1 X4.3687
N305 X4.45 Z-0.2033 F20
N306 G3 Y0.5625 Z-0.2415 I0 J0.0625
N307 G1 X4.35 Z-0.2609
N308 G3 Y0.4375 Z-0.2991 I0 J-0.0625
N309 G1 X4.45 Z-0.3185
N310 G3 Y0.5625 Z-0.3567 I0 J0.0625
N311 G1 X4.3557 Z-0.375
N312 X4.35 F30
N313 G3 Y0.4375 I0 J-0.0625
N314 G1 X4.45
N315 G3 Y0.5625 I0 J0.0625
N316 G1 X4.3557
N317 X4.35 Z-0.3761 F20
N318 G3 Y0.4375 Z-0.4143 I0 J-0.0625
N319 G1 X4.45 Z-0.4337
N320 G3 Y0.5625 Z-0.4719 I0 J0.0625
N321 G1 X4.35 Z-0.4913
N322 G3 Y0.4375 Z-0.5295 I0 J-0.0625
N323 G1 X4.45 Z-0.5489
N324 G3 X4.5062 Y0.4726 Z-0.5625 I0 J0.0625
N325 X4.45 Y0.5625 I-0.0562 J0.0274 F30
N326 G1 X4.3557
N327 X4.35
N328 G3 Y0.4375 I0 J-0.0625
N329 G1 X4.45
N330 G3 X4.5062 Y0.4726 I0 J0.0625
N331 X4.45 Y0.5625 Z-0.5871 I-0.0562 J0.0274 F20
N332 G1 X4.35 Z-0.6065
N333 G3 Y0.4375 Z-0.6447 I0 J-0.0625
N334 G1 X4.45 Z-0.6641
N335 G3 Y0.5625 Z-0.7023 I0 J0.0625
N336 G1 X4.35 Z-0.7217
N337 G3 X4.3045 Y0.4571 Z-0.75 I0 J-0.0625
N338 X4.35 Y0.4375 I0.0455 J0.0429 F30
N339 G1 X4.45
N340 G3 Y0.5625 I0 J0.0625
N341 G1 X4.35
N342 G3 X4.3045 Y0.4571 I0 J-0.0625
N343 X4.3117 Y0.4506 Z-0.7487 I0.0455 J0.0429 F20
N344 X4.3192 Y0.4456 Z-0.745 I0.0383 J0.0494
N345 X4.3262 Y0.4422 Z-0.739 I0.0308 J0.0544
N346 X4.3318 Y0.4402 Z-0.7313 I0.0238 J0.0578
N347 X4.3354 Y0.4392 Z-0.7222 I0.0182 J0.0598
N348 X4.3367 Y0.4389 Z-0.7125 I0.0146 J0.0608
N349 G0 Z0.24
N350 X5.3589 Y0.5625
N351 Z0.2269
N352 G1 Z0.1368 F20
N353 G18 G3 X5.35 Z0.1125 I-0.0375 K0
N354 G17 G3 X5.3439 Y0.5622 Z0.1068 I0 J-0.0625
N355 X5.3367 Y0.5611 Z0.1025 I0.0061 J-0.0622
N356 X5.329 Y0.5589 Z0.1 I0.0133 J-0.0611
N357 X5.35 Y0.4375 Z0.066 I0.021 J-0.0589
N358 G1 X5.45 Z0.0466
N359 G3 X5.5125 Y0.5 Z0.0275 I0 J0.0625
N360 X5.45 Y0.5625 Z0.0084 I-0.0625 J0
N361 G1 X5.35 Z-0.011
N362 G3 Y0.4375 Z-0.0492 I0 J-0.0625
N363 G1 X5.45 Z-0.0686
N364 G3 X5.5125 Y0.5 Z-0.0877 I0 J0.0625
N365 X5.45 Y0.5625 Z-0.1068 I-0.0625 J0
N366 G1 X5.35 Z-0.1263
N367 G3 Y0.4375 Z-0.1644 I0 J-0.0625
N368 G1 X5.45 Z-0.1839
N369 G3 X5.4685 Y0.4403 Z-0.1875 I0 J0.0625
N370 X5.45 Y0.5625 I-0.0185 J0.0597 F30
N371 G1 X5.35
N372 G3 Y0.4375 I0 J-0.0625
N373 G1 X5.45
N374 G3 X5.4685 Y0.4403 I0 J0.0625
N375 X5.5125 Y0.5 Z-0.2029 I-0.0185 J0.0597 F20
N376 X5.45 Y0.5625 Z-0.222 I-0.0625 J0
N377 G1 X5.35 Z-0.2415
N378 G3 X5.2876 Y0.5039 Z-0.2598 I0 J-0.0625
N379 X5.2875 Y0.5 Z-0.2605 I0.0624 J-0.0039
N380 X5.35 Y0.4375 Z-0.2796 I0.0625 J0
N381 G1 X5.45 Z-0.2991
N382 G3 X5.5125 Y0.5 Z-0.3181 I0 J0.0625
N383 X5.45 Y0.5625 Z-0.3372 I-0.0625 J0
N384 G1 X5.35 Z-0.3567
N385 G3 X5.2876 Y0.5039 Z-0.375 I0 J-0.0625
N386 X5.35 Y0.4375 I0.0624 J-0.0039 F30
N387 G1 X5.45
N388 G3 Y0.5625 I0 J0.0625
N389 G1 X5.35
N390 G3 X5.2876 Y0.5039 I0 J-0.0625
N391 X5.2875 Y0.5 Z-0.3758 I0.0624 J-0.0039 F20
N392 X5.35 Y0.4375 Z-0.3948 I0.0625 J0
N393 G1 X5.45 Z-0.4143
N394 G3 X5.5125 Y0.5 Z-0.4334 I0 J0.0625
N395 X5.45 Y0.5625 Z-0.4524 I-0.0625 J0
N396 G1 X5.35 Z-0.4719
N397 G3 X5.2876 Y0.5039 Z-0.4902 I0 J-0.0625
N398 X5.2875 Y0.5 Z-0.491 I0.0624 J-0.0039
N399 X5.35 Y0.4375 Z-0.51 I0.0625 J0
N400 G1 X5.45 Z-0.5295
N401 G3 X5.5125 Y0.5 Z-0.5486 I0 J0.0625
N402 X5.4757 Y0.557 Z-0.5625 I-0.0625 J0
N403 X5.45 Y0.5625 I-0.0257 J-0.057 F30
N404 G1 X5.35
N405 G3 Y0.4375 I0 J-0.0625
N406 G1 X5.45
N407 G3 X5.4757 Y0.557 I0 J0.0625
N408 X5.45 Y0.5625 Z-0.5676 I-0.0257 J-0.057 F20
N409 G1 X5.35 Z-0.5871
N410 G3 Y0.4375 Z-0.6253 I0 J-0.0625
N411 G1 X5.45 Z-0.6447
N412 G3 X5.5125 Y0.5 Z-0.6638 I0 J0.0625
N413 X5.45 Y0.5625 Z-0.6829 I-0.0625 J0
N414 G1 X5.35 Z-0.7023
N415 G3 Y0.4375 Z-0.7405 I0 J-0.0625
N416 G1 X5.3991 Z-0.75
N417 X5.45 F30
N418 G3 Y0.5625 I0 J0.0625
N419 G1 X5.35
N420 G3 Y0.4375 I0 J-0.0625
N421 G1 X5.3991
N422 G3 X5.4087 Y0.4387 Z-0.7487 I0 J0.0375 F20
N423 X5.417 Y0.4421 Z-0.745 I-0.0096 J0.0363
N424 X5.4234 Y0.4465 Z-0.739 I-0.018 J0.0329
N425 X5.4276 Y0.4507 Z-0.7313 I-0.0244 J0.0285
N426 X5.4299 Y0.4537 Z-0.7222 I-0.0286 J0.0243
N427 X5.4306 Y0.4547 Z-0.7125 I-0.0308 J0.0213
N428 G0 Z0.24
N429 X6.3589 Y0.5625
N430 Z0.2269
N431 G1 Z0.1368 F20
N432 G18 G3 X6.35 Z0.1125 I-0.0375 K0
N433 G17 G3 X6.3439 Y0.5622 Z0.1068 I0 J-0.0625
N434 X6.3367 Y0.5611 Z0.1025 I0.0061 J-0.0622
N435 X6.329 Y0.5589 Z0.1 I0.0133 J-0.0611
N436 X6.35 Y0.4375 Z0.066 I0.021 J-0.0589
N437 G1 X6.45 Z0.0466
N438 G3 Y0.5625 Z0.0084 I0 J0.0625
N439 G1 X6.35 Z-0.011
N440 G3 Y0.4375 Z-0.0492 I0 J-0.0625
N441 G1 X6.45 Z-0.0686
N442 G3 Y0.5625 Z-0.1068 I0 J0.0625
N443 G1 X6.35 Z-0.1263
N444 G3 Y0.4375 Z-0.1644 I0 J-0.0625
N445 G1 X6.45 Z-0.1839
N446 G3 X6.4685 Y0.4403 Z-0.1875 I0 J0.0625
N447 X6.45 Y0.5625 I-0.0185 J0.0597 F30
N448 G1 X6.35
N449 G3 Y0.4375 I0 J-0.0625
N450 G1 X6.45
N451 G3 X6.4685 Y0.4403 I0 J0.0625
N452 X6.45 Y0.5625 Z-0.222 I-0.0185 J0.0597 F20
N453 G1 X6.35 Z-0.2415
N454 G3 X6.2876 Y0.5039 Z-0.2598 I0 J-0.0625
N455 X6.2875 Y0.5 Z-0.2605 I0.0624 J-0.0039
N456 X6.35 Y0.4375 Z-0.2796 I0.0625 J0
N457 G1 X6.45 Z-0.2991
N458 G3 Y0.5625 Z-0.3372 I0 J0.0625
N459 G1 X6.35 Z-0.3567
N460 G3 X6.2876 Y0.5039 Z-0.375 I0 J-0.0625
N461 X6.35 Y0.4375 I0.0624 J-0.0039 F30
N462 G1 X6.45
N463 G3 Y0.5625 I0 J0.0625
N464 G1 X6.35
N465 G3 X6.2876 Y0.5039 I0 J-0.0625
N466 X6.2875 Y0.5 Z-0.3758 I0.0624 J-0.0039 F20
N467 X6.35 Y0.4375 Z-0.3948 I0.0625 J0
N468 G1 X6.45 Z-0.4143
N469 G3 X6.5125 Y0.5 Z-0.4334 I0 J0.0625
N470 X6.45 Y0.5625 Z-0.4524 I-0.0625 J0
N471 G1 X6.35 Z-0.4719
N472 G3 X6.2876 Y0.5039 Z-0.4902 I0 J-0.0625
N473 X6.2875 Y0.5 Z-0.491 I0.0624 J-0.0039
N474 X6.35 Y0.4375 Z-0.51 I0.0625 J0
N475 G1 X6.45 Z-0.5295
N476 G3 X6.5125 Y0.5 Z-0.5486 I0 J0.0625
N477 X6.4757 Y0.557 Z-0.5625 I-0.0625 J0
N478 X6.45 Y0.5625 I-0.0257 J-0.057 F30
N479 G1 X6.35
N480 G3 Y0.4375 I0 J-0.0625
N481 G1 X6.45
N482 G3 X6.4757 Y0.557 I0 J0.0625
N483 X6.45 Y0.5625 Z-0.5676 I-0.0257 J-0.057 F20
N484 G1 X6.35 Z-0.5871
N485 G3 Y0.4375 Z-0.6253 I0 J-0.0625
N486 G1 X6.45 Z-0.6447
N487 G3 X6.5125 Y0.5 Z-0.6638 I0 J0.0625
N488 X6.45 Y0.5625 Z-0.6829 I-0.0625 J0
N489 G1 X6.35 Z-0.7023
N490 G3 Y0.4375 Z-0.7405 I0 J-0.0625
N491 G1 X6.3991 Z-0.75
N492 X6.45 F30
N493 G3 Y0.5625 I0 J0.0625
N494 G1 X6.35
N495 G3 Y0.4375 I0 J-0.0625
N496 G1 X6.3991
N497 G3 X6.4087 Y0.4387 Z-0.7487 I0 J0.0375 F20
N498 X6.417 Y0.4421 Z-0.745 I-0.0096 J0.0363
N499 X6.4234 Y0.4465 Z-0.739 I-0.018 J0.0329
N500 X6.4276 Y0.4507 Z-0.7313 I-0.0244 J0.0285
N501 X6.4299 Y0.4537 Z-0.7222 I-0.0286 J0.0243
N502 X6.4306 Y0.4547 Z-0.7125 I-0.0308 J0.0213
N503 G0 Z0.24
N504 X7.3589 Y0.5625
N505 Z0.2269
N506 G1 Z0.1368 F20
N507 G18 G3 X7.35 Z0.1125 I-0.0375 K0
N508 G17 G3 X7.3439 Y0.5622 Z0.1068 I0 J-0.0625
N509 X7.3367 Y0.5611 Z0.1025 I0.0061 J-0.0622
N510 X7.329 Y0.5589 Z0.1 I0.0133 J-0.0611
N511 X7.2875 Y0.5 Z0.0851 I0.021 J-0.0589
N512 X7.35 Y0.4375 Z0.066 I0.0625 J0
N513 G1 X7.45 Z0.0466
N514 G3 X7.5125 Y0.5 Z0.0275 I0 J0.0625
N515 X7.45 Y0.5625 Z0.0084 I-0.0625 J0
N516 G1 X7.35 Z-0.011
N517 G3 X7.2875 Y0.5 Z-0.0301 I0 J-0.0625
N518 X7.35 Y0.4375 Z-0.0492 I0.0625 J0
N519 G1 X7.45 Z-0.0686
N520 G3 X7.5125 Y0.5 Z-0.0877 I0 J0.0625
N521 X7.45 Y0.5625 Z-0.1068 I-0.0625 J0
N522 G1 X7.35 Z-0.1263
N523 G3 X7.2875 Y0.5 Z-0.1453 I0 J-0.0625
N524 X7.35 Y0.4375 Z-0.1644 I0.0625 J0
N525 G1 X7.45 Z-0.1839
N526 G3 X7.4685 Y0.4403 Z-0.1875 I0 J0.0625
N527 X7.45 Y0.5625 I-0.0185 J0.0597 F30
N528 G1 X7.35
N529 G3 X7.2875 Y0.5 I0 J-0.0625
N530 X7.35 Y0.4375 I0.0625 J0
N531 G1 X7.45
N532 G3 X7.4685 Y0.4403 I0 J0.0625
N533 X7.5125 Y0.5 Z-0.2029 I-0.0185 J0.0597 F20
N534 X7.45 Y0.5625 Z-0.222 I-0.0625 J0
N535 G1 X7.35 Z-0.2415
N536 G3 X7.2876 Y0.5039 Z-0.2598 I0 J-0.0625
N537 X7.2875 Y0.5 Z-0.2605 I0.0624 J-0.0039
N538 X7.35 Y0.4375 Z-0.2796 I0.0625 J0
N539 G1 X7.45 Z-0.2991
N540 G3 X7.5125 Y0.5 Z-0.3181 I0 J0.0625
N541 X7.45 Y0.5625 Z-0.3372 I-0.0625 J0
N542 G1 X7.35 Z-0.3567
N543 G3 X7.2876 Y0.5039 Z-0.375 I0 J-0.0625
N544 X7.35 Y0.4375 I0.0624 J-0.0039 F30
N545 G1 X7.45
N546 G3 Y0.5625 I0 J0.0625
N547 G1 X7.35
N548 G3 X7.2876 Y0.5039 I0 J-0.0625
N549 X7.2875 Y0.5 Z-0.3758 I0.0624 J-0.0039 F20
N550 X7.35 Y0.4375 Z-0.3948 I0.0625 J0
N551 G1 X7.45 Z-0.4143
N552 G3 X7.5125 Y0.5 Z-0.4334 I0 J0.0625
N553 X7.45 Y0.5625 Z-0.4524 I-0.0625 J0
N554 G1 X7.35 Z-0.4719
N555 G3 X7.2876 Y0.5039 Z-0.4902 I0 J-0.0625
N556 X7.2875 Y0.5 Z-0.491 I0.0624 J-0.0039
N557 X7.35 Y0.4375 Z-0.51 I0.0625 J0
N558 G1 X7.45 Z-0.5295
N559 G3 X7.5125 Y0.5 Z-0.5486 I0 J0.0625
N560 X7.4757 Y0.557 Z-0.5625 I-0.0625 J0
N561 X7.45 Y0.5625 I-0.0257 J-0.057 F30
N562 G1 X7.35
N563 G3 X7.2875 Y0.5 I0 J-0.0625
N564 X7.35 Y0.4375 I0.0625 J0
N565 G1 X7.45
N566 G3 X7.4757 Y0.557 I0 J0.0625
N567 X7.45 Y0.5625 Z-0.5676 I-0.0257 J-0.057 F20
N568 G1 X7.35 Z-0.5871
N569 G3 X7.2875 Y0.5 Z-0.6062 I0 J-0.0625
N570 X7.35 Y0.4375 Z-0.6253 I0.0625 J0
N571 G1 X7.45 Z-0.6447
N572 G3 X7.5125 Y0.5 Z-0.6638 I0 J0.0625
N573 X7.45 Y0.5625 Z-0.6829 I-0.0625 J0
N574 G1 X7.35 Z-0.7023
N575 G3 X7.2875 Y0.5 Z-0.7214 I0 J-0.0625
N576 X7.35 Y0.4375 Z-0.7405 I0.0625 J0
N577 G1 X7.3991 Z-0.75
N578 X7.45 F30
N579 G3 Y0.5625 I0 J0.0625
N580 G1 X7.35
N581 G3 X7.2875 Y0.5 I0 J-0.0625
N582 X7.35 Y0.4375 I0.0625 J0
N583 G1 X7.3991
N584 G3 X7.4087 Y0.4387 Z-0.7487 I0 J0.0375 F20
N585 X7.417 Y0.4421 Z-0.745 I-0.0096 J0.0363
N586 X7.4234 Y0.4465 Z-0.739 I-0.018 J0.0329
N587 X7.4276 Y0.4507 Z-0.7313 I-0.0244 J0.0285
N588 X7.4299 Y0.4537 Z-0.7222 I-0.0286 J0.0243
N589 X7.4306 Y0.4547 Z-0.7125 I-0.0308 J0.0213
N590 G0 Z0.24
N591 X8.3589 Y0.5625
N592 Z0.2269
N593 G1 Z0.1368 F20
N594 G18 G3 X8.35 Z0.1125 I-0.0375 K0
N595 G17 G3 X8.3439 Y0.5622 Z0.1068 I0 J-0.0625
N596 X8.3367 Y0.5611 Z0.1025 I0.0061 J-0.0622
N597 X8.329 Y0.5589 Z0.1 I0.0133 J-0.0611
N598 X8.35 Y0.4375 Z0.066 I0.021 J-0.0589
N599 G1 X8.45 Z0.0466
N600 G3 Y0.5625 Z0.0084 I0 J0.0625
N601 G1 X8.35 Z-0.011
N602 G3 Y0.4375 Z-0.0492 I0 J-0.0625
N603 G1 X8.45 Z-0.0686
N604 G3 Y0.5625 Z-0.1068 I0 J0.0625
N605 G1 X8.35 Z-0.1263
N606 G3 Y0.4375 Z-0.1644 I0 J-0.0625
N607 G1 X8.45 Z-0.1839
N608 G3 X8.4685 Y0.4403 Z-0.1875 I0 J0.0625
N609 X8.45 Y0.5625 I-0.0185 J0.0597 F30
N610 G1 X8.35
N611 G3 Y0.4375 I0 J-0.0625
N612 G1 X8.45
N613 G3 X8.4685 Y0.4403 I0 J0.0625
N614 X8.45 Y0.5625 Z-0.222 I-0.0185 J0.0597 F20
N615 G1 X8.35 Z-0.2415
N616 G3 X8.2876 Y0.5039 Z-0.2598 I0 J-0.0625
N617 X8.2875 Y0.5 Z-0.2605 I0.0624 J-0.0039
N618 X8.35 Y0.4375 Z-0.2796 I0.0625 J0
N619 G1 X8.45 Z-0.2991
N620 G3 Y0.5625 Z-0.3372 I0 J0.0625
N621 G1 X8.35 Z-0.3567
N622 G3 X8.2876 Y0.5039 Z-0.375 I0 J-0.0625
N623 X8.35 Y0.4375 I0.0624 J-0.0039 F30
N624 G1 X8.45
N625 G3 Y0.5625 I0 J0.0625
N626 G1 X8.35
N627 G3 X8.2876 Y0.5039 I0 J-0.0625
N628 X8.2875 Y0.5 Z-0.3758 I0.0624 J-0.0039 F20
N629 X8.35 Y0.4375 Z-0.3948 I0.0625 J0
N630 G1 X8.45 Z-0.4143
N631 G3 X8.4757 Y0.557 Z-0.4473 I0 J0.0625
N632 X8.45 Y0.5625 Z-0.4524 I-0.0257 J-0.057
N633 G1 X8.35 Z-0.4719
N634 G3 X8.2876 Y0.5039 Z-0.4902 I0 J-0.0625
N635 X8.2875 Y0.5 Z-0.491 I0.0624 J-0.0039
N636 X8.35 Y0.4375 Z-0.51 I0.0625 J0
N637 G1 X8.45 Z-0.5295
N638 G3 X8.4757 Y0.557 Z-0.5625 I0 J0.0625
N639 X8.45 Y0.5625 I-0.0257 J-0.057 F30
N640 G1 X8.35
N641 G3 Y0.4375 I0 J-0.0625
N642 G1 X8.45
N643 G3 X8.4757 Y0.557 I0 J0.0625
N644 X8.45 Y0.5625 Z-0.5676 I-0.0257 J-0.057 F20
N645 G1 X8.35 Z-0.5871
N646 G3 Y0.4375 Z-0.6253 I0 J-0.0625
N647 G1 X8.45 Z-0.6447
N648 G3 X8.4757 Y0.557 Z-0.6777 I0 J0.0625
N649 X8.45 Y0.5625 Z-0.6829 I-0.0257 J-0.057
N650 G1 X8.35 Z-0.7023
N651 G3 Y0.4375 Z-0.7405 I0 J-0.0625
N652 G1 X8.3991 Z-0.75
N653 X8.45 F30
N654 G3 Y0.5625 I0 J0.0625
N655 G1 X8.35
N656 G3 Y0.4375 I0 J-0.0625
N657 G1 X8.3991
N658 G3 X8.4087 Y0.4387 Z-0.7487 I0 J0.0375 F20
N659 X8.417 Y0.4421 Z-0.745 I-0.0096 J0.0363
N660 X8.4234 Y0.4465 Z-0.739 I-0.018 J0.0329
N661 X8.4276 Y0.4507 Z-0.7313 I-0.0244 J0.0285
N662 X8.4299 Y0.4537 Z-0.7222 I-0.0286 J0.0243
N663 X8.4306 Y0.4547 Z-0.7125 I-0.0308 J0.0213
N664 G0 Z0.24
N665 X9.3589 Y0.5625
N666 Z0.2269
N667 G1 Z0.1368 F20
N668 G18 G3 X9.35 Z0.1125 I-0.0375 K0
N669 G17 G3 X9.3439 Y0.5622 Z0.1068 I0 J-0.0625
N670 X9.3367 Y0.5611 Z0.1025 I0.0061 J-0.0622
N671 X9.329 Y0.5589 Z0.1 I0.0133 J-0.0611
N672 X9.2875 Y0.5 Z0.0851 I0.021 J-0.0589
N673 X9.35 Y0.4375 Z0.066 I0.0625 J0
N674 G1 X9.45 Z0.0466
N675 G3 X9.4685 Y0.4403 Z0.0429 I0 J0.0625
N676 X9.5125 Y0.5 Z0.0275 I-0.0185 J0.0597
N677 X9.45 Y0.5625 Z0.0084 I-0.0625 J0
N678 G1 X9.35 Z-0.011
N679 G3 X9.2875 Y0.5 Z-0.0301 I0 J-0.0625
N680 X9.35 Y0.4375 Z-0.0492 I0.0625 J0
N681 G1 X9.45 Z-0.0686
N682 G3 X9.4685 Y0.4403 Z-0.0723 I0 J0.0625
N683 X9.5125 Y0.5 Z-0.0877 I-0.0185 J0.0597
N684 X9.45 Y0.5625 Z-0.1068 I-0.0625 J0
N685 G1 X9.35 Z-0.1263
N686 G3 X9.2875 Y0.5 Z-0.1453 I0 J-0.0625
N687 X9.35 Y0.4375 Z-0.1644 I0.0625 J0
N688 G1 X9.45 Z-0.1839
N689 G3 X9.4685 Y0.4403 Z-0.1875 I0 J0.0625
N690 X9.45 Y0.5625 I-0.0185 J0.0597 F30
N691 G1 X9.35
N692 G3 X9.2875 Y0.5 I0 J-0.0625
N693 X9.35 Y0.4375 I0.0625 J0
N694 G1 X9.45
N695 G3 X9.4685 Y0.4403 I0 J0.0625
N696 X9.5125 Y0.5 Z-0.2029 I-0.0185 J0.0597 F20
N697 X9.45 Y0.5625 Z-0.222 I-0.0625 J0
N698 G1 X9.35 Z-0.2415
N699 G3 X9.2876 Y0.5039 Z-0.2598 I0 J-0.0625
N700 X9.2875 Y0.5 Z-0.2605 I0.0624 J-0.0039
N701 X9.35 Y0.4375 Z-0.2796 I0.0625 J0
N702 G1 X9.45 Z-0.2991
N703 G3 X9.4685 Y0.4403 Z-0.3027 I0 J0.0625
N704 X9.5125 Y0.5 Z-0.3181 I-0.0185 J0.0597
N705 X9.45 Y0.5625 Z-0.3372 I-0.0625 J0
N706 G1 X9.35 Z-0.3567
N707 G3 X9.2876 Y0.5039 Z-0.375 I0 J-0.0625
N708 X9.35 Y0.4375 I0.0624 J-0.0039 F30
N709 G1 X9.45
N710 G3 Y0.5625 I0 J0.0625
N711 G1 X9.35
N712 G3 X9.2876 Y0.5039 I0 J-0.0625
N713 X9.2875 Y0.5 Z-0.3758 I0.0624 J-0.0039 F20
N714 X9.35 Y0.4375 Z-0.3948 I0.0625 J0
N715 G1 X9.45 Z-0.4143
N716 G3 X9.5125 Y0.5 Z-0.4334 I0 J0.0625
N717 X9.45 Y0.5625 Z-0.4524 I-0.0625 J0
N718 G1 X9.35 Z-0.4719
N719 G3 X9.2876 Y0.5039 Z-0.4902 I0 J-0.0625
N720 X9.2875 Y0.5 Z-0.491 I0.0624 J-0.0039
N721 X9.35 Y0.4375 Z-0.51 I0.0625 J0
N722 G1 X9.45 Z-0.5295
N723 G3 X9.5125 Y0.5 Z-0.5486 I0 J0.0625
N724 X9.4757 Y0.557 Z-0.5625 I-0.0625 J0
N725 X9.45 Y0.5625 I-0.0257 J-0.057 F30
N726 G1 X9.35
N727 G3 X9.2875 Y0.5 I0 J-0.0625
N728 X9.35 Y0.4375 I0.0625 J0
N729 G1 X9.45
N730 G3 X9.4757 Y0.557 I0 J0.0625
N731 X9.45 Y0.5625 Z-0.5676 I-0.0257 J-0.057 F20
N732 G1 X9.35 Z-0.5871
N733 G3 X9.2875 Y0.5 Z-0.6062 I0 J-0.0625
N734 X9.35 Y0.4375 Z-0.6253 I0.0625 J0
N735 G1 X9.45 Z-0.6447
N736 G3 X9.5125 Y0.5 Z-0.6638 I0 J0.0625
N737 X9.45 Y0.5625 Z-0.6829 I-0.0625 J0
N738 G1 X9.35 Z-0.7023
N739 G3 X9.2875 Y0.5 Z-0.7214 I0 J-0.0625
N740 X9.35 Y0.4375 Z-0.7405 I0.0625 J0
N741 G1 X9.3991 Z-0.75
N742 X9.45 F30
N743 G3 Y0.5625 I0 J0.0625
N744 G1 X9.35
N745 G3 X9.2875 Y0.5 I0 J-0.0625
N746 X9.35 Y0.4375 I0.0625 J0
N747 G1 X9.3991
N748 G3 X9.4087 Y0.4387 Z-0.7487 I0 J0.0375 F20
N749 X9.417 Y0.4421 Z-0.745 I-0.0096 J0.0363
N750 X9.4234 Y0.4465 Z-0.739 I-0.018 J0.0329
N751 X9.4276 Y0.4507 Z-0.7313 I-0.0244 J0.0285
N752 X9.4299 Y0.4537 Z-0.7222 I-0.0286 J0.0243
N753 X9.4306 Y0.4547 Z-0.7125 I-0.0308 J0.0213
N754 G0 Z0.24
N755 X10.4589 Y0.5619
N756 Z0.2269
N757 G1 Z0.1368 F20
N758 G3 X10.4579 Y0.562 Z0.1281 I-0.0089 J-0.0619
N759 X10.4549 Y0.5623 Z0.1199 I-0.0079 J-0.062
N760 X10.45 Y0.5625 Z0.1125 I-0.0049 J-0.0623
N761 G18 G3 X10.4286 Z0.1 I-0.0286 K0.0243
N762 G1 X10.35 Z0.0847
N763 G17 G3 X10.2875 Y0.5 Z0.0656 I0 J-0.0625
N764 X10.35 Y0.4375 Z0.0466 I0.0625 J0
N765 G1 X10.45 Z0.0271
N766 G3 Y0.5625 Z-0.011 I0 J0.0625
N767 G1 X10.35 Z-0.0305
N768 G3 X10.2875 Y0.5 Z-0.0496 I0 J-0.0625
N769 X10.35 Y0.4375 Z-0.0686 I0.0625 J0
N770 G1 X10.45 Z-0.0881
N771 G3 Y0.5625 Z-0.1263 I0 J0.0625
N772 G1 X10.35 Z-0.1457
N773 G3 X10.2875 Y0.5 Z-0.1648 I0 J-0.0625
N774 X10.35 Y0.4375 Z-0.1839 I0.0625 J0
N775 G1 X10.3687 Z-0.1875
N776 X10.45 F30
N777 G3 Y0.5625 I0 J0.0625
N778 G1 X10.35
N779 G3 Y0.4375 I0 J-0.0625
N780 G1 X10.3687
N781 X10.45 Z-0.2033 F20
N782 G3 Y0.5625 Z-0.2415 I0 J0.0625
N783 G1 X10.35 Z-0.2609
N784 G3 X10.2875 Y0.5 Z-0.28 I0 J-0.0625
N785 X10.35 Y0.4375 Z-0.2991 I0.0625 J0
N786 G1 X10.45 Z-0.3185
N787 G3 Y0.5625 Z-0.3567 I0 J0.0625
N788 G1 X10.3557 Z-0.375
N789 X10.35 F30
N790 G3 Y0.4375 I0 J-0.0625
N791 G1 X10.45
N792 G3 Y0.5625 I0 J0.0625
N793 G1 X10.3557
N794 X10.35 Z-0.3761 F20
N795 G3 X10.2875 Y0.5 Z-0.3952 I0 J-0.0625
N796 X10.35 Y0.4375 Z-0.4143 I0.0625 J0
N797 G1 X10.45 Z-0.4337
N798 G3 X10.5062 Y0.4726 Z-0.4473 I0 J0.0625
N799 X10.5125 Y0.5 Z-0.4528 I-0.0562 J0.0274
N800 X10.45 Y0.5625 Z-0.4719 I-0.0625 J0
N801 G1 X10.35 Z-0.4913
N802 G3 X10.2875 Y0.5 Z-0.5104 I0 J-0.0625
N803 X10.35 Y0.4375 Z-0.5295 I0.0625 J0
N804 G1 X10.45 Z-0.5489
N805 G3 X10.5062 Y0.4726 Z-0.5625 I0 J0.0625
N806 X10.45 Y0.5625 I-0.0562 J0.0274 F30
N807 G1 X10.3557
N808 X10.35
N809 G3 Y0.4375 I0 J-0.0625
N810 G1 X10.45
N811 G3 X10.5062 Y0.4726 I0 J0.0625
N812 X10.5125 Y0.5 Z-0.568 I-0.0562 J0.0274 F20
N813 X10.45 Y0.5625 Z-0.5871 I-0.0625 J0
N814 G1 X10.35 Z-0.6065
N815 G3 X10.2875 Y0.5 Z-0.6256 I0 J-0.0625
N816 X10.35 Y0.4375 Z-0.6447 I0.0625 J0
N817 G1 X10.45 Z-0.6641
N818 G3 X10.5062 Y0.4726 Z-0.6777 I0 J0.0625
N819 X10.5125 Y0.5 Z-0.6832 I-0.0562 J0.0274
N820 X10.45 Y0.5625 Z-0.7023 I-0.0625 J0
N821 G1 X10.35 Z-0.7217
N822 G3 X10.2875 Y0.5 Z-0.7408 I0 J-0.0625
N823 X10.3045 Y0.4571 Z-0.75 I0.0625 J0
N824 X10.35 Y0.4375 I0.0455 J0.0429 F30
N825 G1 X10.45
N826 G3 Y0.5625 I0 J0.0625
N827 G1 X10.35
N828 G3 X10.3045 Y0.4571 I0 J-0.0625
N829 X10.3117 Y0.4506 Z-0.7487 I0.0455 J0.0429 F20
N830 X10.3192 Y0.4456 Z-0.745 I0.0383 J0.0494
N831 X10.3262 Y0.4422 Z-0.739 I0.0308 J0.0544
N832 X10.3318 Y0.4402 Z-0.7313 I0.0238 J0.0578
N833 X10.3354 Y0.4392 Z-0.7222 I0.0182 J0.0598
N834 X10.3367 Y0.4389 Z-0.7125 I0.0146 J0.0608
N835 G0 Z0.24
N836 X11.4589 Y0.5619
N837 Z0.2269
N838 G1 Z0.1368 F20
N839 G3 X11.4579 Y0.562 Z0.1281 I-0.0089 J-0.0619
N840 X11.4549 Y0.5623 Z0.1199 I-0.0079 J-0.062
N841 X11.45 Y0.5625 Z0.1125 I-0.0049 J-0.0623
N842 G18 G3 X11.4286 Z0.1 I-0.0286 K0.0243
N843 G1 X11.35 Z0.0847
N844 G17 G3 Y0.4375 Z0.0466 I0 J-0.0625
N845 G1 X11.45 Z0.0271
N846 G3 X11.5125 Y0.5 Z0.008 I0 J0.0625
N847 X11.45 Y0.5625 Z-0.011 I-0.0625 J0
N848 G1 X11.35 Z-0.0305
N849 G3 Y0.4375 Z-0.0686 I0 J-0.0625
N850 G1 X11.45 Z-0.0881
N851 G3 X11.5125 Y0.5 Z-0.1072 I0 J0.0625
N852 X11.45 Y0.5625 Z-0.1263 I-0.0625 J0
N853 G1 X11.35 Z-0.1457
N854 G3 Y0.4375 Z-0.1839 I0 J-0.0625
N855 G1 X11.3687 Z-0.1875
N856 X11.45 F30
N857 G3 Y0.5625 I0 J0.0625
N858 G1 X11.35
N859 G3 Y0.4375 I0 J-0.0625
N860 G1 X11.3687
N861 X11.45 Z-0.2033 F20
N862 G3 X11.5125 Y0.5 Z-0.2224 I0 J0.0625
N863 X11.45 Y0.5625 Z-0.2415 I-0.0625 J0
N864 G1 X11.35 Z-0.2609
N865 G3 Y0.4375 Z-0.2991 I0 J-0.0625
N866 G1 X11.45 Z-0.3185
N867 G3 X11.5125 Y0.5 Z-0.3376 I0 J0.0625
N868 X11.45 Y0.5625 Z-0.3567 I-0.0625 J0
N869 G1 X11.3557 Z-0.375
N870 X11.35 F30
N871 G3 Y0.4375 I0 J-0.0625
N872 G1 X11.45
N873 G3 Y0.5625 I0 J0.0625
N874 G1 X11.3557
N875 X11.35 Z-0.3761 F20
N876 G3 Y0.4375 Z-0.4143 I0 J-0.0625
N877 G1 X11.45 Z-0.4337
N878 G3 X11.5062 Y0.4726 Z-0.4473 I0 J0.0625
N879 X11.5125 Y0.5 Z-0.4528 I-0.0562 J0.0274
N880 X11.45 Y0.5625 Z-0.4719 I-0.0625 J0
N881 G1 X11.35 Z-0.4913
N882 G3 Y0.4375 Z-0.5295 I0 J-0.0625
N883 G1 X11.45 Z-0.5489
N884 G3 X11.5062 Y0.4726 Z-0.5625 I0 J0.0625
N885 X11.45 Y0.5625 I-0.0562 J0.0274 F30
N886 G1 X11.3557
N887 X11.35
N888 G3 Y0.4375 I0 J-0.0625
N889 G1 X11.45
N890 G3 X11.5062 Y0.4726 I0 J0.0625
N891 X11.5125 Y0.5 Z-0.568 I-0.0562 J0.0274 F20
N892 X11.45 Y0.5625 Z-0.5871 I-0.0625 J0
N893 G1 X11.35 Z-0.6065
N894 G3 X11.2875 Y0.5 Z-0.6256 I0 J-0.0625
N895 X11.3045 Y0.4571 Z-0.6348 I0.0625 J0
N896 X11.35 Y0.4375 Z-0.6447 I0.0455 J0.0429
N897 G1 X11.45 Z-0.6641
N898 G3 X11.5062 Y0.4726 Z-0.6777 I0 J0.0625
N899 X11.5125 Y0.5 Z-0.6832 I-0.0562 J0.0274
N900 X11.45 Y0.5625 Z-0.7023 I-0.0625 J0
N901 G1 X11.35 Z-0.7217
N902 G3 X11.2875 Y0.5 Z-0.7408 I0 J-0.0625
N903 X11.3045 Y0.4571 Z-0.75 I0.0625 J0
N904 X11.35 Y0.4375 I0.0455 J0.0429 F30
N905 G1 X11.45
N906 G3 Y0.5625 I0 J0.0625
N907 G1 X11.35
N908 G3 X11.3045 Y0.4571 I0 J-0.0625
N909 X11.3117 Y0.4506 Z-0.7487 I0.0455 J0.0429 F20
N910 X11.3192 Y0.4456 Z-0.745 I0.0383 J0.0494
N911 X11.3262 Y0.4422 Z-0.739 I0.0308 J0.0544
N912 X11.3318 Y0.4402 Z-0.7313 I0.0238 J0.0578
N913 X11.3354 Y0.4392 Z-0.7222 I0.0182 J0.0598
N914 X11.3367 Y0.4389 Z-0.7125 I0.0146 J0.0608
N915 G0 Z0.24
N916 X12.4589 Y0.5619
N917 Z0.2269
N918 G1 Z0.1368 F20
N919 G3 X12.4579 Y0.562 Z0.1281 I-0.0089 J-0.0619
N920 X12.4549 Y0.5623 Z0.1199 I-0.0079 J-0.062
N921 X12.45 Y0.5625 Z0.1125 I-0.0049 J-0.0623
N922 G18 G3 X12.4286 Z0.1 I-0.0286 K0.0243
N923 G1 X12.35 Z0.0847
N924 G17 G3 Y0.4375 Z0.0466 I0 J-0.0625
N925 G1 X12.45 Z0.0271
N926 G3 Y0.5625 Z-0.011 I0 J0.0625
N927 G1 X12.35 Z-0.0305
N928 G3 Y0.4375 Z-0.0686 I0 J-0.0625
N929 G1 X12.45 Z-0.0881
N930 G3 Y0.5625 Z-0.1263 I0 J0.0625
N931 G1 X12.35 Z-0.1457
N932 G3 Y0.4375 Z-0.1839 I0 J-0.0625
N933 G1 X12.3688 Z-0.1875
N934 X12.45 F30
N935 G3 Y0.5625 I0 J0.0625
N936 G1 X12.35
N937 G3 Y0.4375 I0 J-0.0625
N938 G1 X12.3688
N939 X12.45 Z-0.2033 F20
N940 G3 Y0.5625 Z-0.2415 I0 J0.0625
N941 G1 X12.35 Z-0.2609
N942 G3 Y0.4375 Z-0.2991 I0 J-0.0625
N943 G1 X12.45 Z-0.3185
N944 G3 Y0.5625 Z-0.3567 I0 J0.0625
N945 G1 X12.3557 Z-0.375
N946 X12.35 F30
N947 G3 Y0.4375 I0 J-0.0625
N948 G1 X12.45
N949 G3 Y0.5625 I0 J0.0625
N950 G1 X12.3557
N951 X12.35 Z-0.3761 F20
N952 G3 Y0.4375 Z-0.4143 I0 J-0.0625
N953 G1 X12.45 Z-0.4337
N954 G3 X12.5062 Y0.4726 Z-0.4473 I0 J0.0625
N955 X12.5125 Y0.5 Z-0.4528 I-0.0562 J0.0274
N956 X12.45 Y0.5625 Z-0.4719 I-0.0625 J0
N957 G1 X12.35 Z-0.4913
N958 G3 Y0.4375 Z-0.5295 I0 J-0.0625
N959 G1 X12.45 Z-0.5489
N960 G3 X12.5062 Y0.4726 Z-0.5625 I0 J0.0625
N961 X12.45 Y0.5625 I-0.0562 J0.0274 F30
N962 G1 X12.3557
N963 X12.35
N964 G3 Y0.4375 I0 J-0.0625
N965 G1 X12.45
N966 G3 X12.5062 Y0.4726 I0 J0.0625
N967 X12.5125 Y0.5 Z-0.568 I-0.0562 J0.0274 F20
N968 X12.45 Y0.5625 Z-0.5871 I-0.0625 J0
N969 G1 X12.35 Z-0.6065
N970 G3 X12.2875 Y0.5 Z-0.6256 I0 J-0.0625
N971 X12.3045 Y0.4571 Z-0.6348 I0.0625 J0
N972 X12.35 Y0.4375 Z-0.6447 I0.0455 J0.0429
N973 G1 X12.45 Z-0.6641
N974 G3 X12.5062 Y0.4726 Z-0.6777 I0 J0.0625
N975 X12.5125 Y0.5 Z-0.6832 I-0.0562 J0.0274
N976 X12.45 Y0.5625 Z-0.7023 I-0.0625 J0
N977 G1 X12.35 Z-0.7217
N978 G3 X12.2875 Y0.5 Z-0.7408 I0 J-0.0625
N979 X12.3045 Y0.4571 Z-0.75 I0.0625 J0
N980 X12.35 Y0.4375 I0.0455 J0.0429 F30
N981 G1 X12.45
N982 G3 Y0.5625 I0 J0.0625
N983 G1 X12.35
N984 G3 X12.3045 Y0.4571 I0 J-0.0625
N985 X12.3117 Y0.4506 Z-0.7487 I0.0455 J0.0429 F20
N986 X12.3192 Y0.4456 Z-0.745 I0.0383 J0.0494
N987 X12.3262 Y0.4422 Z-0.739 I0.0308 J0.0544
N988 X12.3318 Y0.4402 Z-0.7313 I0.0238 J0.0578
N989 X12.3354 Y0.4392 Z-0.7222 I0.0182 J0.0598
N990 X12.3367 Y0.4389 Z-0.7125 I0.0146 J0.0608
N991 G0 Z0.24
N992 X13.4589 Y0.5619
N993 Z0.2269
N994 G1 Z0.1368 F20
N995 G3 X13.4579 Y0.562 Z0.1281 I-0.0089 J-0.0619
N996 X13.4549 Y0.5623 Z0.1199 I-0.0079 J-0.062
N997 X13.45 Y0.5625 Z0.1125 I-0.0049 J-0.0623
N998 G18 G3 X13.4286 Z0.1 I-0.0286 K0.0243
N999 G1 X13.35 Z0.0847
N1000 G17 G3 Y0.4375 Z0.0466 I0 J-0.0625
N1001 G1 X13.45 Z0.0271
N1002 G3 Y0.5625 Z-0.011 I0 J0.0625
N1003 G1 X13.35 Z-0.0305
N1004 G3 Y0.4375 Z-0.0686 I0 J-0.0625
N1005 G1 X13.45 Z-0.0881
N1006 G3 Y0.5625 Z-0.1263 I0 J0.0625
N1007 G1 X13.35 Z-0.1457
N1008 G3 Y0.4375 Z-0.1839 I0 J-0.0625
N1009 G1 X13.3688 Z-0.1875
N1010 X13.45 F30
N1011 G3 Y0.5625 I0 J0.0625
N1012 G1 X13.35
N1013 G3 Y0.4375 I0 J-0.0625
N1014 G1 X13.3688
N1015 X13.45 Z-0.2033 F20
N1016 G3 Y0.5625 Z-0.2415 I0 J0.0625
N1017 G1 X13.35 Z-0.2609
N1018 G3 Y0.4375 Z-0.2991 I0 J-0.0625
N1019 G1 X13.45 Z-0.3185
N1020 G3 Y0.5625 Z-0.3567 I0 J0.0625
N1021 G1 X13.3557 Z-0.375
N1022 X13.35 F30
N1023 G3 Y0.4375 I0 J-0.0625
N1024 G1 X13.45
N1025 G3 Y0.5625 I0 J0.0625
N1026 G1 X13.3557
N1027 X13.35 Z-0.3761 F20
N1028 G3 Y0.4375 Z-0.4143 I0 J-0.0625
N1029 G1 X13.45 Z-0.4337
N1030 G3 X13.5062 Y0.4726 Z-0.4473 I0 J0.0625
N1031 X13.5125 Y0.5 Z-0.4528 I-0.0562 J0.0274
N1032 X13.45 Y0.5625 Z-0.4719 I-0.0625 J0
N1033 G1 X13.35 Z-0.4913
N1034 G3 Y0.4375 Z-0.5295 I0 J-0.0625
N1035 G1 X13.45 Z-0.5489
N1036 G3 X13.5062 Y0.4726 Z-0.5625 I0 J0.0625
N1037 X13.45 Y0.5625 I-0.0562 J0.0274 F30
N1038 G1 X13.3557
N1039 X13.35
N1040 G3 Y0.4375 I0 J-0.0625
N1041 G1 X13.45
N1042 G3 X13.5062 Y0.4726 I0 J0.0625
N1043 X13.5125 Y0.5 Z-0.568 I-0.0562 J0.0274 F20
N1044 X13.45 Y0.5625 Z-0.5871 I-0.0625 J0
N1045 G1 X13.35 Z-0.6065
N1046 G3 X13.3045 Y0.4571 Z-0.6348 I0 J-0.0625
N1047 X13.35 Y0.4375 Z-0.6447 I0.0455 J0.0429
N1048 G1 X13.45 Z-0.6641
N1049 G3 X13.5062 Y0.4726 Z-0.6777 I0 J0.0625
N1050 X13.5125 Y0.5 Z-0.6832 I-0.0562 J0.0274
N1051 X13.45 Y0.5625 Z-0.7023 I-0.0625 J0
N1052 G1 X13.35 Z-0.7217
N1053 G3 X13.3045 Y0.4571 Z-0.75 I0 J-0.0625
N1054 X13.35 Y0.4375 I0.0455 J0.0429 F30
N1055 G1 X13.45
N1056 G3 Y0.5625 I0 J0.0625
N1057 G1 X13.35
N1058 G3 X13.3045 Y0.4571 I0 J-0.0625
N1059 X13.3117 Y0.4506 Z-0.7487 I0.0455 J0.0429 F20
N1060 X13.3192 Y0.4456 Z-0.745 I0.0383 J0.0494
N1061 X13.3262 Y0.4422 Z-0.739 I0.0308 J0.0544
N1062 X13.3318 Y0.4402 Z-0.7313 I0.0238 J0.0578
N1063 X13.3354 Y0.4392 Z-0.7222 I0.0182 J0.0598
N1064 X13.3367 Y0.4389 Z-0.7125 I0.0146 J0.0608
N1065 G0 Z0.24
N1066 X14.4589 Y0.5619
N1067 Z0.2269
N1068 G1 Z0.1368 F20
N1069 G3 X14.4579 Y0.562 Z0.1281 I-0.0089 J-0.0619
N1070 X14.4549 Y0.5623 Z0.1199 I-0.0079 J-0.062
N1071 X14.45 Y0.5625 Z0.1125 I-0.0049 J-0.0623
N1072 G18 G3 X14.4286 Z0.1 I-0.0286 K0.0243
N1073 G1 X14.35 Z0.0847
N1074 G17 G3 Y0.4375 Z0.0466 I0 J-0.0625
N1075 G1 X14.45 Z0.0271
N1076 G3 Y0.5625 Z-0.011 I0 J0.0625
N1077 G1 X14.35 Z-0.0305
N1078 G3 Y0.4375 Z-0.0686 I0 J-0.0625
N1079 G1 X14.45 Z-0.0881
N1080 G3 Y0.5625 Z-0.1263 I0 J0.0625
N1081 G1 X14.35 Z-0.1457
N1082 G3 Y0.4375 Z-0.1839 I0 J-0.0625
N1083 G1 X14.3687 Z-0.1875
N1084 X14.45 F30
N1085 G3 Y0.5625 I0 J0.0625
N1086 G1 X14.35
N1087 G3 Y0.4375 I0 J-0.0625
N1088 G1 X14.3687
N1089 X14.45 Z-0.2033 F20
N1090 G3 Y0.5625 Z-0.2415 I0 J0.0625
N1091 G1 X14.35 Z-0.2609
N1092 G3 Y0.4375 Z-0.2991 I0 J-0.0625
N1093 G1 X14.45 Z-0.3185
N1094 G3 Y0.5625 Z-0.3567 I0 J0.0625
N1095 G1 X14.3557 Z-0.375
N1096 X14.35 F30
N1097 G3 Y0.4375 I0 J-0.0625
N1098 G1 X14.45
N1099 G3 Y0.5625 I0 J0.0625
N1100 G1 X14.3557
N1101 X14.35 Z-0.3761 F20
N1102 G3 Y0.4375 Z-0.4143 I0 J-0.0625
N1103 G1 X14.45 Z-0.4337
N1104 G3 X14.5062 Y0.4726 Z-0.4473 I0 J0.0625
N1105 X14.5125 Y0.5 Z-0.4528 I-0.0562 J0.0274
N1106 X14.45 Y0.5625 Z-0.4719 I-0.0625 J0
N1107 G1 X14.35 Z-0.4913
N1108 G3 Y0.4375 Z-0.5295 I0 J-0.0625
N1109 G1 X14.45 Z-0.5489
N1110 G3 X14.5062 Y0.4726 Z-0.5625 I0 J0.0625
N1111 X14.45 Y0.5625 I-0.0562 J0.0274 F30
N1112 G1 X14.3557
N1113 X14.35
N1114 G3 Y0.4375 I0 J-0.0625
N1115 G1 X14.45
N1116 G3 X14.5062 Y0.4726 I0 J0.0625
N1117 X14.5125 Y0.5 Z-0.568 I-0.0562 J0.0274 F20
N1118 X14.45 Y0.5625 Z-0.5871 I-0.0625 J0
N1119 G1 X14.35 Z-0.6065
N1120 G3 X14.3045 Y0.4571 Z-0.6348 I0 J-0.0625
N1121 X14.35 Y0.4375 Z-0.6447 I0.0455 J0.0429
N1122 G1 X14.45 Z-0.6641
N1123 G3 X14.5062 Y0.4726 Z-0.6777 I0 J0.0625
N1124 X14.5125 Y0.5 Z-0.6832 I-0.0562 J0.0274
N1125 X14.45 Y0.5625 Z-0.7023 I-0.0625 J0
N1126 G1 X14.35 Z-0.7217
N1127 G3 X14.3045 Y0.4571 Z-0.75 I0 J-0.0625
N1128 X14.35 Y0.4375 I0.0455 J0.0429 F30
N1129 G1 X14.45
N1130 G3 Y0.5625 I0 J0.0625
N1131 G1 X14.35
N1132 G3 X14.3045 Y0.4571 I0 J-0.0625
N1133 X14.3117 Y0.4506 Z-0.7487 I0.0455 J0.0429 F20
N1134 X14.3192 Y0.4456 Z-0.745 I0.0383 J0.0494
N1135 X14.3262 Y0.4422 Z-0.739 I0.0308 J0.0544
N1136 X14.3318 Y0.4402 Z-0.7313 I0.0238 J0.0578
N1137 X14.3354 Y0.4392 Z-0.7222 I0.0182 J0.0598
N1138 X14.3367 Y0.4389 Z-0.7125 I0.0146 J0.0608
N1139 G0 Z0.24
N1140 X15.4589 Y0.5619
N1141 Z0.2269
N1142 G1 Z0.1368 F20
N1143 G3 X15.4579 Y0.562 Z0.1281 I-0.0089 J-0.0619
N1144 X15.4549 Y0.5623 Z0.1199 I-0.0079 J-0.062
N1145 X15.45 Y0.5625 Z0.1125 I-0.0049 J-0.0623
N1146 G18 G3 X15.4286 Z0.1 I-0.0286 K0.0243
N1147 G1 X15.35 Z0.0847
N1148 G17 G3 X15.2875 Y0.5 Z0.0656 I0 J-0.0625
N1149 X15.35 Y0.4375 Z0.0466 I0.0625 J0
N1150 G1 X15.45 Z0.0271
N1151 G3 Y0.5625 Z-0.011 I0 J0.0625
N1152 G1 X15.35 Z-0.0305
N1153 G3 X15.2875 Y0.5 Z-0.0496 I0 J-0.0625
N1154 X15.35 Y0.4375 Z-0.0686 I0.0625 J0
N1155 G1 X15.45 Z-0.0881
N1156 G3 Y0.5625 Z-0.1263 I0 J0.0625
N1157 G1 X15.35 Z-0.1457
N1158 G3 X15.2875 Y0.5 Z-0.1648 I0 J-0.0625
N1159 X15.35 Y0.4375 Z-0.1839 I0.0625 J0
N1160 G1 X15.3687 Z-0.1875
N1161 X15.45 F30
N1162 G3 Y0.5625 I0 J0.0625
N1163 G1 X15.35
N1164 G3 Y0.4375 I0 J-0.0625
N1165 G1 X15.3687
N1166 X15.45 Z-0.2033 F20
N1167 G3 Y0.5625 Z-0.2415 I0 J0.0625
N1168 G1 X15.35 Z-0.2609
N1169 G3 X15.2875 Y0.5 Z-0.28 I0 J-0.0625
N1170 X15.35 Y0.4375 Z-0.2991 I0.0625 J0
N1171 G1 X15.45 Z-0.3185
N1172 G3 Y0.5625 Z-0.3567 I0 J0.0625
N1173 G1 X15.3557 Z-0.375
N1174 X15.35 F30
N1175 G3 Y0.4375 I0 J-0.0625
N1176 G1 X15.45
N1177 G3 Y0.5625 I0 J0.0625
N1178 G1 X15.3557
N1179 X15.35 Z-0.3761 F20
N1180 G3 X15.2875 Y0.5 Z-0.3952 I0 J-0.0625
N1181 X15.35 Y0.4375 Z-0.4143 I0.0625 J0
N1182 G1 X15.45 Z-0.4337
N1183 G3 X15.5062 Y0.4726 Z-0.4473 I0 J0.0625
N1184 X15.5125 Y0.5 Z-0.4528 I-0.0562 J0.0274
N1185 X15.45 Y0.5625 Z-0.4719 I-0.0625 J0
N1186 G1 X15.35 Z-0.4913
N1187 G3 X15.2875 Y0.5 Z-0.5104 I0 J-0.0625
N1188 X15.35 Y0.4375 Z-0.5295 I0.0625 J0
N1189 G1 X15.45 Z-0.5489
N1190 G3 X15.5062 Y0.4726 Z-0.5625 I0 J0.0625
N1191 X15.45 Y0.5625 I-0.0562 J0.0274 F30
N1192 G1 X15.3557
N1193 X15.35
N1194 G3 Y0.4375 I0 J-0.0625
N1195 G1 X15.45
N1196 G3 X15.5062 Y0.4726 I0 J0.0625
N1197 X15.5125 Y0.5 Z-0.568 I-0.0562 J0.0274 F20
N1198 X15.45 Y0.5625 Z-0.5871 I-0.0625 J0
N1199 G1 X15.35 Z-0.6065
N1200 G3 X15.2875 Y0.5 Z-0.6256 I0 J-0.0625
N1201 X15.35 Y0.4375 Z-0.6447 I0.0625 J0
N1202 G1 X15.45 Z-0.6641
N1203 G3 X15.5062 Y0.4726 Z-0.6777 I0 J0.0625
N1204 X15.5125 Y0.5 Z-0.6832 I-0.0562 J0.0274
N1205 X15.45 Y0.5625 Z-0.7023 I-0.0625 J0
N1206 G1 X15.35 Z-0.7217
N1207 G3 X15.2875 Y0.5 Z-0.7408 I0 J-0.0625
N1208 X15.3045 Y0.4571 Z-0.75 I0.0625 J0
N1209 X15.35 Y0.4375 I0.0455 J0.0429 F30
N1210 G1 X15.45
N1211 G3 Y0.5625 I0 J0.0625
N1212 G1 X15.35
N1213 G3 X15.3045 Y0.4571 I0 J-0.0625
N1214 X15.3117 Y0.4506 Z-0.7487 I0.0455 J0.0429 F20
N1215 X15.3192 Y0.4456 Z-0.745 I0.0383 J0.0494
N1216 X15.3262 Y0.4422 Z-0.739 I0.0308 J0.0544
N1217 X15.3318 Y0.4402 Z-0.7313 I0.0238 J0.0578
N1218 X15.3354 Y0.4392 Z-0.7222 I0.0182 J0.0598
N1219 X15.3367 Y0.4389 Z-0.7125 I0.0146 J0.0608
N1220 G0 Z0.24
N1221 X16.4589 Y0.5619
N1222 Z0.2269
N1223 G1 Z0.1368 F20
N1224 G3 X16.4579 Y0.562 Z0.1281 I-0.0089 J-0.0619
N1225 X16.4549 Y0.5623 Z0.1199 I-0.0079 J-0.062
N1226 X16.45 Y0.5625 Z0.1125 I-0.0049 J-0.0623
N1227 G18 G3 X16.4286 Z0.1 I-0.0286 K0.0243
N1228 G1 X16.35 Z0.0847
N1229 G17 G3 Y0.4375 Z0.0466 I0 J-0.0625
N1230 G1 X16.45 Z0.0271
N1231 G3 X16.5125 Y0.5 Z0.008 I0 J0.0625
N1232 X16.45 Y0.5625 Z-0.011 I-0.0625 J0
N1233 G1 X16.35 Z-0.0305
N1234 G3 Y0.4375 Z-0.0686 I0 J-0.0625
N1235 G1 X16.45 Z-0.0881
N1236 G3 X16.5125 Y0.5 Z-0.1072 I0 J0.0625
N1237 X16.45 Y0.5625 Z-0.1263 I-0.0625 J0
N1238 G1 X16.35 Z-0.1457
N1239 G3 Y0.4375 Z-0.1839 I0 J-0.0625
N1240 G1 X16.3687 Z-0.1875
N1241 X16.45 F30
N1242 G3 Y0.5625 I0 J0.0625
N1243 G1 X16.35
N1244 G3 Y0.4375 I0 J-0.0625
N1245 G1 X16.3687
N1246 X16.45 Z-0.2033 F20
N1247 G3 X16.5125 Y0.5 Z-0.2224 I0 J0.0625
N1248 X16.45 Y0.5625 Z-0.2415 I-0.0625 J0
N1249 G1 X16.35 Z-0.2609
N1250 G3 Y0.4375 Z-0.2991 I0 J-0.0625
N1251 G1 X16.45 Z-0.3185
N1252 G3 X16.5125 Y0.5 Z-0.3376 I0 J0.0625
N1253 X16.45 Y0.5625 Z-0.3567 I-0.0625 J0
N1254 G1 X16.3557 Z-0.375
N1255 X16.35 F30
N1256 G3 Y0.4375 I0 J-0.0625
N1257 G1 X16.45
N1258 G3 Y0.5625 I0 J0.0625
N1259 G1 X16.3557
N1260 X16.35 Z-0.3761 F20
N1261 G3 Y0.4375 Z-0.4143 I0 J-0.0625
N1262 G1 X16.45 Z-0.4337
N1263 G3 X16.5062 Y0.4726 Z-0.4473 I0 J0.0625
N1264 X16.5125 Y0.5 Z-0.4528 I-0.0562 J0.0274
N1265 X16.45 Y0.5625 Z-0.4719 I-0.0625 J0
N1266 G1 X16.35 Z-0.4913
N1267 G3 Y0.4375 Z-0.5295 I0 J-0.0625
N1268 G1 X16.45 Z-0.5489
N1269 G3 X16.5062 Y0.4726 Z-0.5625 I0 J0.0625
N1270 X16.45 Y0.5625 I-0.0562 J0.0274 F30
N1271 G1 X16.3557
N1272 X16.35
N1273 G3 Y0.4375 I0 J-0.0625
N1274 G1 X16.45
N1275 G3 X16.5062 Y0.4726 I0 J0.0625
N1276 X16.5125 Y0.5 Z-0.568 I-0.0562 J0.0274 F20
N1277 X16.45 Y0.5625 Z-0.5871 I-0.0625 J0
N1278 G1 X16.35 Z-0.6065
N1279 G3 X16.2875 Y0.5 Z-0.6256 I0 J-0.0625
N1280 X16.3045 Y0.4571 Z-0.6348 I0.0625 J0
N1281 X16.35 Y0.4375 Z-0.6447 I0.0455 J0.0429
N1282 G1 X16.45 Z-0.6641
N1283 G3 X16.5062 Y0.4726 Z-0.6777 I0 J0.0625
N1284 X16.5125 Y0.5 Z-0.6832 I-0.0562 J0.0274
N1285 X16.45 Y0.5625 Z-0.7023 I-0.0625 J0
N1286 G1 X16.35 Z-0.7217
N1287 G3 X16.2875 Y0.5 Z-0.7408 I0 J-0.0625
N1288 X16.3045 Y0.4571 Z-0.75 I0.0625 J0
N1289 X16.35 Y0.4375 I0.0455 J0.0429 F30
N1290 G1 X16.45
N1291 G3 Y0.5625 I0 J0.0625
N1292 G1 X16.35
N1293 G3 X16.3045 Y0.4571 I0 J-0.0625
N1294 X16.3117 Y0.4506 Z-0.7487 I0.0455 J0.0429 F20
N1295 X16.3192 Y0.4456 Z-0.745 I0.0383 J0.0494
N1296 X16.3262 Y0.4422 Z-0.739 I0.0308 J0.0544
N1297 X16.3318 Y0.4402 Z-0.7313 I0.0238 J0.0578
N1298 X16.3354 Y0.4392 Z-0.7222 I0.0182 J0.0598
N1299 X16.3367 Y0.4389 Z-0.7125 I0.0146 J0.0608
N1300 G0 Z0.24
N1301 X17.4589 Y0.5619
N1302 Z0.2269
N1303 G1 Z0.1368 F20
N1304 G3 X17.4579 Y0.562 Z0.1281 I-0.0089 J-0.0619
N1305 X17.4549 Y0.5623 Z0.1199 I-0.0079 J-0.062
N1306 X17.45 Y0.5625 Z0.1125 I-0.0049 J-0.0623
N1307 G18 G3 X17.4286 Z0.1 I-0.0286 K0.0243
N1308 G1 X17.35 Z0.0847
N1309 G17 G3 Y0.4375 Z0.0466 I0 J-0.0625
N1310 G1 X17.45 Z0.0271
N1311 G3 Y0.5625 Z-0.011 I0 J0.0625
N1312 G1 X17.35 Z-0.0305
N1313 G3 Y0.4375 Z-0.0686 I0 J-0.0625
N1314 G1 X17.45 Z-0.0881
N1315 G3 Y0.5625 Z-0.1263 I0 J0.0625
N1316 G1 X17.35 Z-0.1457
N1317 G3 Y0.4375 Z-0.1839 I0 J-0.0625
N1318 G1 X17.3688 Z-0.1875
N1319 X17.45 F30
N1320 G3 Y0.5625 I0 J0.0625
N1321 G1 X17.35
N1322 G3 Y0.4375 I0 J-0.0625
N1323 G1 X17.3688
N1324 X17.45 Z-0.2033 F20
N1325 G3 Y0.5625 Z-0.2415 I0 J0.0625
N1326 G1 X17.35 Z-0.2609
N1327 G3 Y0.4375 Z-0.2991 I0 J-0.0625
N1328 G1 X17.45 Z-0.3185
N1329 G3 Y0.5625 Z-0.3567 I0 J0.0625
N1330 G1 X17.3557 Z-0.375
N1331 X17.35 F30
N1332 G3 Y0.4375 I0 J-0.0625
N1333 G1 X17.45
N1334 G3 Y0.5625 I0 J0.0625
N1335 G1 X17.3557
N1336 X17.35 Z-0.3761 F20
N1337 G3 Y0.4375 Z-0.4143 I0 J-0.0625
N1338 G1 X17.45 Z-0.4337
N1339 G3 X17.5062 Y0.4726 Z-0.4473 I0 J0.0625
N1340 X17.5125 Y0.5 Z-0.4528 I-0.0562 J0.0274
N1341 X17.45 Y0.5625 Z-0.4719 I-0.0625 J0
N1342 G1 X17.35 Z-0.4913
N1343 G3 Y0.4375 Z-0.5295 I0 J-0.0625
N1344 G1 X17.45 Z-0.5489
N1345 G3 X17.5062 Y0.4726 Z-0.5625 I0 J0.0625
N1346 X17.45 Y0.5625 I-0.0562 J0.0274 F30
N1347 G1 X17.3557
N1348 X17.35
N1349 G3 Y0.4375 I0 J-0.0625
N1350 G1 X17.45
N1351 G3 X17.5062 Y0.4726 I0 J0.0625
N1352 X17.5125 Y0.5 Z-0.568 I-0.0562 J0.0274 F20
N1353 X17.45 Y0.5625 Z-0.5871 I-0.0625 J0
N1354 G1 X17.35 Z-0.6065
N1355 G3 X17.2875 Y0.5 Z-0.6256 I0 J-0.0625
N1356 X17.3045 Y0.4571 Z-0.6348 I0.0625 J0
N1357 X17.35 Y0.4375 Z-0.6447 I0.0455 J0.0429
N1358 G1 X17.45 Z-0.6641
N1359 G3 X17.5062 Y0.4726 Z-0.6777 I0 J0.0625
N1360 X17.5125 Y0.5 Z-0.6832 I-0.0562 J0.0274
N1361 X17.45 Y0.5625 Z-0.7023 I-0.0625 J0
N1362 G1 X17.35 Z-0.7217
N1363 G3 X17.2875 Y0.5 Z-0.7408 I0 J-0.0625
N1364 X17.3045 Y0.4571 Z-0.75 I0.0625 J0
N1365 X17.35 Y0.4375 I0.0455 J0.0429 F30
N1366 G1 X17.45
N1367 G3 Y0.5625 I0 J0.0625
N1368 G1 X17.35
N1369 G3 X17.3045 Y0.4571 I0 J-0.0625
N1370 X17.3117 Y0.4506 Z-0.7487 I0.0455 J0.0429 F20
N1371 X17.3192 Y0.4456 Z-0.745 I0.0383 J0.0494
N1372 X17.3262 Y0.4422 Z-0.739 I0.0308 J0.0544
N1373 X17.3318 Y0.4402 Z-0.7313 I0.0238 J0.0578
N1374 X17.3354 Y0.4392 Z-0.7222 I0.0182 J0.0598
N1375 X17.3367 Y0.4389 Z-0.7125 I0.0146 J0.0608
N1376 G0 Z0.24
N1378 Z1
N1379 M5
N1380 M30
